;FLAVOR:Marlin
;TIME:13211
;Filament used: 8.00934m
;Layer height: 0.2
;MINX:49
;MINY:22.21
;MINZ:0.2
;MAXX:186.599
;MAXY:191.37
;MAXZ:20
;Generated with Creality Slicer 4.8.2-205
M140 S50
M105
M190 S50
M104 S200
M105
M109 S200
M82 ;absolute extrusion mode

G28 ;Home

G92 E0 ;Reset Extruder
G1 Z2.0 F3000 ;Move Z Axis up
G1 X10.1 Y20 Z0.28 F5000.0 ;Move to start position
G1 X10.1 Y200.0 Z0.28 F1500.0 E15 ;Draw the first line
G1 X10.4 Y200.0 Z0.28 F5000.0 ;Move to side a little
G1 X10.4 Y20 Z0.28 F1500.0 E30 ;Draw the second line
G92 E0 ;Reset Extruder
G1 Z2.0 F3000 ;Move Z Axis up

G92 E0
G92 E0
G1 F2700 E-5
;LAYER_COUNT:100
;LAYER:0
M107
G0 F6000 X50.492 Y27.703 Z0.2
;TYPE:SKIRT
G1 F2700 E0
G1 F1200 X50.996 Y26.913 E0.03117
G1 X51.566 Y26.168 E0.06237
G1 X52.198 Y25.474 E0.09359
G1 X52.886 Y24.837 E0.12477
G1 X53.626 Y24.261 E0.15596
G1 X54.412 Y23.749 E0.18716
G1 X55.239 Y23.307 E0.21835
G1 X56.101 Y22.937 E0.24955
G1 X56.991 Y22.641 E0.28074
G1 X57.903 Y22.423 E0.31193
G1 X58.83 Y22.282 E0.34312
G1 X59.701 Y22.223 E0.37216
G1 X60.022 Y22.214 E0.38284
G1 X60.33 Y22.21 E0.39308
G1 X159.293 Y22.21 E3.6846
G1 X160.133 Y22.22 E3.71254
G1 X161.069 Y22.272 E3.74372
G1 X161.998 Y22.404 E3.77493
G1 X162.912 Y22.614 E3.80612
G1 X163.805 Y22.901 E3.83732
G1 X164.67 Y23.264 E3.86852
G1 X165.501 Y23.698 E3.8997
G1 X166.292 Y24.202 E3.9309
G1 X167.037 Y24.772 E3.9621
G1 X167.731 Y25.403 E3.9933
G1 X168.368 Y26.09 E4.02446
G1 X168.945 Y26.83 E4.05567
G1 X169.457 Y27.616 E4.08687
G1 X169.9 Y28.443 E4.11807
G1 X170.271 Y29.304 E4.14925
G1 X170.567 Y30.194 E4.18045
G1 X170.786 Y31.106 E4.21164
G1 X170.927 Y32.033 E4.24283
G1 X170.987 Y32.911 E4.2721
G1 X170.996 Y33.232 E4.28278
G1 X171 Y33.54 E4.29303
G1 X171 Y80.723 E5.86234
G1 X171.037 Y83.331 E5.94909
G1 X171.144 Y85.852 E6.03302
G1 X171.321 Y88.347 E6.11621
G1 X171.569 Y90.847 E6.19977
G1 X171.888 Y93.34 E6.28336
G1 X172.279 Y95.833 E6.36729
G1 X172.742 Y98.323 E6.45153
G1 X173.272 Y100.787 E6.53536
G1 X173.855 Y103.167 E6.61686
G1 X174.537 Y105.645 E6.70234
G1 X175.275 Y108.055 E6.78617
G1 X176.082 Y110.447 E6.87013
G1 X176.945 Y112.787 E6.95309
G1 X177.891 Y115.143 E7.03753
G1 X178.885 Y117.428 E7.12041
G1 X179.96 Y119.722 E7.20467
G1 X181.103 Y121.992 E7.2892
G1 X182.288 Y124.185 E7.37211
G1 X183.543 Y126.362 E7.45568
G1 X184.729 Y128.298 E7.5312
G1 X184.887 Y128.549 E7.54106
G1 X185.353 Y129.363 E7.57226
G1 X185.747 Y130.214 E7.60345
G1 X186.068 Y131.095 E7.63464
G1 X186.312 Y132.001 E7.66584
G1 X186.479 Y132.924 E7.69704
G1 X186.578 Y134.196 E7.73948
G1 X186.597 Y135.165 E7.77171
G1 X186.599 Y135.383 E7.77896
G1 X186.591 Y171.447 E8.97846
G1 X186.581 Y172.134 E9.00131
G1 X186.527 Y173.07 E9.03249
G1 X186.394 Y173.999 E9.0637
G1 X186.182 Y174.912 E9.09488
G1 X185.893 Y175.805 E9.1261
G1 X185.53 Y176.669 E9.15727
G1 X185.094 Y177.499 E9.18845
G1 X184.588 Y178.29 E9.21968
G1 X183.778 Y179.311 E9.26303
G1 X183.667 Y179.435 E9.26856
G1 X183.012 Y180.106 E9.29975
G1 X182.303 Y180.719 E9.33092
G1 X181.543 Y181.27 E9.36215
G1 X180.74 Y181.754 E9.39333
G1 X179.898 Y182.168 E9.42454
G1 X179.024 Y182.508 E9.45573
G1 X178.475 Y182.68 E9.47486
G1 X177.723 Y182.894 E9.50087
G1 X175.234 Y183.641 E9.5873
G1 X172.829 Y184.437 E9.67156
G1 X170.491 Y185.289 E9.75432
G1 X168.149 Y186.215 E9.83809
G1 X165.816 Y187.214 E9.9225
G1 X165.041 Y187.57 E9.95086
G1 X164.845 Y187.658 E9.95801
G1 X163.417 Y188.28 E10.00982
G1 X160.138 Y189.639 E10.12787
G1 X159.381 Y189.942 E10.15499
G1 X158.496 Y190.252 E10.18618
G1 X157.587 Y190.485 E10.21739
G1 X156.95 Y190.6 E10.23892
G1 X155.857 Y190.763 E10.27568
G1 X152.531 Y191.201 E10.38725
G1 X151.678 Y191.301 E10.41582
G1 X150.742 Y191.37 E10.44703
G1 X149.804 Y191.358 E10.47824
G1 X149.161 Y191.304 E10.4997
G1 X148.076 Y191.179 E10.53602
G1 X144.573 Y190.717 E10.65354
G1 X143.895 Y190.618 E10.67633
G1 X142.973 Y190.443 E10.70754
G1 X141.787 Y190.093 E10.74867
G1 X140.717 Y189.711 E10.78646
G1 X138.263 Y188.874 E10.8727
G1 X135.862 Y188.129 E10.95631
G1 X133.442 Y187.455 E11.03987
G1 X130.951 Y186.834 E11.12525
G1 X128.51 Y186.301 E11.20835
G1 X126.068 Y185.838 E11.29102
G1 X123.587 Y185.44 E11.37459
G1 X121.055 Y185.108 E11.45953
G1 X118.569 Y184.851 E11.54266
G1 X116.045 Y184.664 E11.62683
G1 X113.545 Y184.549 E11.71007
G1 X111.026 Y184.506 E11.79387
G1 X108.534 Y184.532 E11.87676
G1 X105.978 Y184.632 E11.96183
G1 X103.497 Y184.799 E12.04454
G1 X100.959 Y185.042 E12.12934
G1 X98.484 Y185.351 E12.2123
G1 X95.993 Y185.732 E12.29611
G1 X93.523 Y186.183 E12.37962
G1 X91.059 Y186.704 E12.46339
G1 X88.605 Y187.297 E12.54736
G1 X86.173 Y187.957 E12.63117
G1 X84.114 Y188.574 E12.70266
G1 X83.957 Y188.623 E12.70813
G1 X82.957 Y188.883 E12.7425
G1 X82.753 Y188.926 E12.74943
G1 X81.828 Y189.081 E12.78063
G1 X81.312 Y189.132 E12.79787
G1 X80.994 Y189.156 E12.80848
G1 X80.635 Y189.177 E12.82044
G1 X80.348 Y189.189 E12.82999
G1 X79.618 Y189.212 E12.85429
G1 X79.303 Y189.217 E12.86477
G1 X78.945 Y189.218 E12.87667
G1 X78.494 Y189.212 E12.89167
G1 X77.667 Y189.184 E12.9192
G1 X76.732 Y189.112 E12.95039
G1 X75.807 Y188.96 E12.98156
G1 X75.23 Y188.823 E13.00129
G1 X74.761 Y188.698 E13.01743
G1 X72.784 Y188.141 E13.08575
G1 X69.309 Y187.289 E13.20475
G1 X68.797 Y187.174 E13.2222
G1 X67.905 Y186.934 E13.25293
G1 X67.683 Y186.864 E13.26067
G1 X66.801 Y186.544 E13.29188
G1 X66.177 Y186.264 E13.31462
G1 X65.877 Y186.118 E13.32572
G1 X65.598 Y185.977 E13.33612
G1 X65.264 Y185.801 E13.34867
G1 X64.951 Y185.632 E13.36051
G1 X64.624 Y185.449 E13.37297
G1 X63.651 Y184.88 E13.41046
G1 X63.327 Y184.683 E13.42307
G1 X62.952 Y184.446 E13.43782
G1 X62.182 Y183.911 E13.46901
G1 X61.459 Y183.313 E13.50022
G1 X61.015 Y182.889 E13.52064
G1 X60.26 Y182.125 E13.55636
G1 X59.669 Y181.511 E13.58471
G1 X57.861 Y179.737 E13.66895
G1 X57.389 Y179.3 E13.69035
G1 X57.249 Y179.159 E13.69696
G1 X56.301 Y178.267 E13.74025
G1 X55.696 Y177.652 E13.76894
G1 X55.557 Y177.499 E13.77582
G1 X54.957 Y176.778 E13.80702
G1 X54.598 Y176.281 E13.82741
G1 X54.469 Y176.091 E13.83505
G1 X54.323 Y175.869 E13.84388
G1 X54.122 Y175.557 E13.85623
G1 X53.988 Y175.344 E13.8646
G1 X53.819 Y175.068 E13.87536
G1 X53.636 Y174.759 E13.88731
G1 X53.024 Y173.682 E13.92851
G1 X52.83 Y173.324 E13.94205
G1 X52.638 Y172.955 E13.95589
G1 X52.241 Y172.106 E13.98706
G1 X51.918 Y171.225 E14.01827
G1 X51.749 Y170.641 E14.03849
G1 X51.453 Y169.497 E14.07779
G1 X51.32 Y168.953 E14.09642
G1 X50.655 Y166.535 E14.17983
G1 X50.358 Y165.569 E14.21344
G1 X49.983 Y164.293 E14.25767
G1 X49.757 Y163.382 E14.28889
G1 X49.666 Y162.869 E14.30622
G1 X49.554 Y161.862 E14.33992
G1 X49.493 Y160.918 E14.37138
G1 X49.474 Y160.506 E14.3851
G1 X49.46 Y159.987 E14.40237
G1 X49.461 Y159.372 E14.42283
G1 X49.468 Y158.911 E14.43816
G1 X49.478 Y158.566 E14.44964
G1 X49.508 Y157.89 E14.47215
G1 X49.589 Y156.956 E14.50333
G1 X49.75 Y156.032 E14.53452
G1 X49.893 Y155.454 E14.55433
G1 X50.219 Y154.274 E14.59504
G1 X50.364 Y153.774 E14.61236
G1 X51.004 Y151.313 E14.69693
G1 X51.434 Y149.467 E14.75998
G1 X51.469 Y149.327 E14.76478
G1 X51.652 Y148.68 E14.78714
G1 X52.044 Y147.441 E14.83036
G1 X52.797 Y144.936 E14.91736
G1 X53.449 Y142.528 E15.00034
G1 X54.037 Y140.077 E15.08417
G1 X54.564 Y137.579 E15.16908
G1 X55.005 Y135.143 E15.25142
G1 X55.384 Y132.645 E15.33546
G1 X55.69 Y130.164 E15.4186
G1 X55.929 Y127.642 E15.50286
G1 X56.096 Y125.126 E15.58672
G1 X56.192 Y122.604 E15.67067
G1 X56.215 Y120.116 E15.75342
G1 X56.168 Y117.584 E15.83765
G1 X56.049 Y115.071 E15.92133
G1 X55.859 Y112.544 E16.00561
G1 X55.602 Y110.077 E16.08811
G1 X55.266 Y107.54 E16.17323
G1 X54.867 Y105.072 E16.25638
G1 X54.399 Y102.616 E16.33954
G1 X53.85 Y100.123 E16.42444
G1 X53.253 Y97.733 E16.50637
G1 X52.565 Y95.278 E16.59117
G1 X51.814 Y92.863 E16.67529
G1 X51.006 Y90.504 E16.75823
G1 X50.199 Y88.335 E16.8352
G1 X49.748 Y87.168 E16.87681
G1 X49.448 Y86.28 E16.90799
G1 X49.224 Y85.369 E16.93919
G1 X49.079 Y84.442 E16.9704
G1 X49.013 Y83.509 E17.00151
G1 X49.004 Y83.185 E17.01229
G1 X49 Y82.88 E17.02243
G1 X49.001 Y33.735 E18.657
G1 X49.01 Y33.07 E18.67912
G1 X49.063 Y32.134 E18.7103
G1 X49.195 Y31.205 E18.74151
G1 X49.406 Y30.291 E18.77271
G1 X49.694 Y29.399 E18.80389
G1 X50.057 Y28.534 E18.83509
G1 X50.492 Y27.703 E18.86628
G0 F6000 X50.889 Y27.816
G1 F1200 X51.392 Y27.045 E18.8969
G1 X51.961 Y26.321 E18.92753
G1 X52.589 Y25.649 E18.95812
G1 X53.274 Y25.033 E18.98876
G1 X54.01 Y24.48 E19.01938
G1 X54.791 Y23.992 E19.05001
G1 X55.611 Y23.574 E19.08062
G1 X56.465 Y23.229 E19.11126
G1 X57.345 Y22.959 E19.14187
G1 X58.245 Y22.767 E19.17248
G1 X59.159 Y22.653 E19.20312
G1 X59.712 Y22.623 E19.22154
G1 X60.033 Y22.614 E19.23222
G1 X60.33 Y22.61 E19.2421
G1 X159.293 Y22.61 E22.53362
G1 X160.128 Y22.62 E22.56139
G1 X161.047 Y22.672 E22.59201
G1 X161.958 Y22.803 E22.62262
G1 X162.854 Y23.013 E22.65323
G1 X163.729 Y23.3 E22.68386
G1 X164.576 Y23.662 E22.71449
G1 X165.388 Y24.096 E22.74512
G1 X166.159 Y24.598 E22.77572
G1 X166.884 Y25.166 E22.80635
G1 X167.557 Y25.795 E22.83699
G1 X168.172 Y26.479 E22.86758
G1 X168.726 Y27.214 E22.89819
G1 X169.214 Y27.995 E22.92882
G1 X169.633 Y28.815 E22.95945
G1 X169.979 Y29.668 E22.99007
G1 X170.249 Y30.548 E23.02068
G1 X170.442 Y31.449 E23.05133
G1 X170.556 Y32.362 E23.08193
G1 X170.587 Y32.922 E23.10059
G1 X170.596 Y33.243 E23.11127
G1 X170.6 Y33.54 E23.12115
G1 X170.6 Y80.729 E24.69066
G1 X170.637 Y83.354 E24.77797
G1 X170.744 Y85.862 E24.86147
G1 X170.922 Y88.382 E24.94549
G1 X171.171 Y90.897 E25.02955
G1 X171.49 Y93.386 E25.11301
G1 X171.891 Y95.938 E25.19893
G1 X172.343 Y98.369 E25.28117
G1 X172.879 Y100.861 E25.36595
G1 X173.481 Y103.318 E25.45009
G1 X174.154 Y105.763 E25.53444
G1 X174.889 Y108.163 E25.61792
G1 X175.703 Y110.577 E25.70265
G1 X176.57 Y112.927 E25.78596
G1 X177.529 Y115.315 E25.87155
G1 X178.52 Y117.592 E25.95415
G1 X179.612 Y119.921 E26.0397
G1 X180.737 Y122.156 E26.12293
G1 X181.932 Y124.369 E26.20658
G1 X183.205 Y126.576 E26.29132
G1 X184.371 Y128.48 E26.36558
G1 X184.549 Y128.762 E26.37667
G1 X185.005 Y129.562 E26.40729
G1 X185.39 Y130.398 E26.43791
G1 X185.702 Y131.264 E26.46852
G1 X185.937 Y132.154 E26.49914
G1 X186.094 Y133.061 E26.52975
G1 X186.178 Y134.204 E26.56787
G1 X186.197 Y135.173 E26.60011
G1 X186.199 Y135.383 E26.60709
G1 X186.191 Y171.441 E27.80639
G1 X186.181 Y172.128 E27.82924
G1 X186.128 Y173.047 E27.85986
G1 X185.995 Y173.958 E27.89048
G1 X185.783 Y174.854 E27.9211
G1 X185.495 Y175.729 E27.95174
G1 X185.132 Y176.575 E27.98236
G1 X184.696 Y177.386 E28.01298
G1 X184.192 Y178.156 E28.04359
G1 X183.48 Y179.044 E28.08145
G1 X183.369 Y179.168 E28.08698
G1 X182.726 Y179.827 E28.11761
G1 X182.028 Y180.427 E28.14822
G1 X181.28 Y180.964 E28.17885
G1 X180.489 Y181.435 E28.20947
G1 X179.66 Y181.835 E28.24008
G1 X178.365 Y182.295 E28.28579
G1 X177.643 Y182.5 E28.31075
G1 X175.108 Y183.262 E28.39879
G1 X172.693 Y184.061 E28.4834
G1 X170.355 Y184.912 E28.56615
G1 X167.994 Y185.846 E28.6506
G1 X165.672 Y186.841 E28.73462
G1 X164.874 Y187.207 E28.76382
G1 X163.257 Y187.913 E28.82251
G1 X163.079 Y187.989 E28.82894
G1 X159.985 Y189.27 E28.94032
G1 X159.233 Y189.57 E28.96725
G1 X158.364 Y189.874 E28.99787
G1 X157.471 Y190.1 E29.02851
G1 X156.89 Y190.205 E29.04815
G1 X156.001 Y190.339 E29.07805
G1 X152.479 Y190.804 E29.19621
G1 X151.631 Y190.904 E29.22461
G1 X150.713 Y190.971 E29.25522
G1 X149.793 Y190.957 E29.28582
G1 X149.207 Y190.907 E29.30539
G1 X148.312 Y190.805 E29.33535
G1 X144.63 Y190.321 E29.45886
G1 X143.952 Y190.222 E29.48165
G1 X143.048 Y190.049 E29.51227
G1 X141.921 Y189.716 E29.55135
G1 X140.896 Y189.35 E29.58755
G1 X138.363 Y188.486 E29.67657
G1 X135.983 Y187.748 E29.75944
G1 X133.508 Y187.058 E29.8449
G1 X131.068 Y186.45 E29.92854
G1 X128.598 Y185.911 E30.01262
G1 X126.128 Y185.442 E30.09624
G1 X123.637 Y185.042 E30.18016
G1 X121.112 Y184.711 E30.26486
G1 X118.607 Y184.453 E30.34861
G1 X116.09 Y184.267 E30.43256
G1 X113.537 Y184.149 E30.51756
G1 X111.028 Y184.106 E30.60102
G1 X108.514 Y184.132 E30.68464
G1 X105.971 Y184.231 E30.76929
G1 X103.468 Y184.4 E30.85273
G1 X100.904 Y184.646 E30.9384
G1 X98.445 Y184.952 E31.02082
G1 X95.931 Y185.337 E31.10541
G1 X93.44 Y185.792 E31.18963
G1 X90.988 Y186.31 E31.27298
G1 X88.487 Y186.915 E31.35857
G1 X86.058 Y187.574 E31.44228
G1 X83.978 Y188.197 E31.51449
G1 X83.838 Y188.241 E31.51937
G1 X82.874 Y188.492 E31.55251
G1 X82.67 Y188.535 E31.55944
G1 X81.762 Y188.686 E31.59005
G1 X81.282 Y188.733 E31.6061
G1 X80.964 Y188.757 E31.6167
G1 X80.618 Y188.777 E31.62823
G1 X80.336 Y188.789 E31.63762
G1 X79.606 Y188.812 E31.66191
G1 X79.302 Y188.817 E31.67202
G1 X78.944 Y188.818 E31.68393
G1 X78.502 Y188.812 E31.69863
G1 X77.681 Y188.785 E31.72595
G1 X76.763 Y188.713 E31.75658
G1 X75.855 Y188.561 E31.7872
G1 X75.332 Y188.436 E31.80509
G1 X74.87 Y188.312 E31.821
G1 X72.932 Y187.767 E31.88795
G1 X69.383 Y186.896 E32.0095
G1 X68.885 Y186.784 E32.02647
G1 X68.025 Y186.552 E32.0561
G1 X67.803 Y186.482 E32.06384
G1 X66.938 Y186.168 E32.09445
G1 X66.352 Y185.904 E32.11583
G1 X66.052 Y185.758 E32.12692
G1 X65.783 Y185.622 E32.13695
G1 X65.454 Y185.449 E32.14931
G1 X65.141 Y185.28 E32.16114
G1 X64.826 Y185.103 E32.17316
G1 X63.853 Y184.534 E32.21065
G1 X63.541 Y184.344 E32.2228
G1 X63.166 Y184.107 E32.23755
G1 X62.41 Y183.582 E32.26817
G1 X61.702 Y182.993 E32.2988
G1 X61.299 Y182.607 E32.31736
G1 X60.548 Y181.848 E32.35287
G1 X59.937 Y181.213 E32.38218
G1 X58.13 Y179.44 E32.46638
G1 X57.661 Y179.006 E32.48764
G1 X57.538 Y178.882 E32.49344
G1 X56.575 Y177.976 E32.53742
G1 X55.992 Y177.383 E32.56508
G1 X55.853 Y177.23 E32.57196
G1 X55.264 Y176.522 E32.60259
G1 X54.929 Y176.056 E32.62168
G1 X54.8 Y175.866 E32.62931
G1 X54.659 Y175.653 E32.63781
G1 X54.458 Y175.341 E32.65015
G1 X54.16 Y174.859 E32.669
G1 X53.984 Y174.561 E32.68051
G1 X53.372 Y173.484 E32.72171
G1 X53.185 Y173.14 E32.73474
G1 X52.993 Y172.771 E32.74857
G1 X52.604 Y171.936 E32.77921
G1 X52.288 Y171.071 E32.80984
G1 X52.136 Y170.541 E32.82818
G1 X51.841 Y169.402 E32.86731
G1 X51.708 Y168.857 E32.88597
G1 X51.034 Y166.408 E32.97045
G1 X50.742 Y165.456 E33.00357
G1 X50.367 Y164.18 E33.04781
G1 X50.067 Y162.844 E33.09335
G1 X50.061 Y162.806 E33.09463
G1 X49.953 Y161.837 E33.12706
G1 X49.892 Y160.893 E33.15852
G1 X49.874 Y160.495 E33.17177
G1 X49.86 Y159.976 E33.18904
G1 X49.86 Y159.384 E33.20873
G1 X49.864 Y159.262 E33.21279
G1 X49.868 Y158.917 E33.22426
G1 X49.877 Y158.584 E33.23534
G1 X49.907 Y157.908 E33.25785
G1 X49.988 Y156.991 E33.28847
G1 X50.148 Y156.084 E33.3191
G1 X50.278 Y155.561 E33.33703
G1 X50.603 Y154.386 E33.37757
G1 X50.747 Y153.89 E33.39475
G1 X51.397 Y151.389 E33.4807
G1 X51.822 Y149.564 E33.54302
G1 X51.857 Y149.424 E33.54782
G1 X52.034 Y148.801 E33.56936
G1 X52.409 Y147.615 E33.61073
G1 X53.18 Y145.05 E33.69982
G1 X53.838 Y142.621 E33.78352
G1 X54.425 Y140.174 E33.86721
G1 X54.954 Y137.668 E33.9524
G1 X55.4 Y135.202 E34.03575
G1 X55.783 Y132.683 E34.1205
G1 X56.087 Y130.218 E34.2031
G1 X56.328 Y127.669 E34.28826
G1 X56.497 Y125.131 E34.37286
G1 X56.59 Y122.658 E34.45517
G1 X56.615 Y120.077 E34.54102
G1 X56.568 Y117.565 E34.62459
G1 X56.45 Y115.058 E34.70806
G1 X56.257 Y112.509 E34.79308
G1 X55.999 Y110.02 E34.87631
G1 X55.663 Y107.49 E34.9612
G1 X55.262 Y105.004 E35.04495
G1 X54.789 Y102.527 E35.12883
G1 X54.243 Y100.046 E35.21332
G1 X53.64 Y97.633 E35.29605
G1 X52.947 Y95.157 E35.38156
G1 X52.199 Y92.751 E35.46536
G1 X51.38 Y90.362 E35.54936
G1 X50.576 Y88.201 E35.62605
G1 X50.121 Y87.024 E35.66802
G1 X49.827 Y86.152 E35.69863
G1 X49.61 Y85.257 E35.72926
G1 X49.471 Y84.347 E35.75988
