;FLAVOR:Marlin
;TIME:9154
;Filament used: 5.53717m
;Layer height: 0.2
;MINX:78.078
;MINY:79.593
;MINZ:0.2
;MAXX:140.092
;MAXY:178.619
;MAXZ:30
;Generated with Creality Slicer 4.8.2-205
M140 S50
M105
M190 S50
M104 S200
M105
M109 S200
M82 ;absolute extrusion mode

G28 ;Home

G92 E0 ;Reset Extruder
G1 Z2.0 F3000 ;Move Z Axis up
G1 X10.1 Y20 Z0.28 F5000.0 ;Move to start position
G1 X10.1 Y200.0 Z0.28 F1500.0 E15 ;Draw the first line
G1 X10.4 Y200.0 Z0.28 F5000.0 ;Move to side a little
G1 X10.4 Y20 Z0.28 F1500.0 E30 ;Draw the second line
G92 E0 ;Reset Extruder
G1 Z2.0 F3000 ;Move Z Axis up

G92 E0
G92 E0
G1 F2100 E-5
;LAYER_COUNT:150
;LAYER:0
M107
G0 F6000 X89.072 Y89.106 Z0.2
;TYPE:SKIRT
G1 F2100 E0
G1 F1200 X89.711 Y88.534 E0.02852
G1 X89.896 Y88.386 E0.0364
G1 X90.233 Y88.131 E0.05046
G1 X92.915 Y86.214 E0.16011
G1 X93.771 Y85.682 E0.19363
G1 X94.128 Y85.491 E0.2071
G1 X94.429 Y85.339 E0.21831
G1 X94.791 Y85.165 E0.23167
G1 X95.068 Y85.038 E0.2418
G1 X95.55 Y84.83 E0.25927
G1 X96.506 Y84.432 E0.29371
G1 X96.756 Y84.331 E0.30268
G1 X97.044 Y84.221 E0.31293
G1 X97.306 Y84.127 E0.32219
G1 X97.664 Y84.008 E0.33473
G1 X98.477 Y83.76 E0.36301
G1 X99.047 Y83.597 E0.38272
G1 X99.688 Y83.425 E0.4048
G1 X100.225 Y83.291 E0.42321
G1 X100.788 Y83.158 E0.44245
G1 X101.323 Y83.043 E0.46065
G1 X102.15 Y82.876 E0.48871
G1 X102.373 Y82.835 E0.49625
G1 X102.763 Y82.768 E0.50941
G1 X102.945 Y82.739 E0.51554
G1 X103.452 Y82.665 E0.53258
G1 X104.5 Y81.749 E0.57888
G1 X104.78 Y81.514 E0.59104
G1 X105.409 Y81.038 E0.61727
G1 X106.084 Y80.628 E0.64354
G1 X106.992 Y80.21 E0.67679
G1 X107.257 Y80.108 E0.68623
G1 X108.008 Y79.862 E0.71251
G1 X108.779 Y79.693 E0.73877
G1 X109.563 Y79.603 E0.76501
G1 X110.353 Y79.593 E0.79129
G1 X111.14 Y79.662 E0.81757
G1 X111.915 Y79.811 E0.84382
G1 X112.672 Y80.038 E0.8701
G1 X113.401 Y80.339 E0.89633
G1 X114.097 Y80.714 E0.92263
G1 X114.654 Y81.084 E0.94487
G1 X114.82 Y81.205 E0.9517
G1 X115.193 Y81.495 E0.96742
G1 X115.475 Y81.728 E0.97958
G1 X115.63 Y81.86 E0.98635
G1 X116.225 Y82.378 E1.01259
G1 X116.57 Y82.684 E1.02793
G1 X117.287 Y82.791 E1.05204
G1 X117.751 Y82.868 E1.06769
G1 X117.965 Y82.907 E1.07492
G1 X118.603 Y83.033 E1.09655
G1 X119.155 Y83.155 E1.11535
G1 X119.382 Y83.208 E1.12311
G1 X119.719 Y83.267 E1.13449
G1 X120.404 Y83.418 E1.15782
G1 X120.739 Y83.508 E1.16935
G1 X121.262 Y83.66 E1.18747
G1 X121.502 Y83.734 E1.19582
G1 X121.941 Y83.88 E1.21121
G1 X122.28 Y83.997 E1.22314
G1 X122.466 Y84.064 E1.22971
G1 X123.235 Y84.352 E1.25702
G1 X123.986 Y84.647 E1.28386
G1 X124.465 Y84.843 E1.30107
G1 X124.783 Y84.981 E1.3126
G1 X125.06 Y85.109 E1.32275
G1 X125.522 Y85.342 E1.33996
G1 X125.71 Y85.445 E1.34709
G1 X126.133 Y85.653 E1.36277
G1 X126.63 Y85.921 E1.38155
G1 X126.867 Y86.06 E1.39069
G1 X127.242 Y86.294 E1.40539
G1 X127.501 Y86.466 E1.41573
G1 X128.333 Y87.005 E1.4487
G1 X128.598 Y87.183 E1.45932
G1 X128.764 Y87.298 E1.46604
G1 X129.026 Y87.484 E1.47673
G1 X129.263 Y87.659 E1.48652
G1 X129.522 Y87.858 E1.49739
G1 X129.827 Y88.104 E1.51042
G1 X130.056 Y88.299 E1.52042
G1 X130.525 Y88.733 E1.54168
G1 X130.691 Y88.9 E1.54951
G1 X131.048 Y89.238 E1.56586
G1 X131.447 Y89.622 E1.58428
G1 X131.609 Y89.783 E1.59188
G1 X131.923 Y90.105 E1.60683
G1 X132.105 Y90.299 E1.61568
G1 X132.317 Y90.535 E1.62623
G1 X132.489 Y90.734 E1.63498
G1 X132.709 Y91 E1.64646
G1 X132.867 Y91.2 E1.65494
G1 X133.025 Y91.408 E1.66363
G1 X133.385 Y91.898 E1.68385
G1 X133.713 Y92.362 E1.70275
G1 X134.043 Y92.845 E1.72221
G1 X134.256 Y93.17 E1.73513
G1 X134.559 Y93.654 E1.75412
G1 X134.679 Y93.854 E1.76188
G1 X134.859 Y94.164 E1.7738
G1 X134.975 Y94.37 E1.78167
G1 X135.147 Y94.688 E1.79369
G1 X135.249 Y94.884 E1.80104
G1 X135.406 Y95.195 E1.81263
G1 X135.528 Y95.448 E1.82197
G1 X135.679 Y95.776 E1.83398
G1 X135.768 Y95.976 E1.84126
G1 X135.908 Y96.304 E1.85312
G1 X136.12 Y96.832 E1.87205
G1 X136.314 Y97.348 E1.89038
G1 X136.383 Y97.542 E1.89723
G1 X136.559 Y98.06 E1.91543
G1 X136.716 Y98.549 E1.93251
G1 X136.878 Y99.075 E1.95081
G1 X137.041 Y99.631 E1.97008
G1 X137.127 Y99.936 E1.98062
G1 X137.187 Y100.161 E1.98837
G1 X137.301 Y100.625 E2.00426
G1 X137.41 Y101.114 E2.02092
G1 X137.473 Y101.428 E2.03158
G1 X137.567 Y101.961 E2.04958
G1 X137.631 Y102.355 E2.06285
G1 X137.666 Y102.596 E2.07095
G1 X137.722 Y103.034 E2.08564
G1 X137.775 Y103.517 E2.1018
G1 X137.835 Y104.163 E2.12338
G1 X137.855 Y104.431 E2.13232
G1 X137.879 Y104.851 E2.14631
G1 X137.978 Y104.973 E2.15154
G1 X138.162 Y105.19 E2.161
G1 X138.64 Y105.818 E2.18725
G1 X139.053 Y106.491 E2.21351
G1 X139.324 Y107.04 E2.23387
G1 X139.413 Y107.239 E2.24112
G1 X139.699 Y107.975 E2.26739
G1 X139.908 Y108.736 E2.29364
G1 X140.04 Y109.515 E2.31991
G1 X140.092 Y110.303 E2.34618
G1 X140.064 Y111.092 E2.37244
G1 X139.989 Y111.694 E2.39262
G1 X139.97 Y111.809 E2.39649
G1 X139.802 Y112.581 E2.42277
G1 X139.557 Y113.332 E2.44904
G1 X139.237 Y114.054 E2.47531
G1 X138.846 Y114.74 E2.50157
G1 X138.387 Y115.383 E2.52785
G1 X138.07 Y115.758 E2.54418
G1 X137.907 Y115.939 E2.55228
G1 X137.35 Y116.498 E2.57853
G1 X136.561 Y117.125 E2.61205
G1 X136.313 Y117.297 E2.62209
G1 X136.207 Y117.43 E2.62774
G1 X136.017 Y117.688 E2.6384
G1 X135.87 Y117.969 E2.64895
G1 X135.83 Y118.058 E2.65219
G1 X135.539 Y118.996 E2.68486
G1 X135.481 Y119.252 E2.69359
G1 X135.44 Y119.583 E2.70468
G1 X135.421 Y119.863 E2.71402
G1 X135.408 Y120.152 E2.72364
G1 X135.4 Y120.503 E2.73532
G1 X135.398 Y120.858 E2.74712
G1 X135.406 Y121.132 E2.75624
G1 X135.436 Y121.429 E2.76617
G1 X135.491 Y121.763 E2.77743
G1 X135.555 Y122.04 E2.78688
G1 X135.649 Y122.366 E2.79817
G1 X135.746 Y122.623 E2.8073
G1 X135.875 Y122.899 E2.81744
G1 X135.986 Y123.07 E2.82422
G1 X136.417 Y123.661 E2.84855
G1 X136.642 Y123.981 E2.86156
G1 X137.063 Y124.649 E2.88782
G1 X137.414 Y125.356 E2.91407
G1 X137.692 Y126.095 E2.94033
G1 X137.893 Y126.859 E2.96661
G1 X138.017 Y127.639 E2.99288
G1 X138.061 Y128.467 E3.02046
G1 X138.061 Y128.595 E3.02471
G1 X138.021 Y129.384 E3.05099
G1 X137.902 Y130.164 E3.07723
G1 X137.704 Y130.929 E3.10352
G1 X137.43 Y131.669 E3.12976
G1 X137.082 Y132.378 E3.15603
G1 X136.642 Y133.08 E3.18359
G1 X136.463 Y133.334 E3.19392
G1 X136.134 Y133.79 E3.21262
G1 X135.894 Y134.106 E3.22582
G1 X135.722 Y134.321 E3.23498
G1 X134.546 Y135.885 E3.30006
G1 X134.04 Y136.491 E3.32632
G1 X133.476 Y137.043 E3.35257
G1 X133.168 Y137.288 E3.36566
G1 X133.782 Y137.59 E3.38842
G1 X134.453 Y138.007 E3.41469
G1 X135.077 Y138.491 E3.44096
G1 X135.514 Y138.896 E3.46077
G1 X135.631 Y139.013 E3.46628
G1 X136.161 Y139.599 E3.49256
G1 X136.628 Y140.235 E3.5188
G1 X137.029 Y140.915 E3.54506
G1 X137.359 Y141.633 E3.57134
G1 X137.614 Y142.38 E3.59759
G1 X137.793 Y143.149 E3.62385
G1 X137.893 Y143.933 E3.65014
G1 X137.916 Y144.528 E3.66995
G1 X137.916 Y144.863 E3.68109
G1 X137.876 Y145.652 E3.70736
G1 X137.757 Y146.432 E3.73361
G1 X137.559 Y147.197 E3.75989
G1 X137.402 Y147.648 E3.77577
G1 X137.087 Y148.472 E3.80511
G1 X136.801 Y149.12 E3.82867
G1 X136.801 Y170.702 E4.54649
G1 X136.761 Y171.491 E4.57277
G1 X136.642 Y172.271 E4.59901
G1 X136.444 Y173.036 E4.62529
G1 X136.17 Y173.776 E4.65154
G1 X135.822 Y174.485 E4.67781
G1 X135.404 Y175.156 E4.7041
G1 X134.921 Y175.78 E4.73035
G1 X134.516 Y176.217 E4.75016
G1 X134.399 Y176.334 E4.75567
G1 X133.813 Y176.864 E4.78195
G1 X133.177 Y177.331 E4.80819
G1 X132.497 Y177.732 E4.83445
G1 X131.779 Y178.062 E4.86073
G1 X131.032 Y178.317 E4.88698
G1 X130.263 Y178.496 E4.91324
G1 X129.479 Y178.596 E4.93953
G1 X128.884 Y178.619 E4.95933
G1 X87.119 Y178.618 E6.34844
G1 X86.33 Y178.578 E6.37472
G1 X85.55 Y178.458 E6.40097
G1 X84.785 Y178.261 E6.42724
G1 X84.044 Y177.986 E6.45353
G1 X83.335 Y177.639 E6.47978
G1 X82.665 Y177.221 E6.50605
G1 X82.041 Y176.738 E6.5323
G1 X81.604 Y176.333 E6.55211
G1 X81.487 Y176.216 E6.55762
G1 X80.957 Y175.63 E6.5839
G1 X80.49 Y174.994 E6.61014
G1 X80.089 Y174.314 E6.6364
G1 X79.759 Y173.596 E6.66268
G1 X79.504 Y172.849 E6.68893
G1 X79.325 Y172.08 E6.71519
G1 X79.225 Y171.296 E6.74148
G1 X79.202 Y170.701 E6.76128
G1 X79.201 Y149.089 E7.4801
G1 X78.944 Y148.546 E7.50008
G1 X78.621 Y147.726 E7.5294
G1 X78.369 Y146.977 E7.55568
G1 X78.194 Y146.207 E7.58194
G1 X78.098 Y145.423 E7.60821
G1 X78.078 Y144.867 E7.62672
G1 X78.078 Y144.529 E7.63796
G1 X78.118 Y143.74 E7.66424
G1 X78.237 Y142.96 E7.69048
G1 X78.435 Y142.195 E7.71676
G1 X78.709 Y141.455 E7.74301
G1 X79.057 Y140.746 E7.76928
G1 X79.475 Y140.075 E7.79557
G1 X79.958 Y139.451 E7.82182
G1 X80.363 Y139.014 E7.84163
G1 X80.48 Y138.897 E7.84714
G1 X81.066 Y138.367 E7.87341
G1 X81.702 Y137.9 E7.89966
G1 X82.382 Y137.499 E7.92592
G1 X83.1 Y137.169 E7.9522
G1 X83.847 Y136.914 E7.97845
G1 X84.616 Y136.735 E8.00471
G1 X85.4 Y136.635 E8.031
G1 X85.995 Y136.612 E8.0508
G1 X86.074 Y136.612 E8.05343
G1 X85.859 Y136.395 E8.06359
G1 X85.25 Y135.623 E8.0963
G1 X85.007 Y135.284 E8.11017
G1 X83.93 Y133.902 E8.16844
G1 X83.676 Y133.564 E8.18251
G1 X83.549 Y133.39 E8.18967
G1 X83.354 Y133.115 E8.20088
G1 X82.931 Y132.448 E8.22715
G1 X82.577 Y131.742 E8.25342
G1 X82.296 Y131.004 E8.27969
G1 X82.091 Y130.242 E8.30593
G1 X81.964 Y129.462 E8.33222
G1 X81.918 Y128.483 E8.36481
G1 X81.92 Y128.353 E8.36914
G1 X81.972 Y127.565 E8.3954
G1 X82.104 Y126.786 E8.42168
G1 X82.313 Y126.025 E8.44793
G1 X82.599 Y125.289 E8.47419
G1 X82.957 Y124.585 E8.50046
G1 X83.413 Y123.883 E8.5283
G1 X83.635 Y123.578 E8.54085
G1 X83.749 Y123.425 E8.5472
G1 X83.975 Y123.13 E8.55956
G1 X84.061 Y122.984 E8.56519
G1 X84.225 Y122.642 E8.57781
G1 X84.452 Y121.948 E8.60209
G1 X84.493 Y121.637 E8.61253
G1 X84.533 Y121.279 E8.62451
G1 X84.559 Y120.982 E8.63442
G1 X84.577 Y120.633 E8.64605
G1 X84.582 Y120.343 E8.6557
G1 X84.575 Y120.065 E8.66494
G1 X84.55 Y119.727 E8.67622
G1 X84.5 Y119.321 E8.68982
G1 X84.443 Y118.996 E8.7008
G1 X84.38 Y118.731 E8.70986
G1 X84.303 Y118.486 E8.7184
G1 X84.031 Y117.844 E8.74159
G1 X84.009 Y117.804 E8.74311
G1 X83.669 Y117.286 E8.76372
G1 X83.116 Y116.897 E8.7862
G1 X82.52 Y116.379 E8.81247
G1 X82.143 Y115.991 E8.83046
G1 X81.952 Y115.78 E8.83993
G1 X81.453 Y115.168 E8.86619
G1 X81.017 Y114.509 E8.89247
G1 X80.651 Y113.81 E8.91871
G1 X80.357 Y113.077 E8.94498
G1 X80.139 Y112.318 E8.97125
G1 X79.999 Y111.541 E8.99751
G1 X79.942 Y110.871 E9.01987
G1 X79.932 Y110.632 E9.02783
G1 X79.939 Y109.842 E9.0541
G1 X80.026 Y109.058 E9.08034
G1 X80.191 Y108.285 E9.10663
G1 X80.434 Y107.534 E9.13288
G1 X80.752 Y106.811 E9.15915
G1 X81.31 Y105.869 E9.19557
G1 X81.467 Y105.642 E9.20475
G1 X81.934 Y105.033 E9.23027
G1 X82.106 Y104.83 E9.23912
G1 X82.123 Y104.554 E9.24832
G1 X82.161 Y104.079 E9.26417
G1 X82.22 Y103.457 E9.28495
G1 X82.247 Y103.212 E9.29315
G1 X82.305 Y102.763 E9.30821
G1 X82.35 Y102.447 E9.31882
G1 X82.383 Y102.238 E9.32586
G1 X82.485 Y101.639 E9.34607
G1 X82.532 Y101.388 E9.35456
G1 X82.624 Y100.943 E9.36968
G1 X82.727 Y100.495 E9.38497
G1 X82.799 Y100.203 E9.39497
G1 X82.904 Y99.809 E9.40853
G1 X82.921 Y99.726 E9.41135
G1 X83.052 Y99.176 E9.43015
G1 X83.136 Y98.873 E9.44061
G1 X83.29 Y98.382 E9.45773
G1 X83.474 Y97.856 E9.47626
G1 X83.624 Y97.462 E9.49028
G1 X83.736 Y97.131 E9.5019
G1 X83.847 Y96.822 E9.51283
G1 X83.961 Y96.527 E9.52334
G1 X84.182 Y96.012 E9.54198
G1 X84.34 Y95.677 E9.5543
G1 X84.433 Y95.486 E9.56137
G1 X84.623 Y95.11 E9.57538
G1 X84.727 Y94.912 E9.58282
G1 X85.019 Y94.377 E9.60309
G1 X85.32 Y93.848 E9.62333
G1 X85.601 Y93.379 E9.64152
G1 X85.803 Y93.052 E9.6543
G1 X85.912 Y92.881 E9.66105
G1 X86.086 Y92.615 E9.67162
G1 X86.453 Y92.1 E9.69265
G1 X87.396 Y90.886 E9.74378
G1 X87.679 Y90.543 E9.75857
G1 X87.809 Y90.394 E9.76515
G1 X88.174 Y90.003 E9.78294
G1 X89.072 Y89.106 E9.82515
G0 F6000 X89.354 Y89.389
G1 F1200 X89.961 Y88.847 E9.85222
G1 X90.146 Y88.699 E9.8601
G1 X90.466 Y88.457 E9.87344
G1 X93.148 Y86.54 E9.98309
G1 X93.96 Y86.035 E10.0149
G1 X94.317 Y85.844 E10.02836
G1 X94.602 Y85.699 E10.039
G1 X94.964 Y85.525 E10.05236
G1 X95.227 Y85.405 E10.06197
G1 X95.704 Y85.199 E10.07925
G1 X96.656 Y84.803 E10.11355
G1 X96.906 Y84.702 E10.12251
G1 X97.179 Y84.598 E10.13223
G1 X97.441 Y84.504 E10.14149
G1 X97.781 Y84.391 E10.15341
G1 X98.736 Y84.101 E10.1866
G1 X99.246 Y83.957 E10.20423
G1 X99.786 Y83.813 E10.22282
G1 X100.317 Y83.68 E10.24102
G1 X100.873 Y83.549 E10.26002
G1 X101.402 Y83.435 E10.27802
G1 X102.229 Y83.268 E10.30608
G1 X102.441 Y83.229 E10.31325
G1 X103.004 Y83.134 E10.33224
G1 X103.52 Y83.059 E10.34958
G1 X103.625 Y83.045 E10.35311
G1 X104.636 Y82.159 E10.39782
G1 X105.037 Y81.821 E10.41526
G1 X105.651 Y81.358 E10.44084
G1 X106.31 Y80.961 E10.46643
G1 X107.136 Y80.583 E10.49664
G1 X107.401 Y80.481 E10.50608
G1 X108.132 Y80.242 E10.53166
G1 X108.884 Y80.081 E10.55724
G1 X109.649 Y79.998 E10.58284
G1 X110.418 Y79.996 E10.60841
G1 X111.183 Y80.073 E10.63398
G1 X111.936 Y80.229 E10.65956
G1 X112.669 Y80.463 E10.68515
G1 X113.374 Y80.771 E10.71074
G1 X114.043 Y81.151 E10.73633
G1 X114.418 Y81.407 E10.75143
G1 X114.584 Y81.528 E10.75827
G1 X114.938 Y81.803 E10.77318
G1 X115.368 Y82.161 E10.79178
G1 X115.96 Y82.678 E10.81793
G1 X116.396 Y83.065 E10.83732
G1 X116.639 Y83.097 E10.84547
G1 X117.221 Y83.186 E10.86505
G1 X117.685 Y83.263 E10.88069
G1 X117.889 Y83.299 E10.88758
G1 X118.346 Y83.388 E10.90307
G1 X118.959 Y83.521 E10.92393
G1 X119.287 Y83.598 E10.93514
G1 X119.651 Y83.661 E10.94743
G1 X120.3 Y83.804 E10.96953
G1 X120.802 Y83.941 E10.98684
G1 X121.149 Y84.043 E10.99887
G1 X121.377 Y84.114 E11.00681
G1 X121.81 Y84.258 E11.02199
G1 X122.149 Y84.375 E11.03391
G1 X122.326 Y84.439 E11.04017
G1 X123.089 Y84.725 E11.06727
G1 X123.834 Y85.017 E11.09389
G1 X124.313 Y85.213 E11.1111
G1 X124.615 Y85.345 E11.12206
G1 X124.892 Y85.473 E11.13221
G1 X125.33 Y85.693 E11.14852
G1 X125.53 Y85.802 E11.15609
G1 X125.956 Y86.012 E11.17189
G1 X126.428 Y86.266 E11.18972
G1 X126.665 Y86.405 E11.19885
G1 X127.02 Y86.627 E11.21278
G1 X127.267 Y86.791 E11.22264
G1 X128.11 Y87.337 E11.25605
G1 X128.375 Y87.515 E11.26667
G1 X128.533 Y87.624 E11.27305
G1 X128.795 Y87.81 E11.28374
G1 X129.02 Y87.976 E11.29304
G1 X129.279 Y88.175 E11.3039
G1 X129.568 Y88.409 E11.31627
G1 X129.797 Y88.604 E11.32627
G1 X130.242 Y89.016 E11.34644
G1 X130.416 Y89.19 E11.35463
G1 X130.77 Y89.526 E11.37086
G1 X131.169 Y89.91 E11.38928
G1 X131.323 Y90.063 E11.3965
G1 X131.631 Y90.379 E11.41117
G1 X131.813 Y90.573 E11.42002
G1 X132.015 Y90.797 E11.43005
G1 X132.187 Y90.996 E11.4388
G1 X132.395 Y91.248 E11.44967
G1 X132.553 Y91.448 E11.45815
G1 X132.703 Y91.645 E11.46638
G1 X133.059 Y92.13 E11.48639
G1 X133.384 Y92.588 E11.50507
G1 X133.622 Y92.935 E11.51907
G1 X133.921 Y93.39 E11.53718
G1 X134.017 Y93.54 E11.5431
G1 X134.219 Y93.865 E11.55583
G1 X134.333 Y94.055 E11.5632
G1 X134.513 Y94.365 E11.57512
G1 X134.623 Y94.56 E11.58257
G1 X134.795 Y94.878 E11.59459
G1 X134.892 Y95.064 E11.60157
G1 X135.049 Y95.375 E11.61315
G1 X135.165 Y95.615 E11.62202
G1 X135.316 Y95.943 E11.63403
G1 X135.4 Y96.133 E11.64094
G1 X135.612 Y96.635 E11.65906
G1 X135.749 Y96.98 E11.67141
G1 X135.939 Y97.487 E11.68942
G1 X136.005 Y97.671 E11.69592
G1 X136.136 Y98.054 E11.70938
G1 X136.334 Y98.667 E11.73081
G1 X136.494 Y99.189 E11.74897
G1 X136.656 Y99.74 E11.76807
G1 X136.742 Y100.045 E11.77861
G1 X136.799 Y100.258 E11.78594
G1 X136.911 Y100.714 E11.80156
G1 X136.978 Y101.009 E11.81162
G1 X137.08 Y101.506 E11.8285
G1 X137.118 Y101.709 E11.83537
G1 X137.186 Y102.107 E11.8488
G1 X137.236 Y102.418 E11.85927
G1 X137.269 Y102.647 E11.86697
G1 X137.324 Y103.079 E11.88145
G1 X137.376 Y103.554 E11.89735
G1 X137.436 Y104.2 E11.91892
G1 X137.456 Y104.454 E11.9274
