;FLAVOR:Marlin
;TIME:7200
;Filament used: 4.01751m
;Layer height: 0.2
;MINX:51.661
;MINY:55.767
;MINZ:0.2
;MAXX:167.702
;MAXY:126.99
;MAXZ:4
;Generated with Creality Slicer 4.8.2-205
M140 S50
M105
M190 S50
M104 S200
M105
M109 S200
M82 ;absolute extrusion mode

G28 ;Home

G92 E0 ;Reset Extruder
G1 Z2.0 F3000 ;Move Z Axis up
G1 X10.1 Y20 Z0.28 F5000.0 ;Move to start position
G1 X10.1 Y200.0 Z0.28 F1500.0 E15 ;Draw the first line
G1 X10.4 Y200.0 Z0.28 F5000.0 ;Move to side a little
G1 X10.4 Y20 Z0.28 F1500.0 E30 ;Draw the second line
G92 E0 ;Reset Extruder
G1 Z2.0 F3000 ;Move Z Axis up

G92 E0
G92 E0
G1 F2100 E-5
;LAYER_COUNT:20
;LAYER:0
M107
;MESH:blossom.stl
G0 F6000 X80.054 Y111.421 Z0.2
;TYPE:WALL-INNER
G1 F2100 E0
G1 F1200 X79.848 Y111.265 E0.00859
G1 X78.775 Y110.45 E0.05341
G1 X78.157 Y109.752 E0.08442
G1 X77.567 Y109.255 E0.11008
G1 X76.991 Y108.571 E0.13982
G1 X76.717 Y108.366 E0.1512
G1 X75.76 Y107.176 E0.20199
G1 X74.994 Y106.018 E0.24817
G1 X74.182 Y104.677 E0.30031
G1 X73.286 Y102.831 E0.36856
G1 X72.288 Y100.112 E0.46489
G1 X71.581 Y99.528 E0.49539
G1 X70.75 Y99.369 E0.52353
G1 X66.059 Y99.198 E0.67966
G1 X64.789 Y99.555 E0.72354
G1 X63.827 Y103.027 E0.84337
G1 X63.325 Y104.259 E0.88761
G1 X63.05 Y104.752 E0.90639
G1 X62.982 Y104.904 E0.91193
G1 X62.816 Y105.412 E0.9297
G1 X61.943 Y106.778 E0.98362
G1 X61.692 Y107.302 E1.00295
G1 X60.675 Y108.762 E1.06213
G1 X60.249 Y109.159 E1.0815
G1 X59.286 Y110.272 E1.13045
G1 X58.137 Y111.387 E1.1837
G1 X57.256 Y112.086 E1.2211
G1 X57.03 Y112.222 E1.22988
G1 X56.808 Y112.356 E1.2385
G1 X56.737 Y112.106 E1.24371
G1 X56.247 Y110.387 E1.30316
G1 X55.735 Y107.675 E1.39495
G1 X55.569 Y106.533 E1.43334
G1 X55.535 Y104.508 E1.5007
G1 X55.634 Y102.731 E1.55989
G1 X55.867 Y101.543 E1.60016
G1 X56.747 Y98.59 E1.70264
G1 X58.566 Y94.539 E1.85034
G1 X57.85 Y93.407 E1.89489
G1 X57.829 Y93.384 E1.89593
G1 X55.799 Y91.076 E1.99816
G1 X55.049 Y89.828 E2.04659
G1 X54.52 Y88.672 E2.08887
G1 X54.125 Y87.499 E2.13004
G1 X53.865 Y86.307 E2.17061
G1 X53.729 Y85.06 E2.21234
G1 X53.748 Y84.096 E2.2444
G1 X53.896 Y82.994 E2.28139
G1 X54.172 Y81.79 E2.32247
G1 X54.521 Y80.733 E2.35949
G1 X55.188 Y79.383 E2.40958
G1 X55.885 Y78.232 E2.45433
G1 X58.065 Y75.776 E2.56355
G1 X58.407 Y74.692 E2.60136
G1 X57.773 Y73.646 E2.64204
G1 X56.847 Y73.195 E2.6763
G1 X56.395 Y72.852 E2.69517
G1 X56.236 Y72.616 E2.70464
G1 X56.048 Y72.077 E2.72362
G1 X56.016 Y71.162 E2.75407
G1 X56.066 Y70.595 E2.77301
G1 X56.145 Y70.369 E2.78097
G1 X56.548 Y69.781 E2.80468
G1 X56.571 Y69.747 E2.80604
G1 X56.646 Y69.734 E2.80858
G1 X56.879 Y69.815 E2.81678
G1 X56.913 Y69.838 E2.81815
G1 X57.367 Y70.153 E2.83652
G1 X59.99 Y72.65 E2.95697
G1 X60.678 Y73.188 E2.98602
G1 X61.539 Y73.557 E3.01718
G1 X62.705 Y73.305 E3.05686
G1 X63.88 Y72.408 E3.10602
G1 X63.643 Y70.968 E3.15456
G1 X62.731 Y67.396 E3.27718
G1 X62.28 Y66.351 E3.31503
G1 X61.517 Y65.389 E3.35587
G1 X60.429 Y64.773 E3.39746
G1 X60.035 Y64.724 E3.41066
G1 X59.71 Y64.684 E3.42155
G1 X59.895 Y64.414 E3.42779
G1 X60.323 Y63.792 E3.4529
G1 X61.773 Y62.143 E3.52593
G1 X63.332 Y60.817 E3.59401
G1 X64.36 Y60.066 E3.63635
G1 X64.727 Y59.256 E3.66593
G1 X64.9 Y58.521 E3.69104
G1 X65.014 Y58.269 E3.70024
G1 X65.154 Y58.09 E3.7078
G1 X65.464 Y57.894 E3.72
G1 X65.927 Y57.852 E3.73546
G1 X66.344 Y57.957 E3.74976
G1 X66.524 Y58.083 E3.75707
G1 X67.073 Y58.908 E3.79003
G1 X67.82 Y59.372 E3.81928
G1 X70.025 Y59.858 E3.89438
G1 X71.292 Y60.358 E3.93968
G1 X71.813 Y60.634 E3.95929
G1 X73.346 Y61.586 E4.01931
G1 X73.722 Y61.978 E4.03737
G1 X74.107 Y62.244 E4.05294
G1 X75.118 Y63.322 E4.10209
G1 X75.564 Y64.021 E4.12967
G1 X75.716 Y64.26 E4.13909
G1 X75.439 Y64.321 E4.14466
G1 X74.885 Y64.445 E4.16354
G1 X73.974 Y64.943 E4.19807
G1 X73.445 Y65.727 E4.22953
G1 X73.014 Y66.651 E4.26344
G1 X72.706 Y67.6 E4.29663
G1 X72.246 Y70.319 E4.38835
G1 X72.146 Y71.187 E4.41741
G1 X72.264 Y72.196 E4.45119
G1 X73.001 Y72.986 E4.48713
G1 X74.57 Y73.597 E4.54313
G1 X77.085 Y74.998 E4.63888
G1 X79.252 Y76.852 E4.73374
G1 X80.334 Y78.28 E4.79333
G1 X80.944 Y79.276 E4.83217
G1 X82.024 Y81.629 E4.91828
G1 X83.896 Y84.466 E5.03133
G1 X85.202 Y87.072 E5.12829
G1 X85.751 Y88.626 E5.1831
G1 X86.203 Y90.27 E5.23981
G1 X86.272 Y92.986 E5.33018
G1 X86.199 Y94.474 E5.37973
G1 X86.094 Y95.116 E5.40136
G1 X85.621 Y96.523 E5.45073
G1 X85.296 Y97.045 E5.47118
G1 X84.672 Y97.744 E5.50235
G1 X84.154 Y98.117 E5.52358
G1 X83.949 Y98.159 E5.53054
G1 X83.741 Y98.09 E5.53783
G1 X83.546 Y97.64 E5.55414
G1 X83.309 Y96.408 E5.59587
G1 X82.914 Y91.624 E5.75553
G1 X82.078 Y90.102 E5.81328
G1 X80.381 Y90.762 E5.87384
G1 X79.646 Y91.73 E5.91427
G1 X77.762 Y93.881 E6.00937
G1 X78.883 Y96.095 E6.09191
G1 X79.738 Y98.085 E6.16395
G1 X80.481 Y100.434 E6.24589
G1 X80.865 Y101.931 E6.2973
G1 X81.044 Y103.1 E6.33663
G1 X81.158 Y105.497 E6.41644
G1 X81.086 Y107.823 E6.49384
G1 X80.863 Y109.306 E6.54372
G1 X80.704 Y109.834 E6.56206
G1 X80.152 Y111.182 E6.61051
G1 X80.054 Y111.421 E6.6157
G0 F6000 X80.227 Y112.055
G1 F1200 X80.021 Y111.899 E6.62429
G1 X78.505 Y110.748 E6.6876
G1 X77.877 Y110.039 E6.7191
G1 X77.283 Y109.539 E6.74493
G1 X76.715 Y108.864 E6.77427
G1 X76.436 Y108.656 E6.78584
G1 X75.436 Y107.412 E6.83893
G1 X74.66 Y106.239 E6.88571
G1 X73.841 Y104.884 E6.93837
G1 X73.828 Y104.863 E6.93919
G1 X72.92 Y102.994 E7.0083
G1 X71.95 Y100.352 E7.10191
G1 X71.405 Y99.902 E7.12542
G1 X70.705 Y99.768 E7.14912
G1 X66.107 Y99.6 E7.30215
G1 X65.114 Y99.879 E7.33646
G1 X64.206 Y103.157 E7.44959
G1 X63.685 Y104.434 E7.49547
G1 X63.408 Y104.931 E7.51439
G1 X63.356 Y105.048 E7.51865
G1 X63.18 Y105.586 E7.53748
G1 X62.293 Y106.973 E7.59223
G1 X62.052 Y107.474 E7.61072
G1 X62.036 Y107.507 E7.61194
G1 X60.98 Y109.024 E7.67342
G1 X60.538 Y109.437 E7.69354
G1 X59.579 Y110.545 E7.74228
G1 X58.415 Y111.673 E7.79619
G1 X58.398 Y111.69 E7.79699
G1 X57.484 Y112.416 E7.83581
G1 X56.788 Y112.835 E7.86283
G1 X56.566 Y112.969 E7.87146
G1 X56.495 Y112.719 E7.87666
G1 X55.858 Y110.484 E7.95396
G1 X55.339 Y107.733 E8.04707
G1 X55.169 Y106.567 E8.08627
G1 X55.135 Y104.508 E8.15476
G1 X55.237 Y102.675 E8.21582
G1 X55.476 Y101.456 E8.25713
G1 X56.373 Y98.447 E8.36157
G1 X58.113 Y94.571 E8.50288
G1 X57.529 Y93.647 E8.53923
G1 X57.508 Y93.624 E8.54027
G1 X55.473 Y91.311 E8.64273
G1 X54.695 Y90.015 E8.69301
G1 X54.148 Y88.82 E8.73672
G1 X53.739 Y87.605 E8.77936
G1 X53.469 Y86.37 E8.82141
G1 X53.328 Y85.08 E8.86457
G1 X53.348 Y84.07 E8.89817
G1 X53.503 Y82.917 E8.93686
G1 X53.786 Y81.682 E8.979
G1 X54.15 Y80.579 E9.01764
G1 X54.834 Y79.196 E9.06895
G1 X55.561 Y77.995 E9.11565
G1 X57.709 Y75.574 E9.22329
G1 X57.971 Y74.744 E9.25224
G1 X57.492 Y73.954 E9.28297
G1 X56.639 Y73.539 E9.31452
G1 X56.1 Y73.129 E9.33705
G1 X55.875 Y72.795 E9.35044
G1 X55.65 Y72.152 E9.3731
G1 X55.615 Y71.157 E9.40621
G1 X55.672 Y70.51 E9.42781
G1 X55.786 Y70.185 E9.43927
G1 X56.276 Y69.471 E9.46807
G1 X56.325 Y69.433 E9.47013
G1 X56.446 Y69.338 E9.47525
G1 X56.709 Y69.332 E9.484
G1 X57.063 Y69.455 E9.49647
G1 X57.621 Y69.842 E9.51905
G1 X60.252 Y72.347 E9.63988
G1 X60.883 Y72.841 E9.66653
G1 X61.579 Y73.139 E9.69171
G1 X62.533 Y72.933 E9.72418
G1 X63.446 Y72.236 E9.76238
G1 X63.251 Y71.05 E9.80236
G1 X62.351 Y67.525 E9.92336
G1 X61.934 Y66.558 E9.95838
G1 X61.252 Y65.699 E9.99486
G1 X60.301 Y65.16 E10.03122
G1 X59.401 Y65.048 E10.06139
G1 X59.196 Y65.023 E10.06826
G1 X59.061 Y65.047 E10.07282
G1 X59.098 Y64.974
G1 X59.192 Y64.79 E10.07764
G1 X59.307 Y64.565 E10.08604
G1 X60.005 Y63.548 E10.12707
G1 X61.494 Y61.855 E10.20206
G1 X63.083 Y60.503 E10.27145
G1 X64.039 Y59.805 E10.31082
G1 X64.347 Y59.126 E10.33562
G1 X64.52 Y58.392 E10.3607
G1 X64.671 Y58.058 E10.37289
G1 X64.869 Y57.805 E10.38358
G1 X65.123 Y57.606 E10.39431
G1 X65.361 Y57.502 E10.40295
G1 X65.891 Y57.455 E10.42065
G1 X65.959 Y57.448 E10.42292
G1 X66.513 Y57.587 E10.44192
G1 X66.816 Y57.8 E10.45424
G1 X67.358 Y58.614 E10.48676
G1 X67.973 Y58.996 E10.51084
G1 X70.14 Y59.473 E10.58464
G1 X71.455 Y59.992 E10.63166
G1 X72.021 Y60.292 E10.65297
G1 X73.601 Y61.273 E10.71482
G1 X73.983 Y61.672 E10.7332
G1 X74.37 Y61.94 E10.74885
G1 X75.433 Y63.073 E10.80053
G1 X75.454 Y63.107 E10.80186
G1 X76.052 Y64.045 E10.83885
G1 X76.249 Y64.353 E10.85101
G1 X76.315 Y64.457 E10.85511
G1 X76.397 Y64.586 E10.8602
G1 X76.125 Y64.579 E10.86472
G1 X76.004 Y64.605 E10.8681
G1 X75.027 Y64.823 E10.90139
G1 X74.251 Y65.247 E10.9308
G1 X73.794 Y65.925 E10.958
G1 X73.387 Y66.798 E10.99003
G1 X73.096 Y67.696 E11.02143
G1 X73.092 Y67.725 E11.0224
G1 X72.642 Y70.375 E11.11181
G1 X72.549 Y71.187 E11.13899
G1 X72.646 Y72.019 E11.16685
G1 X73.231 Y72.646 E11.19537
G1 X74.738 Y73.233 E11.24916
G1 X77.316 Y74.669 E11.34731
G1 X79.546 Y76.577 E11.44493
G1 X80.662 Y78.05 E11.50639
G1 X81.3 Y79.091 E11.547
G1 X82.375 Y81.434 E11.63274
G1 X84.244 Y84.268 E11.74565
G1 X85.569 Y86.912 E11.84402
G1 X86.135 Y88.513 E11.90049
G1 X86.602 Y90.21 E11.95904
G1 X86.673 Y92.996 E12.05173
G1 X86.598 Y94.515 E12.10231
G1 X86.484 Y95.209 E12.1257
G1 X85.985 Y96.695 E12.17784
G1 X85.618 Y97.284 E12.20092
G1 X85.594 Y97.31 E12.2021
G1 X84.938 Y98.046 E12.23489
G1 X84.319 Y98.492 E12.26027
G1 X83.945 Y98.568 E12.27296
G1 X83.587 Y98.487 E12.28517
G1 X83.41 Y98.332 E12.29299
G1 X83.161 Y97.757 E12.31383
G1 X82.912 Y96.462 E12.35769
G1 X82.522 Y91.742 E12.51522
G1 X81.896 Y90.602 E12.55847
G1 X80.631 Y91.094 E12.60362
G1 X79.962 Y91.975 E12.64041
G1 X78.241 Y93.941 E12.72732
G1 X79.24 Y95.914 E12.80087
G1 X79.249 Y95.937 E12.80169
G1 X80.114 Y97.947 E12.87447
G1 X80.862 Y100.313 E12.95701
G1 X80.867 Y100.334 E12.95772
G1 X81.251 Y101.831 E13.00913
G1 X81.257 Y101.853 E13.00988
G1 X81.259 Y101.87 E13.01045
G1 X81.438 Y103.039 E13.04979
G1 X81.443 Y103.067 E13.05073
G1 X81.559 Y105.49 E13.13142
G1 X81.485 Y107.862 E13.21035
G1 X81.255 Y109.39 E13.26174
G1 X81.082 Y109.965 E13.28171
G1 X80.325 Y111.816 E13.34823
G1 X80.227 Y112.055 E13.35341
G0 F6000 X80.445 Y112.578
G1 F1200 X80.356 Y112.575 E13.35637
G1 X80.079 Y112.445 E13.36655
G1 X80.075 Y112.442 E13.36672
G1 X78.235 Y111.046 E13.44354
G1 X77.597 Y110.326 E13.47553
G1 X76.999 Y109.823 E13.50152
G1 X76.439 Y109.157 E13.53046
G1 X76.155 Y108.946 E13.54223
G1 X75.112 Y107.648 E13.59761
G1 X74.326 Y106.46 E13.64499
G1 X73.473 Y105.049 E13.69983
G1 X72.554 Y103.157 E13.76979
G1 X71.612 Y100.592 E13.86067
G1 X71.229 Y100.276 E13.87719
G1 X70.66 Y100.167 E13.89646
G1 X66.155 Y100.002 E14.0464
G1 X65.439 Y100.203 E14.07113
G1 X64.584 Y103.288 E14.17761
G1 X64.044 Y104.611 E14.22513
G1 X63.766 Y105.111 E14.24416
G1 X63.729 Y105.193 E14.24715
G1 X63.543 Y105.761 E14.26703
G1 X62.643 Y107.168 E14.32258
G1 X62.384 Y107.708 E14.3425
G1 X61.283 Y109.289 E14.40658
G1 X60.826 Y109.715 E14.42736
G1 X59.866 Y110.824 E14.47615
G1 X58.665 Y111.989 E14.5318
G1 X57.708 Y112.748 E14.57242
G1 X56.691 Y113.362 E14.61194
G1 X56.627 Y113.4 E14.61441
G1 X56.391 Y113.495 E14.62287
G1 X56.355 Y113.43 E14.62534
G1 X56.2 Y113.146 E14.63611
G1 X55.469 Y110.581 E14.72481
G1 X54.943 Y107.791 E14.81925
G1 X54.769 Y106.601 E14.85925
G1 X54.735 Y104.508 E14.92887
G1 X54.84 Y102.619 E14.99179
G1 X55.085 Y101.369 E15.03416
G1 X55.999 Y98.304 E15.14054
G1 X57.66 Y94.603 E15.27546
G1 X57.208 Y93.887 E15.30363
G1 X55.147 Y91.546 E15.40736
G1 X54.339 Y90.199 E15.45961
G1 X53.777 Y88.972 E15.50449
G1 X53.352 Y87.709 E15.54882
G1 X53.073 Y86.434 E15.59223
G1 X52.927 Y85.101 E15.63683
G1 X52.948 Y84.046 E15.67192
G1 X53.11 Y82.84 E15.71239
G1 X53.4 Y81.574 E15.75559
G1 X53.779 Y80.425 E15.79583
G1 X54.48 Y79.008 E15.84842
G1 X55.237 Y77.758 E15.89702
G1 X57.353 Y75.372 E16.00309
G1 X57.535 Y74.796 E16.02318
G1 X57.211 Y74.262 E16.04396
G1 X56.431 Y73.883 E16.0728
G1 X55.804 Y73.406 E16.099
G1 X55.516 Y72.977 E16.11619
G1 X55.499 Y72.928 E16.11791
G1 X55.274 Y72.285 E16.14057
G1 X55.252 Y72.224 E16.14273
G1 X55.214 Y71.151 E16.17844
G1 X55.279 Y70.422 E16.20278
G1 X55.425 Y70.004 E16.21751
G1 X55.977 Y69.199 E16.24997
G1 X56.206 Y69.006 E16.25993
G1 X56.357 Y68.94 E16.26541
G1 X56.772 Y68.93 E16.27922
G1 X57.247 Y69.095 E16.29595
G1 X57.875 Y69.531 E16.32137
G1 X60.514 Y72.044 E16.44258
G1 X61.088 Y72.494 E16.46684
G1 X61.619 Y72.721 E16.48604
G1 X62.361 Y72.561 E16.51129
G1 X63.012 Y72.064 E16.53853
G1 X62.859 Y71.132 E16.56994
G1 X61.971 Y67.654 E16.68933
G1 X61.588 Y66.765 E16.72153
G1 X60.987 Y66.009 E16.75365
G1 X60.173 Y65.547 E16.78478
G1 X59.207 Y65.427 E16.81716
G1 X58.736 Y65.512 E16.83308
G1 X58.735 Y65.513 E16.83312
G1 X58.341 Y65.582 E16.84643
G1 X58.523 Y65.225 E16.85379
G1 X58.705 Y64.867 E16.86715
G1 X58.963 Y64.36 E16.88607
G1 X59.687 Y63.304 E16.92865
G1 X61.215 Y61.567 E17.0056
G1 X62.834 Y60.19 E17.07629
G1 X63.718 Y59.544 E17.11271
G1 X63.967 Y58.996 E17.13273
G1 X64.141 Y58.258 E17.15794
G1 X64.324 Y57.853 E17.17273
G1 X64.586 Y57.518 E17.18687
G1 X64.915 Y57.26 E17.20078
G1 X65.26 Y57.11 E17.21329
G1 X65.325 Y57.105 E17.21546
G1 X65.922 Y57.051 E17.2354
G1 X65.991 Y57.044 E17.2377
G1 X66.682 Y57.217 E17.26139
G1 X67.108 Y57.517 E17.27872
G1 X67.643 Y58.32 E17.31082
G1 X68.126 Y58.62 E17.32973
G1 X70.255 Y59.088 E17.40223
G1 X71.618 Y59.626 E17.45097
G1 X72.229 Y59.95 E17.47397
G1 X73.853 Y60.959 E17.53756
G1 X73.888 Y60.996 E17.53925
G1 X74.244 Y61.366 E17.55633
G1 X74.633 Y61.635 E17.57206
G1 X75.748 Y62.823 E17.62625
G1 X76.739 Y64.376 E17.68753
G1 X76.895 Y64.668 E17.69854
G1 X77.002 Y64.868 E17.70608
G1 X77.022 Y65.002 E17.71059
G1 X76.999 Y65.002
G1 X76.772 Y64.997 E17.71598
G1 X76.164 Y64.98 E17.73621
G1 X75.169 Y65.201 E17.77011
G1 X74.528 Y65.551 E17.7944
G1 X74.143 Y66.122 E17.81731
G1 X73.76 Y66.945 E17.8475
G1 X73.485 Y67.792 E17.87712
G1 X73.038 Y70.431 E17.96614
G1 X72.952 Y71.187 E17.99145
G1 X73.028 Y71.842 E18.01338
G1 X73.461 Y72.306 E18.03449
G1 X74.906 Y72.869 E18.08607
G1 X77.547 Y74.34 E18.18661
G1 X79.84 Y76.302 E18.28699
G1 X80.99 Y77.82 E18.35033
G1 X81.656 Y78.906 E18.3927
G1 X82.726 Y81.239 E18.47807
G1 X84.592 Y84.07 E18.59084
G1 X85.936 Y86.752 E18.69062
G1 X86.519 Y88.4 E18.74876
G1 X87.001 Y90.15 E18.80913
G1 X87.073 Y93.006 E18.90415
G1 X86.997 Y94.556 E18.95577
G1 X86.874 Y95.302 E18.98092
G1 X86.349 Y96.867 E19.03582
G1 X85.938 Y97.526 E19.06165
G1 X85.207 Y98.346 E19.09819
G1 X84.484 Y98.867 E19.12783
G1 X83.941 Y98.977 E19.14626
G1 X83.398 Y98.854 E19.16477
G1 X83.079 Y98.574 E19.17889
G1 X82.776 Y97.875 E19.20423
G1 X82.515 Y96.514 E19.25032
G1 X82.13 Y91.86 E19.40564
G1 X81.714 Y91.102 E19.4344
G1 X80.881 Y91.426 E19.46413
G1 X80.263 Y92.239 E19.4981
G1 X78.72 Y94.001 E19.57599
G1 X79.597 Y95.733 E19.64056
G1 X79.606 Y95.756 E19.64139
G1 X80.489 Y97.806 E19.71563
G1 X81.242 Y100.192 E19.79884
G1 X81.246 Y100.203 E19.79923
G1 X81.248 Y100.213 E19.79957
G1 X81.643 Y101.753 E19.85245
G1 X81.649 Y101.774 E19.85318
G1 X81.651 Y101.792 E19.85378
G1 X81.837 Y103.006 E19.89463
G1 X81.842 Y103.036 E19.89564
G1 X81.96 Y105.484 E19.97715
G1 X81.884 Y107.901 E20.05758
G1 X81.647 Y109.473 E20.11046
G1 X81.46 Y110.096 E20.13209
G1 X80.447 Y112.573 E20.2211
G1 X80.445 Y112.578 E20.22128
G0 F6000 X80.737 Y112.919
;TYPE:WALL-OUTER
G1 F1200 X80.613 Y112.983 E20.22592
G1 X80.26 Y112.973 E20.23767
G1 X79.87 Y112.789 E20.25201
G1 X77.965 Y111.344 E20.33154
G1 X77.317 Y110.613 E20.36403
G1 X76.715 Y110.107 E20.39018
G1 X76.163 Y109.45 E20.41872
G1 X75.875 Y109.237 E20.43064
G1 X74.788 Y107.884 E20.48836
G1 X73.992 Y106.681 E20.53634
G1 X73.118 Y105.235 E20.59254
G1 X72.188 Y103.32 E20.66335
G1 X71.274 Y100.832 E20.7515
G1 X71.053 Y100.65 E20.76103
G1 X70.615 Y100.566 E20.77586
