;FLAVOR:Marlin
;TIME:680
;Filament used: 0.506471m
;Layer height: 0.2
;MINX:90.203
;MINY:90.202
;MINZ:0.2
;MAXX:129.794
;MAXY:129.798
;MAXZ:3
;Generated with Creality Slicer 4.8.2-205
M140 S50
M105
M190 S50
M104 S200
M105
M109 S200
M82 ;absolute extrusion mode

G28 ;Home

G92 E0 ;Reset Extruder
G1 Z2.0 F3000 ;Move Z Axis up
G1 X10.1 Y20 Z0.28 F5000.0 ;Move to start position
G1 X10.1 Y200.0 Z0.28 F1500.0 E15 ;Draw the first line
G1 X10.4 Y200.0 Z0.28 F5000.0 ;Move to side a little
G1 X10.4 Y20 Z0.28 F1500.0 E30 ;Draw the second line
G92 E0 ;Reset Extruder
G1 Z2.0 F3000 ;Move Z Axis up

G92 E0
G92 E0
G1 F2100 E-5
;LAYER_COUNT:15
;LAYER:0
M107
G0 F6000 X96.151 Y95.85 Z0.2
;TYPE:SKIRT
G1 F2100 E0
G1 F1200 X96.484 Y95.531 E0.01534
G1 X97.017 Y95.051 E0.03919
G1 X97.368 Y94.753 E0.05451
G1 X97.93 Y94.304 E0.07843
G1 X98.316 Y94.015 E0.09447
G1 X98.904 Y93.602 E0.11837
G1 X99.289 Y93.348 E0.13371
G1 X99.898 Y92.972 E0.15752
G1 X100.293 Y92.744 E0.17269
G1 X100.927 Y92.402 E0.19665
G1 X101.361 Y92.185 E0.21278
G1 X102.011 Y91.885 E0.23659
G1 X102.417 Y91.711 E0.25129
G1 X103.086 Y91.447 E0.27521
G1 X103.538 Y91.285 E0.29118
G1 X104.221 Y91.063 E0.31506
G1 X104.676 Y90.93 E0.33083
G1 X105.371 Y90.75 E0.35471
G1 X105.818 Y90.648 E0.36996
G1 X106.523 Y90.509 E0.39386
G1 X106.99 Y90.432 E0.4096
G1 X107.702 Y90.336 E0.4335
G1 X108.157 Y90.288 E0.44871
G1 X108.873 Y90.234 E0.47259
G1 X109.34 Y90.213 E0.48814
G1 X110.056 Y90.202 E0.51196
G1 X110.534 Y90.209 E0.52786
G1 X111.252 Y90.242 E0.55177
G1 X111.709 Y90.277 E0.56701
G1 X112.423 Y90.352 E0.59089
G1 X112.867 Y90.411 E0.60579
G1 X113.576 Y90.527 E0.62968
G1 X114.07 Y90.625 E0.64643
G1 X114.768 Y90.786 E0.67026
G1 X115.196 Y90.897 E0.68496
G1 X115.886 Y91.098 E0.70887
G1 X116.344 Y91.247 E0.72489
G1 X117.02 Y91.49 E0.74878
G1 X117.446 Y91.657 E0.764
G1 X118.106 Y91.939 E0.78787
G1 X118.525 Y92.133 E0.80323
G1 X119.168 Y92.454 E0.82713
G1 X119.583 Y92.677 E0.8428
G1 X120.205 Y93.036 E0.86668
G1 X120.603 Y93.282 E0.88225
G1 X121.203 Y93.678 E0.90616
G1 X121.586 Y93.948 E0.92174
G1 X122.158 Y94.377 E0.94552
G1 X122.518 Y94.664 E0.96084
G1 X123.066 Y95.128 E0.98472
G1 X123.421 Y95.447 E1.00059
G1 X123.94 Y95.944 E1.02449
G1 X124.268 Y96.278 E1.04006
G1 X124.757 Y96.806 E1.064
G1 X125.052 Y97.144 E1.07892
G1 X125.508 Y97.697 E1.10276
G1 X125.801 Y98.075 E1.11867
G1 X126.223 Y98.656 E1.14255
G1 X126.486 Y99.042 E1.15809
G1 X126.873 Y99.648 E1.182
G1 X127.112 Y100.048 E1.1975
G1 X127.461 Y100.674 E1.22134
G1 X127.678 Y101.093 E1.23703
G1 X127.989 Y101.74 E1.26091
G1 X128.172 Y102.151 E1.27587
G1 X128.446 Y102.817 E1.29982
G1 X128.615 Y103.266 E1.31578
G1 X128.846 Y103.943 E1.33957
G1 X128.986 Y104.397 E1.35537
G1 X129.176 Y105.089 E1.37924
G1 X129.282 Y105.524 E1.39413
G1 X129.432 Y106.226 E1.41801
G1 X129.517 Y106.695 E1.43386
G1 X129.624 Y107.406 E1.45778
G1 X129.679 Y107.861 E1.47302
G1 X129.744 Y108.576 E1.4969
G1 X129.773 Y109.054 E1.51283
G1 X129.794 Y109.771 E1.53668
G1 X129.794 Y110.227 E1.55185
G1 X129.773 Y110.945 E1.57574
G1 X129.744 Y111.423 E1.59167
G1 X129.679 Y112.138 E1.61555
G1 X129.624 Y112.593 E1.63079
G1 X129.517 Y113.304 E1.65471
G1 X129.434 Y113.76 E1.67012
G1 X129.285 Y114.463 E1.69402
G1 X129.173 Y114.924 E1.7098
G1 X128.982 Y115.615 E1.73365
G1 X128.844 Y116.062 E1.74921
G1 X128.612 Y116.74 E1.77304
G1 X128.449 Y117.173 E1.78843
G1 X128.176 Y117.839 E1.81237
G1 X127.989 Y118.26 E1.82769
G1 X127.678 Y118.907 E1.85157
G1 X127.461 Y119.326 E1.86726
G1 X127.112 Y119.952 E1.8911
G1 X126.875 Y120.349 E1.90648
G1 X126.489 Y120.954 E1.93035
G1 X126.224 Y121.343 E1.946
G1 X125.802 Y121.924 E1.96989
G1 X125.508 Y122.303 E1.98584
G1 X125.051 Y122.857 E2.00973
G1 X124.762 Y123.188 E2.02434
G1 X124.274 Y123.716 E2.04825
G1 X123.935 Y124.061 E2.06434
G1 X123.416 Y124.557 E2.08822
G1 X123.067 Y124.871 E2.10383
G1 X122.519 Y125.335 E2.12772
G1 X122.161 Y125.621 E2.14296
G1 X121.588 Y126.051 E2.16678
G1 X121.203 Y126.322 E2.18244
G1 X120.603 Y126.718 E2.20635
G1 X120.205 Y126.964 E2.22192
G1 X119.583 Y127.323 E2.2458
G1 X119.168 Y127.546 E2.26147
G1 X118.525 Y127.867 E2.28537
G1 X118.106 Y128.061 E2.30073
G1 X117.446 Y128.343 E2.3246
G1 X117.02 Y128.51 E2.33982
G1 X116.344 Y128.753 E2.36371
G1 X115.886 Y128.902 E2.37973
G1 X115.196 Y129.103 E2.40364
G1 X114.758 Y129.217 E2.41869
G1 X114.06 Y129.377 E2.44251
G1 X113.587 Y129.47 E2.45854
G1 X112.878 Y129.587 E2.48244
G1 X112.423 Y129.648 E2.49771
G1 X111.709 Y129.723 E2.52159
G1 X111.252 Y129.758 E2.53683
G1 X110.534 Y129.791 E2.56074
G1 X110.056 Y129.798 E2.57664
G1 X109.34 Y129.787 E2.60046
G1 X108.873 Y129.766 E2.616
G1 X108.157 Y129.712 E2.63989
G1 X107.702 Y129.664 E2.6551
G1 X106.99 Y129.568 E2.679
G1 X106.534 Y129.493 E2.69437
G1 X105.829 Y129.355 E2.71826
G1 X105.361 Y129.248 E2.73423
G1 X104.666 Y129.067 E2.75812
G1 X104.221 Y128.937 E2.77354
G1 X103.538 Y128.715 E2.79742
G1 X103.086 Y128.553 E2.81339
G1 X102.417 Y128.289 E2.83731
G1 X102.011 Y128.115 E2.852
G1 X101.361 Y127.815 E2.87582
G1 X100.927 Y127.598 E2.89195
G1 X100.293 Y127.256 E2.91591
G1 X99.898 Y127.028 E2.93108
G1 X99.289 Y126.652 E2.95489
G1 X98.904 Y126.398 E2.97023
G1 X98.316 Y125.985 E2.99413
G1 X97.93 Y125.696 E3.01017
G1 X97.368 Y125.247 E3.03409
G1 X97.017 Y124.949 E3.04941
G1 X96.484 Y124.469 E3.07326
G1 X96.151 Y124.15 E3.0886
G1 X95.647 Y123.639 E3.11247
G1 X95.323 Y123.29 E3.12831
G1 X94.851 Y122.749 E3.15219
G1 X94.556 Y122.391 E3.16762
G1 X94.117 Y121.823 E3.1915
G1 X93.843 Y121.445 E3.20702
G1 X93.439 Y120.852 E3.23089
G1 X93.194 Y120.468 E3.24604
G1 X92.825 Y119.852 E3.26992
G1 X92.59 Y119.432 E3.28593
G1 X92.26 Y118.795 E3.30979
G1 X92.062 Y118.383 E3.32499
G1 X91.77 Y117.728 E3.34885
G1 X91.592 Y117.293 E3.36448
G1 X91.339 Y116.619 E3.38842
G1 X91.185 Y116.168 E3.40427
G1 X90.974 Y115.481 E3.42818
G1 X90.853 Y115.042 E3.44332
G1 X90.683 Y114.346 E3.46715
G1 X90.587 Y113.895 E3.48249
G1 X90.458 Y113.188 E3.50639
G1 X90.386 Y112.713 E3.52237
G1 X90.301 Y112.001 E3.54622
G1 X90.26 Y111.544 E3.56148
G1 X90.217 Y110.828 E3.58534
G1 X90.203 Y110.36 E3.60091
G1 X90.203 Y109.641 E3.62482
G1 X90.217 Y109.174 E3.64036
G1 X90.26 Y108.457 E3.66425
G1 X90.301 Y107.999 E3.67955
G1 X90.386 Y107.287 E3.7034
G1 X90.456 Y106.822 E3.71904
G1 X90.584 Y106.115 E3.74294
G1 X90.684 Y105.644 E3.75895
G1 X90.855 Y104.948 E3.78279
G1 X90.974 Y104.519 E3.79759
G1 X91.185 Y103.832 E3.8215
G1 X91.339 Y103.381 E3.83735
G1 X91.592 Y102.707 E3.86129
G1 X91.77 Y102.272 E3.87693
G1 X92.062 Y101.617 E3.90078
G1 X92.26 Y101.205 E3.91598
G1 X92.59 Y100.568 E3.93984
G1 X92.825 Y100.148 E3.95585
G1 X93.194 Y99.532 E3.97973
G1 X93.439 Y99.148 E3.99488
G1 X93.843 Y98.555 E4.01875
G1 X94.117 Y98.177 E4.03428
G1 X94.556 Y97.609 E4.05815
G1 X94.851 Y97.251 E4.07358
G1 X95.323 Y96.71 E4.09746
G1 X95.647 Y96.361 E4.1133
G1 X96.151 Y95.85 E4.13717
G0 F6000 X96.435 Y96.131
G1 F1200 X96.752 Y95.828 E4.15176
G1 X97.285 Y95.348 E4.17561
G1 X97.618 Y95.066 E4.19013
G1 X98.18 Y94.617 E4.21405
G1 X98.546 Y94.342 E4.22928
G1 X99.134 Y93.929 E4.25318
G1 X99.499 Y93.688 E4.26773
G1 X100.108 Y93.312 E4.29153
G1 X100.483 Y93.096 E4.30592
G1 X101.117 Y92.754 E4.32988
G1 X101.529 Y92.548 E4.3452
G1 X102.179 Y92.248 E4.36901
G1 X102.564 Y92.084 E4.38293
G1 X103.233 Y91.82 E4.40685
G1 X103.662 Y91.665 E4.42203
G1 X104.345 Y91.443 E4.44591
G1 X104.777 Y91.317 E4.46088
G1 X105.472 Y91.137 E4.48476
G1 X105.896 Y91.041 E4.49922
G1 X106.601 Y90.902 E4.52312
G1 X107.043 Y90.828 E4.53802
G1 X107.755 Y90.732 E4.56192
G1 X108.187 Y90.687 E4.57636
G1 X108.903 Y90.633 E4.60025
G1 X109.346 Y90.613 E4.61499
G1 X110.062 Y90.602 E4.63881
G1 X110.516 Y90.609 E4.65391
G1 X111.234 Y90.642 E4.67782
G1 X111.667 Y90.674 E4.69226
G1 X112.381 Y90.749 E4.71614
G1 X112.803 Y90.806 E4.7303
G1 X113.512 Y90.922 E4.7542
G1 X113.98 Y91.014 E4.77006
G1 X114.678 Y91.175 E4.79389
G1 X115.085 Y91.281 E4.80787
G1 X115.775 Y91.482 E4.83178
G1 X116.208 Y91.623 E4.84692
G1 X116.884 Y91.866 E4.87082
G1 X117.289 Y92.025 E4.88529
G1 X117.949 Y92.307 E4.90916
G1 X118.346 Y92.491 E4.92371
G1 X118.989 Y92.812 E4.94762
G1 X119.383 Y93.024 E4.9625
G1 X120.005 Y93.383 E4.98638
G1 X120.382 Y93.616 E5.00112
G1 X120.982 Y94.012 E5.02503
G1 X121.346 Y94.268 E5.03984
G1 X121.918 Y94.697 E5.06362
G1 X122.26 Y94.97 E5.07817
G1 X122.808 Y95.434 E5.10205
G1 X123.144 Y95.736 E5.11708
G1 X123.663 Y96.233 E5.14098
G1 X123.974 Y96.55 E5.15575
G1 X124.463 Y97.078 E5.17969
G1 X124.743 Y97.398 E5.19383
G1 X125.199 Y97.951 E5.21767
G1 X125.477 Y98.31 E5.23277
G1 X125.899 Y98.891 E5.25665
G1 X126.149 Y99.257 E5.2714
G1 X126.536 Y99.863 E5.29531
G1 X126.762 Y100.243 E5.31002
G1 X127.111 Y100.869 E5.33385
G1 X127.318 Y101.266 E5.34875
G1 X127.629 Y101.913 E5.37262
G1 X127.802 Y102.304 E5.38684
G1 X128.076 Y102.97 E5.41079
G1 X128.237 Y103.395 E5.42591
G1 X128.468 Y104.072 E5.4497
G1 X128.6 Y104.503 E5.46469
G1 X128.79 Y105.195 E5.48856
G1 X128.891 Y105.608 E5.5027
G1 X129.041 Y106.31 E5.52658
G1 X129.122 Y106.755 E5.54162
G1 X129.229 Y107.466 E5.56554
G1 X129.281 Y107.897 E5.57998
G1 X129.346 Y108.612 E5.60386
G1 X129.373 Y109.065 E5.61895
G1 X129.394 Y109.782 E5.64281
G1 X129.394 Y110.215 E5.65721
G1 X129.373 Y110.933 E5.6811
G1 X129.346 Y111.387 E5.69623
G1 X129.281 Y112.102 E5.72011
G1 X129.229 Y112.533 E5.73454
G1 X129.122 Y113.244 E5.75846
G1 X129.043 Y113.677 E5.7731
G1 X128.894 Y114.38 E5.797
G1 X128.788 Y114.818 E5.81199
G1 X128.597 Y115.509 E5.83583
G1 X128.465 Y115.933 E5.8506
G1 X128.233 Y116.611 E5.87444
G1 X128.079 Y117.022 E5.88903
G1 X127.806 Y117.688 E5.91297
G1 X127.629 Y118.087 E5.92749
G1 X127.318 Y118.734 E5.95137
G1 X127.111 Y119.131 E5.96626
G1 X126.762 Y119.757 E5.9901
G1 X126.537 Y120.134 E6.0047
G1 X126.151 Y120.739 E6.02857
G1 X125.9 Y121.108 E6.04341
G1 X125.478 Y121.689 E6.0673
G1 X125.199 Y122.049 E6.08245
G1 X124.742 Y122.603 E6.10633
G1 X124.468 Y122.917 E6.12019
G1 X123.98 Y123.445 E6.14411
G1 X123.659 Y123.772 E6.15935
G1 X123.14 Y124.268 E6.18322
G1 X122.809 Y124.565 E6.19801
G1 X122.261 Y125.029 E6.2219
G1 X121.921 Y125.301 E6.23638
G1 X121.348 Y125.731 E6.26021
G1 X120.982 Y125.988 E6.27508
G1 X120.382 Y126.384 E6.29899
G1 X120.005 Y126.617 E6.31373
G1 X119.383 Y126.976 E6.33762
G1 X118.989 Y127.188 E6.3525
G1 X118.346 Y127.509 E6.3764
G1 X117.949 Y127.693 E6.39096
G1 X117.289 Y127.975 E6.41483
G1 X116.884 Y128.134 E6.4293
G1 X116.208 Y128.377 E6.45319
G1 X115.775 Y128.518 E6.46834
G1 X115.085 Y128.719 E6.49224
G1 X114.668 Y128.827 E6.50657
G1 X113.97 Y128.987 E6.53039
G1 X113.522 Y129.075 E6.54557
G1 X112.813 Y129.192 E6.56947
G1 X112.381 Y129.251 E6.58397
G1 X111.667 Y129.326 E6.60785
G1 X111.234 Y129.358 E6.62229
G1 X110.516 Y129.391 E6.6462
G1 X110.062 Y129.398 E6.6613
G1 X109.346 Y129.387 E6.68512
G1 X108.903 Y129.367 E6.69987
G1 X108.187 Y129.313 E6.72375
G1 X107.755 Y129.268 E6.7382
G1 X107.043 Y129.172 E6.76209
G1 X106.61 Y129.1 E6.77669
G1 X105.905 Y128.962 E6.80058
G1 X105.462 Y128.861 E6.8157
G1 X104.767 Y128.68 E6.83958
G1 X104.345 Y128.557 E6.8542
G1 X103.662 Y128.335 E6.87809
G1 X103.233 Y128.18 E6.89326
G1 X102.564 Y127.916 E6.91718
G1 X102.179 Y127.752 E6.9311
G1 X101.529 Y127.452 E6.95491
G1 X101.117 Y127.246 E6.97023
G1 X100.483 Y126.904 E6.99419
G1 X100.108 Y126.688 E7.00858
G1 X99.499 Y126.312 E7.03239
G1 X99.134 Y126.071 E7.04694
G1 X98.546 Y125.658 E7.07084
G1 X98.18 Y125.383 E7.08606
G1 X97.618 Y124.934 E7.10999
G1 X97.285 Y124.652 E7.1245
G1 X96.752 Y124.172 E7.14836
G1 X96.435 Y123.869 E7.16294
G1 X95.931 Y123.358 E7.18681
G1 X95.624 Y123.027 E7.20183
G1 X95.152 Y122.486 E7.22571
G1 X94.873 Y122.146 E7.24034
G1 X94.434 Y121.578 E7.26421
G1 X94.173 Y121.219 E7.27898
G1 X93.769 Y120.626 E7.30284
G1 X93.537 Y120.263 E7.31717
G1 X93.168 Y119.647 E7.34105
G1 X92.945 Y119.248 E7.35626
G1 X92.615 Y118.611 E7.38012
G1 X92.427 Y118.22 E7.39455
G1 X92.135 Y117.565 E7.4184
G1 X91.966 Y117.153 E7.43321
G1 X91.713 Y116.479 E7.45716
G1 X91.567 Y116.051 E7.4722
G1 X91.356 Y115.364 E7.4961
G1 X91.241 Y114.947 E7.51049
G1 X91.071 Y114.251 E7.53432
G1 X90.98 Y113.823 E7.54887
G1 X90.851 Y113.116 E7.57277
G1 X90.783 Y112.665 E7.58794
G1 X90.698 Y111.953 E7.61179
G1 X90.659 Y111.52 E7.62625
G1 X90.616 Y110.804 E7.65011
G1 X90.603 Y110.36 E7.66488
G1 X90.603 Y109.641 E7.6888
G1 X90.616 Y109.198 E7.70354
G1 X90.659 Y108.481 E7.72743
G1 X90.698 Y108.047 E7.74192
G1 X90.783 Y107.335 E7.76577
G1 X90.849 Y106.894 E7.7806
G1 X90.977 Y106.187 E7.8045
G1 X91.073 Y105.739 E7.81974
G1 X91.244 Y105.043 E7.84358
G1 X91.356 Y104.636 E7.85762
G1 X91.567 Y103.949 E7.88152
G1 X91.713 Y103.521 E7.89656
G1 X91.966 Y102.847 E7.9205
G1 X92.135 Y102.435 E7.93531
G1 X92.427 Y101.78 E7.95917
G1 X92.615 Y101.389 E7.9736
G1 X92.945 Y100.752 E7.99746
G1 X93.168 Y100.353 E8.01266
G1 X93.537 Y99.737 E8.03654
G1 X93.769 Y99.374 E8.05087
G1 X94.173 Y98.781 E8.07474
G1 X94.434 Y98.422 E8.0895
G1 X94.873 Y97.854 E8.11338
G1 X95.152 Y97.514 E8.12801
G1 X95.624 Y96.973 E8.15188
G1 X95.931 Y96.642 E8.1669
G1 X96.435 Y96.131 E8.19077
G0 F6000 X96.72 Y96.412
G1 F1200 X97.02 Y96.125 E8.20458
G1 X97.553 Y95.645 E8.22844
G1 X97.868 Y95.378 E8.24217
G1 X98.43 Y94.929 E8.2661
G1 X98.776 Y94.67 E8.28047
G1 X99.364 Y94.257 E8.30437
G1 X99.71 Y94.029 E8.31815
G1 X100.319 Y93.653 E8.34196
G1 X100.673 Y93.448 E8.35556
G1 X101.307 Y93.106 E8.37952
G1 X101.697 Y92.911 E8.39403
G1 X102.347 Y92.611 E8.41784
G1 X102.71 Y92.456 E8.43096
G1 X103.379 Y92.192 E8.45489
G1 X103.785 Y92.046 E8.46924
G1 X104.468 Y91.824 E8.49312
G1 X104.877 Y91.705 E8.50729
G1 X105.572 Y91.525 E8.53117
G1 X105.973 Y91.433 E8.54485
G1 X106.678 Y91.294 E8.56875
G1 X107.097 Y91.225 E8.58288
G1 X107.809 Y91.129 E8.60677
G1 X108.218 Y91.086 E8.62045
G1 X108.934 Y91.032 E8.64433
G1 X109.352 Y91.013 E8.65825
G1 X110.068 Y91.002 E8.68207
G1 X110.497 Y91.008 E8.69634
G1 X111.215 Y91.041 E8.72024
G1 X111.625 Y91.072 E8.73392
G1 X112.339 Y91.147 E8.7578
G1 X112.738 Y91.201 E8.77119
G1 X113.447 Y91.317 E8.79508
G1 X113.89 Y91.404 E8.8101
G1 X114.588 Y91.565 E8.83392
G1 X114.973 Y91.665 E8.84715
G1 X115.663 Y91.866 E8.87106
G1 X116.073 Y92 E8.8854
G1 X116.749 Y92.243 E8.90929
G1 X117.131 Y92.393 E8.92294
G1 X117.791 Y92.675 E8.94682
G1 X118.168 Y92.849 E8.96063
G1 X118.811 Y93.17 E8.98453
G1 X119.183 Y93.37 E8.99858
G1 X119.805 Y93.729 E9.02246
G1 X120.162 Y93.95 E9.03643
G1 X120.762 Y94.346 E9.06034
G1 X121.106 Y94.588 E9.07433
G1 X121.678 Y95.017 E9.09811
G1 X122.001 Y95.275 E9.11186
G1 X122.549 Y95.739 E9.13574
G1 X122.867 Y96.025 E9.14997
G1 X123.386 Y96.522 E9.17387
G1 X123.681 Y96.822 E9.18786
G1 X124.17 Y97.35 E9.2118
G1 X124.435 Y97.653 E9.22518
G1 X124.891 Y98.206 E9.24902
G1 X125.154 Y98.545 E9.26329
G1 X125.576 Y99.126 E9.28718
G1 X125.812 Y99.472 E9.30111
G1 X126.199 Y100.078 E9.32502
G1 X126.413 Y100.437 E9.33892
G1 X126.762 Y101.063 E9.36276
G1 X126.957 Y101.439 E9.37685
G1 X127.268 Y102.086 E9.40073
G1 X127.433 Y102.456 E9.4142
G1 X127.707 Y103.122 E9.43815
G1 X127.858 Y103.524 E9.45244
G1 X128.089 Y104.201 E9.47623
G1 X128.214 Y104.609 E9.49042
G1 X128.404 Y105.301 E9.51429
G1 X128.499 Y105.691 E9.52764
G1 X128.649 Y106.393 E9.55151
G1 X128.726 Y106.814 E9.56575
G1 X128.833 Y107.525 E9.58966
G1 X128.882 Y107.933 E9.60333
G1 X128.947 Y108.648 E9.62721
G1 X128.973 Y109.077 E9.64151
G1 X128.994 Y109.794 E9.66536
G1 X128.994 Y110.204 E9.679
G1 X128.973 Y110.922 E9.70289
G1 X128.947 Y111.351 E9.71719
G1 X128.882 Y112.066 E9.74106
G1 X128.833 Y112.474 E9.75473
G1 X128.726 Y113.185 E9.77865
G1 X128.652 Y113.594 E9.79247
