;FLAVOR:Marlin
;TIME:7191
;Filament used: 5.48578m
;Layer height: 0.2
;MINX:45.7
;MINY:89.7
;MINZ:0.2
;MAXX:174.3
;MAXY:130.3
;MAXZ:14
;Generated with Creality Slicer 4.8.2-205
M140 S50
M105
M190 S50
M104 S200
M105
M109 S200
M82 ;absolute extrusion mode

G28 ;Home

G92 E0 ;Reset Extruder
G1 Z2.0 F3000 ;Move Z Axis up
G1 X10.1 Y20 Z0.28 F5000.0 ;Move to start position
G1 X10.1 Y200.0 Z0.28 F1500.0 E15 ;Draw the first line
G1 X10.4 Y200.0 Z0.28 F5000.0 ;Move to side a little
G1 X10.4 Y20 Z0.28 F1500.0 E30 ;Draw the second line
G92 E0 ;Reset Extruder
G1 Z2.0 F3000 ;Move Z Axis up

G92 E0
G92 E0
G1 F2100 E-5
;LAYER_COUNT:70
;LAYER:0
M107
G0 F6000 X50.004 Y90.587 Z0.2
;TYPE:SKIRT
G1 F2100 E0
G1 F1200 X50.722 Y90.257 E0.02628
G1 X51.469 Y90.002 E0.05254
G1 X52.238 Y89.823 E0.0788
G1 X53.022 Y89.723 E0.10508
G1 X53.617 Y89.7 E0.12489
G1 X166.383 Y89.7 E3.8755
G1 X167.172 Y89.74 E3.90178
G1 X167.952 Y89.859 E3.92802
G1 X168.717 Y90.057 E3.9543
G1 X169.457 Y90.331 E3.98055
G1 X170.166 Y90.679 E4.00682
G1 X170.837 Y91.097 E4.03311
G1 X171.461 Y91.58 E4.05936
G1 X171.898 Y91.985 E4.07917
G1 X172.015 Y92.102 E4.08468
G1 X172.545 Y92.688 E4.11095
G1 X173.012 Y93.324 E4.1372
G1 X173.413 Y94.004 E4.16346
G1 X173.743 Y94.722 E4.18974
G1 X173.998 Y95.469 E4.21599
G1 X174.177 Y96.238 E4.24225
G1 X174.277 Y97.022 E4.26854
G1 X174.3 Y97.617 E4.28834
G1 X174.3 Y122.383 E5.11206
G1 X174.26 Y123.172 E5.13834
G1 X174.141 Y123.952 E5.16458
G1 X173.943 Y124.717 E5.19087
G1 X173.669 Y125.457 E5.21711
G1 X173.321 Y126.166 E5.24338
G1 X172.903 Y126.837 E5.26967
G1 X172.42 Y127.461 E5.29592
G1 X172.015 Y127.898 E5.31574
G1 X171.898 Y128.015 E5.32124
G1 X171.312 Y128.545 E5.34752
G1 X170.676 Y129.012 E5.37376
G1 X169.996 Y129.413 E5.40002
G1 X169.278 Y129.743 E5.4263
G1 X168.531 Y129.998 E5.45255
G1 X167.762 Y130.177 E5.47881
G1 X166.978 Y130.277 E5.5051
G1 X166.383 Y130.3 E5.52491
G1 X53.617 Y130.3 E9.27552
G1 X52.828 Y130.26 E9.30179
G1 X52.048 Y130.141 E9.32804
G1 X51.283 Y129.943 E9.35432
G1 X50.543 Y129.669 E9.38057
G1 X49.834 Y129.321 E9.40683
G1 X49.163 Y128.903 E9.43313
G1 X48.539 Y128.42 E9.45937
G1 X48.102 Y128.015 E9.47919
G1 X47.985 Y127.898 E9.48469
G1 X47.455 Y127.312 E9.51097
G1 X46.988 Y126.676 E9.53722
G1 X46.587 Y125.996 E9.56347
G1 X46.257 Y125.278 E9.58976
G1 X46.002 Y124.531 E9.61601
G1 X45.823 Y123.762 E9.64227
G1 X45.723 Y122.978 E9.66856
G1 X45.7 Y122.383 E9.68836
G1 X45.7 Y97.617 E10.51208
G1 X45.74 Y96.828 E10.53836
G1 X45.859 Y96.048 E10.5646
G1 X46.057 Y95.283 E10.59088
G1 X46.331 Y94.543 E10.61713
G1 X46.679 Y93.834 E10.6434
G1 X47.097 Y93.163 E10.66969
G1 X47.58 Y92.539 E10.69594
G1 X47.985 Y92.102 E10.71575
G1 X48.102 Y91.985 E10.72126
G1 X48.688 Y91.455 E10.74754
G1 X49.324 Y90.988 E10.77378
G1 X50.004 Y90.587 E10.80004
G0 F6000 X50.243 Y90.914
G1 F1200 X50.945 Y90.599 E10.82563
G1 X51.676 Y90.359 E10.85122
G1 X52.427 Y90.196 E10.87678
G1 X53.192 Y90.112 E10.90238
G1 X53.617 Y90.1 E10.91652
G1 X166.383 Y90.1 E14.66713
G1 X167.151 Y90.14 E14.69271
G1 X167.911 Y90.259 E14.71829
G1 X168.654 Y90.457 E14.74387
G1 X169.373 Y90.731 E14.76946
G1 X170.059 Y91.078 E14.79503
G1 X170.706 Y91.494 E14.82061
G1 X171.306 Y91.975 E14.84619
G1 X171.616 Y92.267 E14.86035
G1 X171.733 Y92.384 E14.86586
G1 X172.247 Y92.956 E14.89143
G1 X172.7 Y93.578 E14.91703
G1 X173.086 Y94.243 E14.9426
G1 X173.401 Y94.945 E14.96819
G1 X173.641 Y95.676 E14.99378
G1 X173.804 Y96.427 E15.01934
G1 X173.888 Y97.192 E15.04494
G1 X173.9 Y97.617 E15.05908
G1 X173.9 Y122.383 E15.8828
G1 X173.86 Y123.151 E15.90838
G1 X173.741 Y123.911 E15.93397
G1 X173.543 Y124.654 E15.95954
G1 X173.269 Y125.373 E15.98513
G1 X172.922 Y126.059 E16.0107
G1 X172.506 Y126.706 E16.03628
G1 X172.025 Y127.306 E16.06186
G1 X171.733 Y127.616 E16.07603
G1 X171.616 Y127.733 E16.08153
G1 X171.044 Y128.247 E16.10711
G1 X170.422 Y128.7 E16.1327
G1 X169.757 Y129.086 E16.15827
G1 X169.055 Y129.401 E16.18387
G1 X168.324 Y129.641 E16.20946
G1 X167.573 Y129.804 E16.23502
G1 X166.808 Y129.888 E16.26061
G1 X166.383 Y129.9 E16.27475
G1 X53.617 Y129.9 E20.02537
G1 X52.849 Y129.86 E20.05094
G1 X52.089 Y129.741 E20.07653
G1 X51.346 Y129.543 E20.1021
G1 X50.627 Y129.269 E20.1277
G1 X49.941 Y128.922 E20.15327
G1 X49.294 Y128.506 E20.17885
G1 X48.694 Y128.025 E20.20443
G1 X48.384 Y127.733 E20.21859
G1 X48.267 Y127.616 E20.22409
G1 X47.753 Y127.044 E20.24967
G1 X47.3 Y126.422 E20.27526
G1 X46.914 Y125.757 E20.30084
G1 X46.599 Y125.055 E20.32643
G1 X46.359 Y124.324 E20.35202
G1 X46.196 Y123.573 E20.37758
G1 X46.112 Y122.808 E20.40318
G1 X46.1 Y122.383 E20.41732
G1 X46.1 Y97.617 E21.24104
G1 X46.14 Y96.849 E21.26662
G1 X46.259 Y96.089 E21.2922
G1 X46.457 Y95.346 E21.31778
G1 X46.731 Y94.627 E21.34337
G1 X47.078 Y93.941 E21.36894
G1 X47.494 Y93.294 E21.39452
G1 X47.975 Y92.694 E21.4201
G1 X48.267 Y92.384 E21.43426
G1 X48.384 Y92.267 E21.43977
G1 X48.956 Y91.753 E21.46534
G1 X49.578 Y91.3 E21.49094
G1 X50.243 Y90.914 E21.51651
G0 F6000 X50.48 Y91.242
G1 F1200 X51.166 Y90.943 E21.5414
G1 X51.88 Y90.719 E21.56629
G1 X52.613 Y90.572 E21.59115
G1 X53.617 Y90.5 E21.62463
G1 X166.383 Y90.5 E25.37525
G1 X167.13 Y90.54 E25.40013
G1 X167.868 Y90.659 E25.42499
G1 X168.59 Y90.857 E25.44989
G1 X169.286 Y91.13 E25.47476
G1 X169.949 Y91.477 E25.49965
G1 X170.572 Y91.892 E25.52454
G1 X171.333 Y92.55 E25.558
G1 X171.45 Y92.667 E25.56351
G1 X171.95 Y93.224 E25.5884
G1 X172.387 Y93.83 E25.61325
G1 X172.758 Y94.48 E25.63814
G1 X173.057 Y95.166 E25.66303
G1 X173.281 Y95.88 E25.68792
G1 X173.428 Y96.613 E25.71279
G1 X173.5 Y97.617 E25.74627
G1 X173.5 Y122.383 E26.56999
G1 X173.46 Y123.13 E26.59487
G1 X173.341 Y123.868 E26.61973
G1 X173.143 Y124.59 E26.64463
G1 X172.87 Y125.286 E26.6695
G1 X172.523 Y125.949 E26.69439
G1 X172.108 Y126.572 E26.71928
G1 X171.45 Y127.333 E26.75275
G1 X171.333 Y127.45 E26.75825
G1 X170.776 Y127.95 E26.78314
G1 X170.17 Y128.387 E26.80799
G1 X169.52 Y128.758 E26.83289
G1 X168.834 Y129.057 E26.85778
G1 X168.12 Y129.281 E26.88266
G1 X167.387 Y129.428 E26.90753
G1 X166.383 Y129.5 E26.94101
G1 X53.617 Y129.5 E30.69162
G1 X52.87 Y129.46 E30.7165
G1 X52.132 Y129.341 E30.74137
G1 X51.41 Y129.143 E30.76627
G1 X50.714 Y128.87 E30.79113
G1 X50.051 Y128.523 E30.81602
G1 X49.428 Y128.108 E30.84092
G1 X48.667 Y127.45 E30.87438
G1 X48.55 Y127.333 E30.87988
G1 X48.05 Y126.776 E30.90478
G1 X47.613 Y126.17 E30.92963
G1 X47.242 Y125.52 E30.95452
G1 X46.943 Y124.834 E30.97941
G1 X46.719 Y124.12 E31.0043
G1 X46.572 Y123.387 E31.02916
G1 X46.5 Y122.383 E31.06264
G1 X46.5 Y97.617 E31.88636
G1 X46.54 Y96.87 E31.91124
G1 X46.659 Y96.132 E31.93611
G1 X46.857 Y95.41 E31.96101
G1 X47.13 Y94.714 E31.98587
G1 X47.477 Y94.051 E32.01076
G1 X47.892 Y93.428 E32.03566
G1 X48.55 Y92.667 E32.06912
G1 X48.667 Y92.55 E32.07462
G1 X49.224 Y92.05 E32.09952
G1 X49.83 Y91.613 E32.12437
G1 X50.48 Y91.242 E32.14926
G0 F6000 X50.716 Y91.572
G1 F1200 X51.385 Y91.289 E32.17342
G1 X52.081 Y91.081 E32.19758
G1 X52.796 Y90.951 E32.22175
G1 X53.617 Y90.9 E32.24911
G1 X166.383 Y90.9 E35.99972
G1 X167.108 Y90.94 E36.02387
G1 X167.825 Y91.059 E36.04805
G1 X168.524 Y91.257 E36.07221
G1 X169.197 Y91.53 E36.09637
G1 X169.836 Y91.875 E36.12052
G1 X170.433 Y92.289 E36.14468
G1 X171.05 Y92.833 E36.17204
G1 X171.167 Y92.95 E36.17755
G1 X171.651 Y93.491 E36.20169
G1 X172.074 Y94.082 E36.22586
G1 X172.428 Y94.716 E36.25001
G1 X172.711 Y95.385 E36.27417
G1 X172.919 Y96.081 E36.29833
G1 X173.049 Y96.796 E36.32251
G1 X173.1 Y97.617 E36.34987
G1 X173.1 Y122.383 E37.17359
G1 X173.06 Y123.108 E37.19774
G1 X172.941 Y123.825 E37.22191
G1 X172.743 Y124.524 E37.24607
G1 X172.47 Y125.197 E37.27023
G1 X172.125 Y125.836 E37.29438
G1 X171.711 Y126.433 E37.31855
G1 X171.167 Y127.05 E37.3459
G1 X171.05 Y127.167 E37.35141
G1 X170.509 Y127.651 E37.37555
G1 X169.918 Y128.074 E37.39972
G1 X169.284 Y128.428 E37.42388
G1 X168.615 Y128.711 E37.44804
G1 X167.919 Y128.919 E37.4722
G1 X167.204 Y129.049 E37.49637
G1 X166.383 Y129.1 E37.52373
G1 X53.617 Y129.1 E41.27434
G1 X52.892 Y129.06 E41.29849
G1 X52.175 Y128.941 E41.32266
G1 X51.476 Y128.743 E41.34683
G1 X50.803 Y128.47 E41.37098
G1 X50.164 Y128.125 E41.39513
G1 X49.567 Y127.711 E41.4193
G1 X48.95 Y127.167 E41.44666
G1 X48.833 Y127.05 E41.45216
G1 X48.349 Y126.509 E41.4763
G1 X47.926 Y125.918 E41.50048
G1 X47.572 Y125.284 E41.52463
G1 X47.289 Y124.615 E41.54879
G1 X47.081 Y123.919 E41.57295
G1 X46.951 Y123.204 E41.59712
G1 X46.9 Y122.383 E41.62448
G1 X46.9 Y97.617 E42.4482
G1 X46.94 Y96.892 E42.47235
G1 X47.059 Y96.175 E42.49652
G1 X47.257 Y95.476 E42.52069
G1 X47.53 Y94.803 E42.54484
G1 X47.875 Y94.164 E42.569
G1 X48.289 Y93.567 E42.59316
G1 X48.833 Y92.95 E42.62052
G1 X48.95 Y92.833 E42.62602
G1 X49.491 Y92.349 E42.65017
G1 X50.082 Y91.926 E42.67434
G1 X50.716 Y91.572 E42.69849
G0 F6000 X50.951 Y91.903
G1 F1200 X51.602 Y91.636 E42.72189
G1 X52.28 Y91.446 E42.74531
G1 X52.975 Y91.333 E42.76873
G1 X53.617 Y91.3 E42.79011
G1 X166.383 Y91.3 E46.54072
G1 X167.086 Y91.34 E46.56414
G1 X167.78 Y91.459 E46.58756
G1 X168.455 Y91.657 E46.61096
G1 X169.104 Y91.929 E46.63436
G1 X169.718 Y92.274 E46.65779
G1 X170.289 Y92.685 E46.68119
G1 X170.767 Y93.116 E46.7026
G1 X170.884 Y93.233 E46.7081
G1 X171.353 Y93.758 E46.73151
G1 X171.759 Y94.333 E46.75493
G1 X172.097 Y94.951 E46.77835
G1 X172.364 Y95.602 E46.80176
G1 X172.554 Y96.28 E46.82518
G1 X172.667 Y96.975 E46.84859
G1 X172.7 Y97.617 E46.86998
G1 X172.7 Y122.383 E47.6937
G1 X172.66 Y123.086 E47.71712
G1 X172.541 Y123.78 E47.74054
G1 X172.343 Y124.455 E47.76393
G1 X172.071 Y125.104 E47.78734
G1 X171.726 Y125.718 E47.81076
G1 X171.315 Y126.289 E47.83416
G1 X170.884 Y126.767 E47.85557
G1 X170.767 Y126.884 E47.86107
G1 X170.242 Y127.353 E47.88449
G1 X169.667 Y127.759 E47.9079
G1 X169.049 Y128.097 E47.93133
G1 X168.398 Y128.364 E47.95473
G1 X167.72 Y128.554 E47.97815
G1 X167.025 Y128.667 E48.00157
G1 X166.383 Y128.7 E48.02295
G1 X53.617 Y128.7 E51.77356
G1 X52.914 Y128.66 E51.79698
G1 X52.22 Y128.541 E51.8204
G1 X51.545 Y128.343 E51.8438
G1 X50.896 Y128.071 E51.8672
G1 X50.282 Y127.726 E51.89063
G1 X49.711 Y127.315 E51.91403
G1 X49.233 Y126.884 E51.93543
G1 X49.116 Y126.767 E51.94094
G1 X48.647 Y126.242 E51.96435
G1 X48.241 Y125.667 E51.98776
G1 X47.903 Y125.049 E52.01119
G1 X47.636 Y124.398 E52.03459
G1 X47.446 Y123.72 E52.05801
G1 X47.333 Y123.025 E52.08143
G1 X47.3 Y122.383 E52.10281
G1 X47.3 Y97.617 E52.92653
G1 X47.34 Y96.914 E52.94995
G1 X47.459 Y96.22 E52.97337
G1 X47.657 Y95.545 E52.99677
G1 X47.929 Y94.896 E53.02017
G1 X48.274 Y94.282 E53.0436
G1 X48.685 Y93.711 E53.067
G1 X49.116 Y93.233 E53.0884
G1 X49.233 Y93.116 E53.09391
G1 X49.758 Y92.647 E53.11732
G1 X50.333 Y92.241 E53.14073
G1 X50.951 Y91.903 E53.16416
G0 F6000 X51.183 Y92.235
G1 F1200 X51.817 Y91.986 E53.18682
G1 X52.476 Y91.813 E53.20948
G1 X53.15 Y91.719 E53.23211
G1 X53.617 Y91.7 E53.24766
G1 X166.383 Y91.7 E56.99827
G1 X167.063 Y91.74 E57.02093
G1 X167.733 Y91.859 E57.04356
G1 X168.385 Y92.056 E57.06621
G1 X169.009 Y92.328 E57.08885
G1 X169.597 Y92.672 E57.11151
G1 X170.141 Y93.082 E57.13417
G1 X170.484 Y93.399 E57.1497
G1 X170.601 Y93.516 E57.15521
G1 X171.054 Y94.025 E57.17787
G1 X171.443 Y94.583 E57.20049
G1 X171.765 Y95.183 E57.22314
G1 X172.014 Y95.817 E57.2458
G1 X172.187 Y96.476 E57.26846
G1 X172.281 Y97.15 E57.29109
G1 X172.3 Y97.617 E57.30664
G1 X172.3 Y122.383 E58.13036
G1 X172.26 Y123.063 E58.15301
G1 X172.141 Y123.733 E58.17565
G1 X171.944 Y124.385 E58.1983
G1 X171.672 Y125.009 E58.22094
G1 X171.328 Y125.597 E58.2436
G1 X170.918 Y126.141 E58.26625
G1 X170.601 Y126.484 E58.28179
G1 X170.484 Y126.601 E58.28729
G1 X169.975 Y127.054 E58.30996
G1 X169.417 Y127.443 E58.33258
G1 X168.817 Y127.765 E58.35523
G1 X168.183 Y128.014 E58.37788
G1 X167.524 Y128.187 E58.40054
G1 X166.85 Y128.281 E58.42318
G1 X166.383 Y128.3 E58.43872
G1 X53.617 Y128.3 E62.18934
G1 X52.937 Y128.26 E62.21199
G1 X52.267 Y128.141 E62.23462
G1 X51.615 Y127.944 E62.25728
G1 X50.991 Y127.672 E62.27992
G1 X50.403 Y127.328 E62.30258
G1 X49.859 Y126.918 E62.32523
G1 X49.516 Y126.601 E62.34077
G1 X49.399 Y126.484 E62.34627
G1 X48.946 Y125.975 E62.36893
G1 X48.557 Y125.417 E62.39156
G1 X48.235 Y124.817 E62.41421
G1 X47.986 Y124.183 E62.43686
G1 X47.813 Y123.524 E62.45952
G1 X47.719 Y122.85 E62.48216
G1 X47.7 Y122.383 E62.4977
G1 X47.7 Y97.617 E63.32142
G1 X47.74 Y96.937 E63.34408
G1 X47.859 Y96.267 E63.36671
G1 X48.056 Y95.615 E63.38937
G1 X48.328 Y94.991 E63.41201
G1 X48.672 Y94.403 E63.43466
G1 X49.082 Y93.859 E63.45732
G1 X49.399 Y93.516 E63.47285
G1 X49.516 Y93.399 E63.47836
G1 X50.025 Y92.946 E63.50102
G1 X50.583 Y92.557 E63.52364
G1 X51.183 Y92.235 E63.54629
G0 F6000 X50.832 Y92.874
G1 F1200 X51.414 Y92.57 E63.56813
G1 X52.029 Y92.339 E63.58998
G1 X52.668 Y92.184 E63.61185
G1 X53.617 Y92.1 E63.64354
G1 X166.383 Y92.1 E67.39415
G1 X167.039 Y92.14 E67.41601
G1 X167.685 Y92.259 E67.43786
G1 X168.312 Y92.456 E67.45972
G1 X168.91 Y92.728 E67.48157
G1 X169.471 Y93.07 E67.50342
G1 X170.201 Y93.682 E67.5351
G1 X170.318 Y93.799 E67.54061
G1 X170.754 Y94.291 E67.56247
G1 X171.126 Y94.832 E67.58431
G1 X171.43 Y95.414 E67.60615
G1 X171.661 Y96.029 E67.628
G1 X171.816 Y96.668 E67.64987
G1 X171.9 Y97.617 E67.68156
G1 X171.9 Y122.383 E68.50528
G1 X171.86 Y123.039 E68.52714
G1 X171.741 Y123.685 E68.54898
G1 X171.544 Y124.312 E68.57084
G1 X171.272 Y124.91 E68.59269
G1 X170.93 Y125.471 E68.61455
G1 X170.318 Y126.201 E68.64623
G1 X170.201 Y126.318 E68.65173
G1 X169.709 Y126.754 E68.6736
G1 X169.168 Y127.126 E68.69543
G1 X168.586 Y127.43 E68.71727
G1 X167.971 Y127.661 E68.73912
G1 X167.332 Y127.816 E68.76099
G1 X166.383 Y127.9 E68.79268
G1 X53.617 Y127.9 E72.54329
G1 X52.961 Y127.86 E72.56515
G1 X52.315 Y127.741 E72.587
G1 X51.688 Y127.544 E72.60886
G1 X51.09 Y127.272 E72.63071
G1 X50.529 Y126.93 E72.65256
G1 X49.799 Y126.318 E72.68425
G1 X49.682 Y126.201 E72.68975
G1 X49.246 Y125.709 E72.71161
G1 X48.874 Y125.168 E72.73345
G1 X48.57 Y124.586 E72.75529
G1 X48.339 Y123.971 E72.77714
G1 X48.184 Y123.332 E72.79901
G1 X48.1 Y122.383 E72.8307
G1 X48.1 Y97.617 E73.65442
G1 X48.14 Y96.961 E73.67628
G1 X48.259 Y96.315 E73.69812
G1 X48.456 Y95.688 E73.71998
G1 X48.728 Y95.09 E73.74183
G1 X49.07 Y94.529 E73.76369
G1 X49.682 Y93.799 E73.79537
G1 X49.799 Y93.682 E73.80087
G1 X50.291 Y93.246 E73.82274
G1 X50.832 Y92.874 E73.84458
G0 F6000 X51.079 Y93.192
G1 F1200 X51.643 Y92.906 E73.86561
G1 X52.238 Y92.694 E73.88662
G1 X52.856 Y92.558 E73.90766
G1 X53.617 Y92.5 E73.93305
G1 X166.383 Y92.5 E77.68366
G1 X167.014 Y92.54 E77.70469
G1 X167.635 Y92.659 E77.72572
G1 X168.235 Y92.856 E77.74672
G1 X168.807 Y93.127 E77.76778
G1 X169.339 Y93.467 E77.78878
G1 X169.919 Y93.964 E77.81418
G1 X170.036 Y94.081 E77.81968
G1 X170.453 Y94.556 E77.84071
G1 X170.808 Y95.079 E77.86173
G1 X171.094 Y95.643 E77.88276
G1 X171.306 Y96.238 E77.90377
G1 X171.442 Y96.856 E77.92482
G1 X171.5 Y97.617 E77.9502
G1 X171.5 Y122.383 E78.77392
G1 X171.46 Y123.014 E78.79495
G1 X171.341 Y123.635 E78.81598
G1 X171.144 Y124.235 E78.83699
G1 X170.873 Y124.807 E78.85804
G1 X170.533 Y125.339 E78.87904
G1 X170.036 Y125.919 E78.90444
G1 X169.919 Y126.036 E78.90995
G1 X169.444 Y126.453 E78.93097
G1 X168.921 Y126.808 E78.95199
G1 X168.357 Y127.094 E78.97302
G1 X167.762 Y127.306 E78.99403
G1 X167.144 Y127.442 E79.01508
G1 X166.383 Y127.5 E79.04046
G1 X53.617 Y127.5 E82.79108
G1 X52.986 Y127.46 E82.81211
G1 X52.365 Y127.341 E82.83314
G1 X51.765 Y127.144 E82.85414
G1 X51.193 Y126.873 E82.87519
G1 X50.661 Y126.533 E82.89619
G1 X50.081 Y126.036 E82.9216
G1 X49.964 Y125.919 E82.9271
