;FLAVOR:Marlin
;TIME:1792
;Filament used: 1.01456m
;Layer height: 0.2
;MINX:90.203
;MINY:90.202
;MINZ:0.2
;MAXX:135.163
;MAXY:159.798
;MAXZ:3
;Generated with Creality Slicer 4.8.2-205
M140 S50
M105
M190 S50
M104 S200
M105
M109 S200
M82 ;absolute extrusion mode

G28 ;Home

G92 E0 ;Reset Extruder
G1 Z2.0 F3000 ;Move Z Axis up
G1 X10.1 Y20 Z0.28 F5000.0 ;Move to start position
G1 X10.1 Y200.0 Z0.28 F1500.0 E15 ;Draw the first line
G1 X10.4 Y200.0 Z0.28 F5000.0 ;Move to side a little
G1 X10.4 Y20 Z0.28 F1500.0 E30 ;Draw the second line
G92 E0 ;Reset Extruder
G1 Z2.0 F3000 ;Move Z Axis up

G92 E0
G92 E0
G1 F2100 E-5
;LAYER_COUNT:15
;LAYER:0
M107
G0 F6000 X96.151 Y95.85 Z0.2
;TYPE:SKIRT
G1 F2100 E0
G1 F1200 X96.484 Y95.531 E0.01534
G1 X97.017 Y95.051 E0.03919
G1 X97.368 Y94.753 E0.05451
G1 X97.93 Y94.304 E0.07843
G1 X98.316 Y94.015 E0.09447
G1 X98.904 Y93.602 E0.11837
G1 X99.289 Y93.348 E0.13371
G1 X99.898 Y92.972 E0.15752
G1 X100.293 Y92.744 E0.17269
G1 X100.927 Y92.402 E0.19665
G1 X101.361 Y92.185 E0.21278
G1 X102.011 Y91.885 E0.23659
G1 X102.417 Y91.711 E0.25129
G1 X103.086 Y91.447 E0.27521
G1 X103.538 Y91.285 E0.29118
G1 X104.221 Y91.063 E0.31506
G1 X104.676 Y90.93 E0.33083
G1 X105.371 Y90.75 E0.35471
G1 X105.818 Y90.648 E0.36996
G1 X106.523 Y90.509 E0.39386
G1 X106.99 Y90.432 E0.4096
G1 X107.702 Y90.336 E0.4335
G1 X108.157 Y90.288 E0.44871
G1 X108.873 Y90.234 E0.47259
G1 X109.34 Y90.213 E0.48814
G1 X110.056 Y90.202 E0.51196
G1 X110.534 Y90.209 E0.52786
G1 X111.252 Y90.242 E0.55177
G1 X111.709 Y90.277 E0.56701
G1 X112.423 Y90.352 E0.59089
G1 X112.867 Y90.411 E0.60579
G1 X113.576 Y90.527 E0.62968
G1 X114.07 Y90.625 E0.64643
G1 X114.768 Y90.786 E0.67026
G1 X115.196 Y90.897 E0.68496
G1 X115.886 Y91.098 E0.70887
G1 X116.344 Y91.247 E0.72489
G1 X117.02 Y91.49 E0.74878
G1 X117.446 Y91.657 E0.764
G1 X118.106 Y91.939 E0.78787
G1 X118.525 Y92.133 E0.80323
G1 X119.168 Y92.454 E0.82713
G1 X119.583 Y92.677 E0.8428
G1 X120.205 Y93.036 E0.86668
G1 X120.603 Y93.282 E0.88225
G1 X121.203 Y93.678 E0.90616
G1 X121.586 Y93.948 E0.92174
G1 X122.158 Y94.377 E0.94552
G1 X122.518 Y94.664 E0.96084
G1 X123.066 Y95.128 E0.98472
G1 X123.421 Y95.447 E1.00059
G1 X123.94 Y95.944 E1.02449
G1 X124.268 Y96.278 E1.04006
G1 X124.757 Y96.806 E1.064
G1 X125.052 Y97.144 E1.07892
G1 X125.508 Y97.697 E1.10276
G1 X125.801 Y98.075 E1.11867
G1 X126.223 Y98.656 E1.14255
G1 X126.486 Y99.042 E1.15809
G1 X126.873 Y99.648 E1.182
G1 X127.112 Y100.048 E1.1975
G1 X127.461 Y100.674 E1.22134
G1 X127.678 Y101.093 E1.23703
G1 X127.989 Y101.74 E1.26091
G1 X128.172 Y102.151 E1.27587
G1 X128.446 Y102.817 E1.29982
G1 X128.615 Y103.266 E1.31578
G1 X128.846 Y103.943 E1.33957
G1 X128.986 Y104.397 E1.35537
G1 X129.176 Y105.089 E1.37924
G1 X129.282 Y105.524 E1.39413
G1 X129.432 Y106.226 E1.41801
G1 X129.517 Y106.695 E1.43386
G1 X129.624 Y107.406 E1.45778
G1 X129.679 Y107.861 E1.47302
G1 X129.744 Y108.576 E1.4969
G1 X129.773 Y109.054 E1.51283
G1 X129.794 Y109.771 E1.53668
G1 X129.794 Y110.227 E1.55185
G1 X129.773 Y110.945 E1.57574
G1 X129.744 Y111.423 E1.59167
G1 X129.679 Y112.138 E1.61555
G1 X129.624 Y112.593 E1.63079
G1 X129.517 Y113.304 E1.65471
G1 X129.434 Y113.76 E1.67012
G1 X129.285 Y114.463 E1.69402
G1 X129.173 Y114.924 E1.7098
G1 X128.982 Y115.615 E1.73365
G1 X128.844 Y116.062 E1.74921
G1 X128.612 Y116.74 E1.77304
G1 X128.449 Y117.173 E1.78843
G1 X128.176 Y117.839 E1.81237
G1 X127.989 Y118.26 E1.82769
G1 X127.678 Y118.907 E1.85157
G1 X127.461 Y119.326 E1.86726
G1 X127.112 Y119.952 E1.8911
G1 X126.875 Y120.349 E1.90648
G1 X126.489 Y120.954 E1.93035
G1 X126.224 Y121.343 E1.946
G1 X125.802 Y121.924 E1.96989
G1 X125.508 Y122.303 E1.98584
G1 X125.12 Y122.774 E2.00614
G1 X125.574 Y123.036 E2.02357
G1 X125.972 Y123.282 E2.03913
G1 X126.572 Y123.678 E2.06304
G1 X126.95 Y123.944 E2.07842
G1 X127.523 Y124.373 E2.10222
G1 X127.894 Y124.669 E2.11801
G1 X128.441 Y125.133 E2.14187
G1 X128.79 Y125.447 E2.15748
G1 X129.309 Y125.944 E2.18138
G1 X129.631 Y126.272 E2.19667
G1 X130.121 Y126.8 E2.22063
G1 X130.422 Y127.144 E2.23583
G1 X130.878 Y127.697 E2.25967
G1 X131.171 Y128.075 E2.27558
G1 X131.593 Y128.656 E2.29946
G1 X131.861 Y129.05 E2.31531
G1 X132.247 Y129.656 E2.33921
G1 X132.476 Y130.04 E2.35408
G1 X132.826 Y130.666 E2.37793
G1 X133.048 Y131.093 E2.39394
G1 X133.359 Y131.74 E2.41781
G1 X133.543 Y132.153 E2.43285
G1 X133.816 Y132.817 E2.45673
G1 X133.983 Y133.261 E2.47251
G1 X134.215 Y133.94 E2.49637
G1 X134.356 Y134.397 E2.51228
G1 X134.546 Y135.089 E2.53615
G1 X134.652 Y135.524 E2.55104
G1 X134.802 Y136.226 E2.57492
G1 X134.887 Y136.695 E2.59077
G1 X134.994 Y137.406 E2.61468
G1 X135.05 Y137.872 E2.63029
G1 X135.114 Y138.587 E2.65417
G1 X135.141 Y139.043 E2.66936
G1 X135.163 Y139.76 E2.69322
G1 X135.163 Y140.238 E2.70912
G1 X135.141 Y140.956 E2.73301
G1 X135.114 Y141.412 E2.74821
G1 X135.05 Y142.127 E2.77208
G1 X134.994 Y142.593 E2.78769
G1 X134.887 Y143.304 E2.81161
G1 X134.804 Y143.76 E2.82702
G1 X134.655 Y144.463 E2.85092
G1 X134.543 Y144.924 E2.8667
G1 X134.352 Y145.615 E2.89055
G1 X134.217 Y146.053 E2.90579
G1 X133.986 Y146.731 E2.92961
G1 X133.815 Y147.186 E2.94578
G1 X133.541 Y147.851 E2.9697
G1 X133.361 Y148.255 E2.98441
G1 X133.05 Y148.903 E3.00832
G1 X132.826 Y149.334 E3.02448
G1 X132.476 Y149.96 E3.04833
G1 X132.249 Y150.342 E3.06311
G1 X131.864 Y150.947 E3.08696
G1 X131.594 Y151.343 E3.1029
G1 X131.172 Y151.924 E3.12678
G1 X130.878 Y152.303 E3.14274
G1 X130.421 Y152.857 E3.16662
G1 X130.127 Y153.194 E3.1815
G1 X129.638 Y153.722 E3.20544
G1 X129.304 Y154.061 E3.22126
G1 X128.785 Y154.557 E3.24514
G1 X128.442 Y154.866 E3.2605
G1 X127.895 Y155.33 E3.28435
G1 X127.526 Y155.625 E3.30007
G1 X126.952 Y156.055 E3.32392
G1 X126.572 Y156.322 E3.33937
G1 X125.972 Y156.718 E3.36328
G1 X125.574 Y156.964 E3.37884
G1 X124.952 Y157.323 E3.40273
G1 X124.537 Y157.546 E3.4184
G1 X123.894 Y157.867 E3.4423
G1 X123.479 Y158.059 E3.45751
G1 X122.82 Y158.341 E3.48135
G1 X122.386 Y158.511 E3.49685
G1 X121.709 Y158.754 E3.52077
G1 X121.258 Y158.901 E3.53655
G1 X120.569 Y159.102 E3.56042
G1 X120.128 Y159.217 E3.57558
G1 X119.43 Y159.377 E3.5994
G1 X118.957 Y159.47 E3.61543
G1 X118.248 Y159.587 E3.63933
G1 X117.793 Y159.648 E3.6546
G1 X117.079 Y159.723 E3.67848
G1 X116.622 Y159.758 E3.69372
G1 X115.903 Y159.791 E3.71766
G1 X115.425 Y159.798 E3.73356
G1 X114.709 Y159.787 E3.75738
G1 X114.242 Y159.766 E3.77293
G1 X113.526 Y159.712 E3.79681
G1 X113.069 Y159.664 E3.81209
G1 X112.358 Y159.568 E3.83596
G1 X111.904 Y159.493 E3.85126
G1 X111.199 Y159.355 E3.87515
G1 X110.731 Y159.248 E3.89112
G1 X110.036 Y159.067 E3.91501
G1 X109.591 Y158.937 E3.93043
G1 X108.908 Y158.715 E3.95432
G1 X108.456 Y158.553 E3.97029
G1 X107.787 Y158.289 E3.99421
G1 X107.381 Y158.115 E4.0089
G1 X106.731 Y157.815 E4.03271
G1 X106.301 Y157.6 E4.0487
G1 X105.668 Y157.259 E4.07261
G1 X105.274 Y157.032 E4.08774
G1 X104.664 Y156.656 E4.11157
G1 X104.267 Y156.394 E4.12739
G1 X103.679 Y155.98 E4.15131
G1 X103.3 Y155.696 E4.16706
G1 X102.738 Y155.247 E4.19099
G1 X102.393 Y154.954 E4.20604
G1 X101.859 Y154.474 E4.22992
G1 X101.52 Y154.15 E4.24552
G1 X101.016 Y153.639 E4.26939
G1 X100.686 Y153.284 E4.28551
G1 X100.215 Y152.743 E4.30937
G1 X99.926 Y152.391 E4.32452
G1 X99.487 Y151.823 E4.34839
G1 X99.218 Y151.452 E4.36363
G1 X98.813 Y150.859 E4.38752
G1 X98.558 Y150.46 E4.40327
G1 X98.19 Y149.844 E4.42713
G1 X97.965 Y149.44 E4.44251
G1 X97.634 Y148.803 E4.46639
G1 X97.431 Y148.383 E4.48191
G1 X97.139 Y147.728 E4.50576
G1 X96.957 Y147.284 E4.52172
G1 X96.705 Y146.61 E4.54565
G1 X96.558 Y146.178 E4.56083
G1 X96.346 Y145.491 E4.58474
G1 X96.222 Y145.042 E4.60023
G1 X96.052 Y144.346 E4.62406
G1 X95.954 Y143.885 E4.63974
G1 X95.826 Y143.178 E4.66364
G1 X95.757 Y142.723 E4.67894
G1 X95.671 Y142.011 E4.7028
G1 X95.629 Y141.544 E4.71839
G1 X95.586 Y140.828 E4.74225
G1 X95.572 Y140.36 E4.75782
G1 X95.572 Y139.641 E4.78174
G1 X95.586 Y139.174 E4.79728
G1 X95.629 Y138.457 E4.82117
G1 X95.671 Y137.989 E4.83679
G1 X95.757 Y137.277 E4.86065
G1 X95.824 Y136.833 E4.87558
G1 X95.951 Y136.126 E4.89947
G1 X96.053 Y135.644 E4.91586
G1 X96.224 Y134.948 E4.9397
G1 X96.346 Y134.509 E4.95485
G1 X96.558 Y133.822 E4.97876
G1 X96.705 Y133.39 E4.99394
G1 X96.957 Y132.716 E5.01788
G1 X97.139 Y132.272 E5.03384
G1 X97.431 Y131.617 E5.05769
G1 X97.634 Y131.197 E5.0732
G1 X97.965 Y130.56 E5.09708
G1 X98.19 Y130.156 E5.11246
G1 X98.558 Y129.54 E5.13633
G1 X98.813 Y129.141 E5.15207
G1 X99.218 Y128.548 E5.17596
G1 X99.487 Y128.177 E5.1912
G1 X99.926 Y127.609 E5.21508
G1 X100.242 Y127.226 E5.23159
G1 X99.898 Y127.028 E5.24479
G1 X99.289 Y126.652 E5.2686
G1 X98.904 Y126.398 E5.28394
G1 X98.316 Y125.985 E5.30784
G1 X97.93 Y125.696 E5.32388
G1 X97.368 Y125.247 E5.3478
G1 X97.017 Y124.949 E5.36312
G1 X96.484 Y124.469 E5.38697
G1 X96.151 Y124.15 E5.40231
G1 X95.647 Y123.639 E5.42618
G1 X95.323 Y123.29 E5.44202
G1 X94.851 Y122.749 E5.4659
G1 X94.556 Y122.391 E5.48133
G1 X94.117 Y121.823 E5.50521
G1 X93.843 Y121.445 E5.52073
G1 X93.439 Y120.852 E5.5446
G1 X93.194 Y120.468 E5.55975
G1 X92.825 Y119.852 E5.58363
G1 X92.59 Y119.432 E5.59964
G1 X92.26 Y118.795 E5.6235
G1 X92.062 Y118.383 E5.6387
G1 X91.77 Y117.728 E5.66256
G1 X91.592 Y117.293 E5.67819
G1 X91.339 Y116.619 E5.70213
G1 X91.185 Y116.168 E5.71798
G1 X90.974 Y115.481 E5.74189
G1 X90.853 Y115.042 E5.75703
G1 X90.683 Y114.346 E5.78086
G1 X90.587 Y113.895 E5.7962
G1 X90.458 Y113.188 E5.8201
G1 X90.386 Y112.713 E5.83608
G1 X90.301 Y112.001 E5.85993
G1 X90.26 Y111.544 E5.87519
G1 X90.217 Y110.828 E5.89905
G1 X90.203 Y110.36 E5.91462
G1 X90.203 Y109.641 E5.93854
G1 X90.217 Y109.174 E5.95407
G1 X90.26 Y108.457 E5.97797
G1 X90.301 Y107.999 E5.99326
G1 X90.386 Y107.287 E6.01711
G1 X90.456 Y106.822 E6.03275
G1 X90.584 Y106.115 E6.05665
G1 X90.684 Y105.644 E6.07266
G1 X90.855 Y104.948 E6.0965
G1 X90.974 Y104.519 E6.11131
G1 X91.185 Y103.832 E6.13521
G1 X91.339 Y103.381 E6.15106
G1 X91.592 Y102.707 E6.175
G1 X91.77 Y102.272 E6.19064
G1 X92.062 Y101.617 E6.21449
G1 X92.26 Y101.205 E6.22969
G1 X92.59 Y100.568 E6.25355
G1 X92.825 Y100.148 E6.26956
G1 X93.194 Y99.532 E6.29344
G1 X93.439 Y99.148 E6.30859
G1 X93.843 Y98.555 E6.33246
G1 X94.117 Y98.177 E6.34799
G1 X94.556 Y97.609 E6.37186
G1 X94.851 Y97.251 E6.38729
G1 X95.323 Y96.71 E6.41117
G1 X95.647 Y96.361 E6.42701
G1 X96.151 Y95.85 E6.45088
G0 F6000 X96.435 Y96.131
G1 F1200 X96.752 Y95.828 E6.46547
G1 X97.285 Y95.348 E6.48932
G1 X97.618 Y95.066 E6.50384
G1 X98.18 Y94.617 E6.52776
G1 X98.546 Y94.342 E6.54299
G1 X99.134 Y93.929 E6.56689
G1 X99.499 Y93.688 E6.58144
G1 X100.108 Y93.312 E6.60524
G1 X100.483 Y93.096 E6.61963
G1 X101.117 Y92.754 E6.64359
G1 X101.529 Y92.548 E6.65891
G1 X102.179 Y92.248 E6.68273
G1 X102.564 Y92.084 E6.69664
G1 X103.233 Y91.82 E6.72056
G1 X103.662 Y91.665 E6.73574
G1 X104.345 Y91.443 E6.75962
G1 X104.777 Y91.317 E6.77459
G1 X105.472 Y91.137 E6.79847
G1 X105.896 Y91.041 E6.81293
G1 X106.601 Y90.902 E6.83683
G1 X107.043 Y90.828 E6.85173
G1 X107.755 Y90.732 E6.87563
G1 X108.187 Y90.687 E6.89007
G1 X108.903 Y90.633 E6.91396
G1 X109.346 Y90.613 E6.92871
G1 X110.062 Y90.602 E6.95252
G1 X110.516 Y90.609 E6.96762
G1 X111.234 Y90.642 E6.99153
G1 X111.667 Y90.674 E7.00597
G1 X112.381 Y90.749 E7.02985
G1 X112.803 Y90.806 E7.04401
G1 X113.512 Y90.922 E7.06791
G1 X113.98 Y91.014 E7.08377
G1 X114.678 Y91.175 E7.1076
G1 X115.085 Y91.281 E7.12159
G1 X115.775 Y91.482 E7.14549
G1 X116.208 Y91.623 E7.16063
G1 X116.884 Y91.866 E7.18453
G1 X117.289 Y92.025 E7.199
G1 X117.949 Y92.307 E7.22287
G1 X118.346 Y92.491 E7.23742
G1 X118.989 Y92.812 E7.26133
G1 X119.383 Y93.024 E7.27621
G1 X120.005 Y93.383 E7.30009
G1 X120.382 Y93.616 E7.31483
G1 X120.982 Y94.012 E7.33875
G1 X121.346 Y94.268 E7.35355
G1 X121.918 Y94.697 E7.37733
G1 X122.26 Y94.97 E7.39188
G1 X122.808 Y95.434 E7.41576
G1 X123.144 Y95.736 E7.43079
G1 X123.663 Y96.233 E7.45469
G1 X123.974 Y96.55 E7.46946
G1 X124.463 Y97.078 E7.4934
G1 X124.743 Y97.398 E7.50754
G1 X125.199 Y97.951 E7.53138
G1 X125.477 Y98.31 E7.54648
G1 X125.899 Y98.891 E7.57036
G1 X126.149 Y99.257 E7.58511
G1 X126.536 Y99.863 E7.60902
G1 X126.762 Y100.243 E7.62373
G1 X127.111 Y100.869 E7.64756
G1 X127.318 Y101.266 E7.66246
G1 X127.629 Y101.913 E7.68633
G1 X127.802 Y102.304 E7.70055
G1 X128.076 Y102.97 E7.72451
G1 X128.237 Y103.395 E7.73962
G1 X128.468 Y104.072 E7.76341
G1 X128.6 Y104.503 E7.77841
G1 X128.79 Y105.195 E7.80227
G1 X128.891 Y105.608 E7.81641
G1 X129.041 Y106.31 E7.84029
G1 X129.122 Y106.755 E7.85533
G1 X129.229 Y107.466 E7.87925
G1 X129.281 Y107.897 E7.89369
G1 X129.346 Y108.612 E7.91757
G1 X129.373 Y109.065 E7.93266
G1 X129.394 Y109.782 E7.95652
G1 X129.394 Y110.215 E7.97092
G1 X129.373 Y110.933 E7.99481
G1 X129.346 Y111.387 E8.00994
G1 X129.281 Y112.102 E8.03382
G1 X129.229 Y112.533 E8.04826
G1 X129.122 Y113.244 E8.07217
G1 X129.043 Y113.677 E8.08681
G1 X128.894 Y114.38 E8.11071
G1 X128.788 Y114.818 E8.1257
G1 X128.597 Y115.509 E8.14954
G1 X128.465 Y115.933 E8.16431
G1 X128.233 Y116.611 E8.18815
G1 X128.079 Y117.022 E8.20275
G1 X127.806 Y117.688 E8.22669
G1 X127.629 Y118.087 E8.2412
G1 X127.318 Y118.734 E8.26508
G1 X127.111 Y119.131 E8.27997
G1 X126.762 Y119.757 E8.30381
G1 X126.537 Y120.134 E8.31841
G1 X126.151 Y120.739 E8.34228
G1 X125.9 Y121.108 E8.35712
G1 X125.478 Y121.689 E8.38101
G1 X125.199 Y122.049 E8.39616
G1 X124.742 Y122.603 E8.42004
G1 X124.495 Y122.886 E8.43254
G1 X124.752 Y123.024 E8.44224
G1 X125.374 Y123.383 E8.46612
G1 X125.751 Y123.616 E8.48087
G1 X126.351 Y124.012 E8.50478
G1 X126.71 Y124.264 E8.51936
G1 X127.283 Y124.693 E8.54317
G1 X127.635 Y124.974 E8.55815
G1 X128.182 Y125.438 E8.58201
G1 X128.513 Y125.736 E8.59682
G1 X129.032 Y126.233 E8.62072
G1 X129.338 Y126.544 E8.63523
G1 X129.828 Y127.072 E8.65919
G1 X130.113 Y127.398 E8.6736
G1 X130.569 Y127.951 E8.69743
G1 X130.847 Y128.31 E8.71254
G1 X131.269 Y128.891 E8.73642
G1 X131.523 Y129.264 E8.75143
G1 X131.909 Y129.87 E8.77533
G1 X132.127 Y130.235 E8.78947
G1 X132.477 Y130.861 E8.81332
G1 X132.688 Y131.266 E8.82851
G1 X132.999 Y131.913 E8.85239
G1 X133.173 Y132.305 E8.86665
G1 X133.446 Y132.969 E8.89053
G1 X133.605 Y133.39 E8.9055
G1 X133.837 Y134.069 E8.92936
G1 X133.97 Y134.503 E8.94446
G1 X134.16 Y135.195 E8.96833
G1 X134.261 Y135.608 E8.98247
G1 X134.411 Y136.31 E9.00635
G1 X134.492 Y136.755 E9.02139
G1 X134.599 Y137.466 E9.0453
G1 X134.652 Y137.907 E9.06008
G1 X134.716 Y138.622 E9.08395
G1 X134.742 Y139.055 E9.09838
G1 X134.764 Y139.772 E9.12224
G1 X134.764 Y140.226 E9.13734
G1 X134.742 Y140.944 E9.16123
G1 X134.716 Y141.377 E9.17566
G1 X134.652 Y142.092 E9.19953
G1 X134.599 Y142.533 E9.21431
G1 X134.492 Y143.244 E9.23822
G1 X134.413 Y143.677 E9.25286
G1 X134.264 Y144.38 E9.27676
G1 X134.158 Y144.818 E9.29175
G1 X133.967 Y145.509 E9.3156
G1 X133.839 Y145.924 E9.33004
G1 X133.608 Y146.602 E9.35386
G1 X133.445 Y147.034 E9.36922
G1 X133.171 Y147.699 E9.39314
G1 X133 Y148.082 E9.40709
G1 X132.689 Y148.73 E9.431
G1 X132.477 Y149.139 E9.44632
G1 X132.127 Y149.765 E9.47018
G1 X131.911 Y150.127 E9.4842
G1 X131.526 Y150.732 E9.50805
G1 X131.27 Y151.108 E9.52318
G1 X130.848 Y151.689 E9.54706
G1 X130.569 Y152.049 E9.56221
G1 X130.112 Y152.603 E9.5861
G1 X129.833 Y152.922 E9.60019
G1 X129.344 Y153.45 E9.62413
G1 X129.028 Y153.772 E9.63913
G1 X128.509 Y154.268 E9.66301
G1 X128.183 Y154.561 E9.67759
G1 X127.636 Y155.025 E9.70145
G1 X127.286 Y155.304 E9.71633
G1 X126.712 Y155.734 E9.74019
G1 X126.351 Y155.988 E9.75487
G1 X125.751 Y156.384 E9.77878
G1 X125.374 Y156.617 E9.79352
G1 X124.752 Y156.976 E9.81741
