;FLAVOR:Marlin
;TIME:2576
;Filament used: 1.80491m
;Layer height: 0.2
;MINX:86.2
;MINY:80.2
;MINZ:0.2
;MAXX:133.8
;MAXY:139.8
;MAXZ:4.4
;Generated with Creality Slicer 4.8.2-205
M140 S50
M105
M190 S50
M104 S200
M105
M109 S200
M82 ;absolute extrusion mode

G28 ;Home

G92 E0 ;Reset Extruder
G1 Z2.0 F3000 ;Move Z Axis up
G1 X10.1 Y20 Z0.28 F5000.0 ;Move to start position
G1 X10.1 Y200.0 Z0.28 F1500.0 E15 ;Draw the first line
G1 X10.4 Y200.0 Z0.28 F5000.0 ;Move to side a little
G1 X10.4 Y20 Z0.28 F1500.0 E30 ;Draw the second line
G92 E0 ;Reset Extruder
G1 Z2.0 F3000 ;Move Z Axis up

G92 E0
G92 E0
G1 F2100 E-5
;LAYER_COUNT:22
;LAYER:0
M107
G0 F6000 X88.08 Y82.922 Z0.2
;TYPE:SKIRT
G1 F2100 E0
G1 F1200 X88.623 Y82.349 E0.02626
G1 X89.222 Y81.834 E0.05253
G1 X89.87 Y81.383 E0.07879
G1 X90.561 Y80.999 E0.10508
G1 X91.286 Y80.687 E0.13133
G1 X92.039 Y80.45 E0.15759
G1 X92.813 Y80.291 E0.18387
G1 X93.598 Y80.21 E0.21012
G1 X94 Y80.2 E0.22349
G1 X126 Y80.2 E1.28782
G1 X126.789 Y80.24 E1.31409
G1 X127.569 Y80.359 E1.34034
G1 X128.334 Y80.557 E1.36662
G1 X129.074 Y80.831 E1.39286
G1 X129.783 Y81.179 E1.41913
G1 X130.454 Y81.597 E1.44543
G1 X131.078 Y82.08 E1.47167
G1 X131.651 Y82.623 E1.49793
G1 X132.166 Y83.222 E1.5242
G1 X132.617 Y83.87 E1.55046
G1 X133.001 Y84.561 E1.57675
G1 X133.313 Y85.286 E1.60301
G1 X133.55 Y86.039 E1.62926
G1 X133.709 Y86.813 E1.65554
G1 X133.79 Y87.598 E1.68179
G1 X133.8 Y88 E1.69517
G1 X133.799 Y128.011 E3.02594
G1 X133.781 Y128.534 E3.04334
G1 X133.746 Y129.055 E3.06071
G1 X133.61 Y130.076 E3.09497
G1 X133.506 Y130.591 E3.11244
G1 X133.25 Y131.541 E3.14517
G1 X133.087 Y132.024 E3.16212
G1 X132.674 Y133.018 E3.19792
G1 X132.435 Y133.496 E3.2157
G1 X131.932 Y134.359 E3.24892
G1 X131.639 Y134.795 E3.26639
G1 X131.015 Y135.604 E3.30037
G1 X130.671 Y135.994 E3.31767
G1 X129.951 Y136.71 E3.35144
G1 X129.557 Y137.054 E3.36884
G1 X128.747 Y137.673 E3.40275
G1 X128.311 Y137.963 E3.42016
G1 X127.461 Y138.454 E3.45281
G1 X127 Y138.683 E3.46993
G1 X125.992 Y139.098 E3.50619
G1 X125.487 Y139.266 E3.52389
G1 X124.54 Y139.516 E3.55647
G1 X124.025 Y139.618 E3.57393
G1 X123.014 Y139.751 E3.60784
G1 X122.504 Y139.784 E3.62484
G1 X122 Y139.8 E3.64161
G1 X94 Y139.8 E4.5729
G1 X93.211 Y139.76 E4.59917
G1 X92.431 Y139.641 E4.62542
G1 X91.666 Y139.443 E4.6517
G1 X90.926 Y139.169 E4.67794
G1 X90.217 Y138.821 E4.70421
G1 X89.546 Y138.403 E4.73051
G1 X88.922 Y137.92 E4.75675
G1 X88.349 Y137.377 E4.78301
G1 X87.834 Y136.778 E4.80928
G1 X87.383 Y136.13 E4.83554
G1 X86.999 Y135.439 E4.86183
G1 X86.687 Y134.714 E4.88809
G1 X86.45 Y133.961 E4.91434
G1 X86.291 Y133.187 E4.94062
G1 X86.21 Y132.402 E4.96687
G1 X86.2 Y132 E4.98025
G1 X86.2 Y88 E6.44369
G1 X86.24 Y87.211 E6.46997
G1 X86.359 Y86.431 E6.49621
G1 X86.557 Y85.666 E6.52249
G1 X86.831 Y84.926 E6.54874
G1 X87.179 Y84.217 E6.57501
G1 X87.597 Y83.546 E6.6013
G1 X88.08 Y82.922 E6.62755
G0 F6000 X88.475 Y83.077
G1 F1200 X89.016 Y82.53 E6.65313
G1 X89.611 Y82.042 E6.67873
G1 X90.253 Y81.619 E6.7043
G1 X90.936 Y81.264 E6.7299
G1 X91.651 Y80.983 E6.75545
G1 X92.393 Y80.777 E6.78107
G1 X93.151 Y80.649 E6.80663
G1 X94 Y80.6 E6.83492
G1 X126 Y80.6 E7.89924
G1 X126.768 Y80.64 E7.92482
G1 X127.528 Y80.759 E7.95041
G1 X128.271 Y80.957 E7.97598
G1 X128.99 Y81.231 E8.00157
G1 X129.676 Y81.578 E8.02714
G1 X130.323 Y81.994 E8.05273
G1 X130.923 Y82.475 E8.0783
G1 X131.47 Y83.016 E8.10389
G1 X131.958 Y83.611 E8.12949
G1 X132.381 Y84.253 E8.15506
G1 X132.736 Y84.936 E8.18066
G1 X133.017 Y85.651 E8.20621
G1 X133.223 Y86.393 E8.23182
G1 X133.351 Y87.151 E8.25739
G1 X133.4 Y88 E8.28568
G1 X133.399 Y128.011 E9.61645
G1 X133.382 Y128.507 E9.63296
G1 X133.347 Y129.028 E9.65032
G1 X133.218 Y129.997 E9.68284
G1 X133.114 Y130.512 E9.70031
G1 X132.871 Y131.413 E9.73135
G1 X132.708 Y131.896 E9.7483
G1 X132.316 Y132.839 E9.78227
G1 X132.077 Y133.317 E9.80005
G1 X131.6 Y134.136 E9.83157
G1 X131.307 Y134.572 E9.84904
G1 X130.715 Y135.339 E9.88127
G1 X130.371 Y135.729 E9.89856
G1 X129.688 Y136.408 E9.93059
G1 X129.294 Y136.752 E9.94799
G1 X128.525 Y137.34 E9.98019
G1 X128.089 Y137.63 E9.9976
G1 X127.283 Y138.095 E10.02855
G1 X126.822 Y138.324 E10.04567
G1 X125.866 Y138.719 E10.08008
G1 X125.361 Y138.887 E10.09778
G1 X124.463 Y139.124 E10.12867
G1 X123.948 Y139.226 E10.14613
G1 X122.988 Y139.352 E10.17833
G1 X122.478 Y139.385 E10.19533
G1 X122 Y139.4 E10.21124
G1 X94 Y139.4 E11.14252
G1 X93.232 Y139.36 E11.1681
G1 X92.472 Y139.241 E11.19369
G1 X91.729 Y139.043 E11.21926
G1 X91.01 Y138.769 E11.24485
G1 X90.324 Y138.422 E11.27042
G1 X89.677 Y138.006 E11.29601
G1 X89.077 Y137.525 E11.32158
G1 X88.53 Y136.984 E11.34717
G1 X88.042 Y136.389 E11.37277
G1 X87.619 Y135.747 E11.39834
G1 X87.264 Y135.064 E11.42394
G1 X86.983 Y134.349 E11.44949
G1 X86.777 Y133.607 E11.4751
G1 X86.649 Y132.849 E11.50067
G1 X86.6 Y132 E11.52896
G1 X86.6 Y88 E12.9924
G1 X86.64 Y87.232 E13.01798
G1 X86.759 Y86.472 E13.04357
G1 X86.957 Y85.729 E13.06914
G1 X87.231 Y85.01 E13.09473
G1 X87.578 Y84.324 E13.1203
G1 X87.994 Y83.677 E13.14589
G1 X88.475 Y83.077 E13.17146
G0 F6000 X88.871 Y83.237
G1 F1200 X89.408 Y82.716 E13.19635
G1 X89.998 Y82.257 E13.22121
G1 X90.634 Y81.862 E13.24611
G1 X91.308 Y81.538 E13.27098
G1 X92.013 Y81.288 E13.29586
G1 X92.741 Y81.114 E13.32076
G1 X93.483 Y81.019 E13.34564
G1 X94 Y81 E13.36285
G1 X126 Y81 E14.42717
G1 X126.747 Y81.04 E14.45205
G1 X127.485 Y81.159 E14.47692
G1 X128.207 Y81.357 E14.50182
G1 X128.903 Y81.63 E14.52668
G1 X129.566 Y81.977 E14.55157
G1 X130.189 Y82.392 E14.57647
G1 X130.763 Y82.871 E14.60133
G1 X131.284 Y83.408 E14.62622
G1 X131.743 Y83.998 E14.65108
G1 X132.138 Y84.634 E14.67598
G1 X132.462 Y85.308 E14.70086
G1 X132.712 Y86.013 E14.72573
G1 X132.886 Y86.741 E14.75063
G1 X132.981 Y87.483 E14.77551
G1 X133 Y88 E14.79272
G1 X132.999 Y128.011 E16.12349
G1 X132.983 Y128.48 E16.1391
G1 X132.948 Y129.001 E16.15646
G1 X132.825 Y129.918 E16.18724
G1 X132.721 Y130.433 E16.20471
G1 X132.492 Y131.285 E16.23406
G1 X132.329 Y131.768 E16.25101
G1 X131.958 Y132.66 E16.28314
G1 X131.719 Y133.138 E16.30092
G1 X131.268 Y133.912 E16.33071
G1 X130.975 Y134.348 E16.34818
G1 X130.415 Y135.074 E16.37868
G1 X130.071 Y135.464 E16.39598
G1 X129.425 Y136.107 E16.42629
G1 X129.031 Y136.451 E16.44369
G1 X128.304 Y137.006 E16.47411
G1 X127.868 Y137.296 E16.49152
G1 X127.105 Y137.737 E16.52084
G1 X126.644 Y137.966 E16.53796
G1 X125.74 Y138.339 E16.57048
G1 X125.235 Y138.507 E16.58818
G1 X124.385 Y138.732 E16.61743
G1 X123.87 Y138.834 E16.63489
G1 X122.962 Y138.952 E16.66534
G1 X122.452 Y138.985 E16.68234
G1 X122 Y139 E16.69738
G1 X94 Y139 E17.62867
G1 X93.253 Y138.96 E17.65355
G1 X92.515 Y138.841 E17.67841
G1 X91.793 Y138.643 E17.70331
G1 X91.097 Y138.37 E17.72818
G1 X90.434 Y138.023 E17.75307
G1 X89.811 Y137.608 E17.77797
G1 X89.237 Y137.129 E17.80283
G1 X88.716 Y136.592 E17.82772
G1 X88.257 Y136.002 E17.85258
G1 X87.862 Y135.366 E17.87748
G1 X87.538 Y134.692 E17.90235
G1 X87.288 Y133.987 E17.92723
G1 X87.114 Y133.259 E17.95213
G1 X87.019 Y132.517 E17.97701
G1 X87 Y132 E17.99422
G1 X87 Y88 E19.45766
G1 X87.04 Y87.253 E19.48254
G1 X87.159 Y86.515 E19.50741
G1 X87.357 Y85.793 E19.53231
G1 X87.63 Y85.097 E19.55717
G1 X87.977 Y84.434 E19.58206
G1 X88.392 Y83.811 E19.60696
G1 X88.871 Y83.237 E19.63182
G0 F6000 X88.789 Y83.95
G1 F1200 X89.265 Y83.402 E19.65597
G1 X89.799 Y82.909 E19.68014
G1 X90.384 Y82.479 E19.70429
G1 X91.013 Y82.115 E19.72846
G1 X91.678 Y81.822 E19.75263
G1 X92.371 Y81.604 E19.77679
G1 X93.083 Y81.464 E19.80093
G1 X94 Y81.4 E19.8315
G1 X126 Y81.4 E20.89582
G1 X126.725 Y81.44 E20.91997
G1 X127.442 Y81.559 E20.94415
G1 X128.141 Y81.757 E20.96831
G1 X128.814 Y82.03 E20.99247
G1 X129.453 Y82.375 E21.01662
G1 X130.05 Y82.789 E21.04078
G1 X130.598 Y83.265 E21.06493
G1 X131.091 Y83.799 E21.0891
G1 X131.521 Y84.384 E21.11325
G1 X131.885 Y85.013 E21.13742
G1 X132.178 Y85.678 E21.16159
G1 X132.396 Y86.371 E21.18575
G1 X132.536 Y87.083 E21.20988
G1 X132.6 Y88 E21.24046
G1 X132.599 Y128.011 E22.57123
G1 X132.584 Y128.453 E22.58594
G1 X132.549 Y128.974 E22.60331
G1 X132.433 Y129.838 E22.6323
G1 X132.329 Y130.353 E22.64978
G1 X132.113 Y131.157 E22.67747
G1 X131.95 Y131.64 E22.69442
G1 X131.6 Y132.482 E22.72475
G1 X131.361 Y132.96 E22.74252
G1 X130.936 Y133.689 E22.77059
G1 X130.643 Y134.125 E22.78806
G1 X130.115 Y134.81 E22.81683
G1 X129.771 Y135.2 E22.83412
G1 X129.162 Y135.806 E22.8627
G1 X128.768 Y136.15 E22.88009
G1 X128.082 Y136.673 E22.90879
G1 X127.646 Y136.963 E22.9262
G1 X126.927 Y137.379 E22.95383
G1 X126.466 Y137.608 E22.97095
G1 X125.613 Y137.96 E23.00164
G1 X125.108 Y138.128 E23.01934
G1 X124.307 Y138.339 E23.04689
G1 X123.792 Y138.441 E23.06436
G1 X122.936 Y138.553 E23.09307
G1 X122.426 Y138.586 E23.11007
G1 X122 Y138.6 E23.12424
G1 X94 Y138.6 E24.05553
G1 X93.275 Y138.56 E24.07968
G1 X92.558 Y138.441 E24.10385
G1 X91.859 Y138.243 E24.12801
G1 X91.186 Y137.97 E24.15217
G1 X90.547 Y137.625 E24.17632
G1 X89.95 Y137.211 E24.20049
G1 X89.402 Y136.735 E24.22463
G1 X88.909 Y136.201 E24.2488
G1 X88.479 Y135.616 E24.27295
G1 X88.115 Y134.987 E24.29712
G1 X87.822 Y134.322 E24.32129
G1 X87.604 Y133.629 E24.34545
G1 X87.464 Y132.917 E24.36959
G1 X87.4 Y132 E24.40016
G1 X87.4 Y88 E25.86361
G1 X87.44 Y87.275 E25.88776
G1 X87.559 Y86.558 E25.91193
G1 X87.757 Y85.859 E25.9361
G1 X88.03 Y85.186 E25.96025
G1 X88.375 Y84.547 E25.9844
G1 X88.789 Y83.95 E26.00857
G0 F6000 X89.185 Y84.094
G1 F1200 X89.659 Y83.573 E26.03199
G1 X90.189 Y83.109 E26.05542
G1 X90.768 Y82.709 E26.07883
G1 X91.389 Y82.377 E26.10225
G1 X92.043 Y82.117 E26.12566
G1 X92.723 Y81.933 E26.14909
G1 X93.419 Y81.827 E26.17251
G1 X94 Y81.8 E26.19185
G1 X126 Y81.8 E27.25617
G1 X126.703 Y81.84 E27.27959
G1 X127.397 Y81.959 E27.30301
G1 X128.072 Y82.157 E27.32641
G1 X128.721 Y82.429 E27.34982
G1 X129.335 Y82.774 E27.37324
G1 X129.906 Y83.185 E27.39664
G1 X130.427 Y83.659 E27.42007
G1 X130.891 Y84.189 E27.4435
G1 X131.291 Y84.768 E27.4669
G1 X131.623 Y85.389 E27.49032
G1 X131.883 Y86.043 E27.51373
G1 X132.067 Y86.723 E27.53716
G1 X132.173 Y87.419 E27.56058
G1 X132.2 Y88 E27.57992
G1 X132.199 Y128.011 E28.91069
G1 X132.185 Y128.427 E28.92454
G1 X132.15 Y128.948 E28.9419
G1 X132.041 Y129.759 E28.96912
G1 X131.937 Y130.274 E28.9866
G1 X131.734 Y131.029 E29.0126
G1 X131.571 Y131.512 E29.02955
G1 X131.242 Y132.303 E29.05805
G1 X131.003 Y132.781 E29.07582
G1 X130.604 Y133.466 E29.10219
G1 X130.311 Y133.902 E29.11966
G1 X129.815 Y134.545 E29.14667
G1 X129.471 Y134.935 E29.16397
G1 X128.899 Y135.504 E29.1908
G1 X128.505 Y135.848 E29.2082
G1 X127.861 Y136.34 E29.23515
G1 X127.425 Y136.63 E29.25257
G1 X126.749 Y137.021 E29.27854
G1 X126.288 Y137.25 E29.29566
G1 X125.487 Y137.58 E29.32448
G1 X124.982 Y137.748 E29.34218
G1 X124.23 Y137.947 E29.36805
G1 X123.715 Y138.049 E29.38551
G1 X122.91 Y138.154 E29.41251
G1 X122.4 Y138.187 E29.42951
G1 X122 Y138.2 E29.44282
G1 X94 Y138.2 E30.37411
G1 X93.297 Y138.16 E30.39753
G1 X92.603 Y138.041 E30.42095
G1 X91.928 Y137.843 E30.44434
G1 X91.279 Y137.571 E30.46775
G1 X90.665 Y137.226 E30.49117
G1 X90.094 Y136.815 E30.51457
G1 X89.573 Y136.341 E30.538
G1 X89.109 Y135.811 E30.56143
G1 X88.709 Y135.232 E30.58483
G1 X88.377 Y134.611 E30.60826
G1 X88.117 Y133.957 E30.63166
G1 X87.933 Y133.277 E30.65509
G1 X87.827 Y132.581 E30.67851
G1 X87.8 Y132 E30.69785
G1 X87.8 Y88 E32.1613
G1 X87.84 Y87.297 E32.18472
G1 X87.959 Y86.603 E32.20814
G1 X88.157 Y85.928 E32.23154
G1 X88.429 Y85.279 E32.25494
G1 X88.774 Y84.665 E32.27837
G1 X89.185 Y84.094 E32.30177
G0 F6000 X89.582 Y84.242
G1 F1200 X90.053 Y83.751 E32.3244
G1 X90.578 Y83.317 E32.34705
G1 X91.15 Y82.948 E32.36969
G1 X91.762 Y82.649 E32.39235
G1 X92.404 Y82.424 E32.41497
G1 X93.069 Y82.275 E32.43764
G1 X94 Y82.2 E32.4687
G1 X126 Y82.2 E33.53303
G1 X126.68 Y82.24 E33.55568
G1 X127.35 Y82.359 E33.57832
G1 X128.002 Y82.556 E33.60097
G1 X128.626 Y82.828 E33.62361
G1 X129.214 Y83.172 E33.64627
G1 X129.758 Y83.582 E33.66893
G1 X130.249 Y84.053 E33.69156
G1 X130.683 Y84.578 E33.71421
G1 X131.052 Y85.15 E33.73685
G1 X131.351 Y85.762 E33.75951
G1 X131.576 Y86.404 E33.78213
G1 X131.725 Y87.069 E33.8048
G1 X131.8 Y88 E33.83586
G1 X131.799 Y128.011 E35.16664
G1 X131.786 Y128.4 E35.17958
G1 X131.751 Y128.921 E35.19695
G1 X131.649 Y129.68 E35.22242
G1 X131.545 Y130.195 E35.23989
G1 X131.355 Y130.902 E35.26424
G1 X131.192 Y131.385 E35.2812
G1 X130.885 Y132.124 E35.30781
G1 X130.646 Y132.602 E35.32559
G1 X130.272 Y133.243 E35.35027
G1 X129.979 Y133.679 E35.36774
G1 X129.515 Y134.281 E35.39302
G1 X129.171 Y134.671 E35.41032
G1 X128.636 Y135.203 E35.43542
G1 X128.242 Y135.547 E35.45281
G1 X127.639 Y136.007 E35.47804
G1 X127.203 Y136.297 E35.49545
G1 X126.571 Y136.662 E35.51973
G1 X126.11 Y136.891 E35.53685
G1 X125.361 Y137.2 E35.5638
G1 X124.856 Y137.368 E35.5815
G1 X124.152 Y137.554 E35.60572
G1 X123.637 Y137.656 E35.62318
G1 X122.885 Y137.755 E35.64841
G1 X122.375 Y137.788 E35.6654
G1 X122 Y137.8 E35.67788
G1 X94 Y137.8 E36.60917
G1 X93.32 Y137.76 E36.63182
G1 X92.65 Y137.641 E36.65446
G1 X91.998 Y137.444 E36.67711
G1 X91.374 Y137.172 E36.69975
G1 X90.786 Y136.828 E36.72241
G1 X90.242 Y136.418 E36.74506
G1 X89.751 Y135.947 E36.76769
G1 X89.317 Y135.422 E36.79035
G1 X88.948 Y134.85 E36.81299
G1 X88.649 Y134.238 E36.83564
G1 X88.424 Y133.596 E36.85827
G1 X88.275 Y132.931 E36.88094
G1 X88.2 Y132 E36.912
G1 X88.2 Y88 E38.37545
G1 X88.24 Y87.32 E38.3981
G1 X88.359 Y86.65 E38.42074
G1 X88.556 Y85.998 E38.44339
G1 X88.828 Y85.374 E38.46603
G1 X89.172 Y84.786 E38.48869
G1 X89.582 Y84.242 E38.51135
G0 F6000 X89.978 Y84.397
G1 F1200 X90.445 Y83.935 E38.5332
G1 X90.965 Y83.534 E38.55504
G1 X91.529 Y83.198 E38.57687
G1 X92.131 Y82.934 E38.59873
G1 X92.76 Y82.744 E38.62059
G1 X93.407 Y82.633 E38.64242
G1 X94 Y82.6 E38.66218
G1 X126 Y82.6 E39.7265
G1 X126.656 Y82.64 E39.74836
G1 X127.302 Y82.759 E39.77021
G1 X127.929 Y82.956 E39.79207
G1 X128.527 Y83.228 E39.81392
G1 X129.088 Y83.57 E39.83577
G1 X129.603 Y83.978 E39.85762
G1 X130.065 Y84.445 E39.87947
G1 X130.466 Y84.965 E39.90131
G1 X130.802 Y85.529 E39.92315
G1 X131.066 Y86.131 E39.94501
G1 X131.256 Y86.76 E39.96687
G1 X131.367 Y87.407 E39.9887
G1 X131.4 Y88 E40.00845
G1 X131.399 Y128.011 E41.33922
G1 X131.387 Y128.373 E41.35127
G1 X131.352 Y128.894 E41.36864
G1 X131.257 Y129.601 E41.39236
G1 X131.153 Y130.116 E41.40984
G1 X130.976 Y130.774 E41.4325
G1 X130.813 Y131.257 E41.44946
G1 X130.527 Y131.945 E41.47424
G1 X130.288 Y132.423 E41.49201
G1 X129.94 Y133.02 E41.515
G1 X129.647 Y133.456 E41.53247
G1 X129.215 Y134.016 E41.55599
G1 X128.871 Y134.406 E41.57329
G1 X128.373 Y134.902 E41.59667
G1 X127.979 Y135.246 E41.61406
G1 X127.418 Y135.674 E41.63753
G1 X126.982 Y135.964 E41.65495
G1 X126.393 Y136.304 E41.67757
G1 X125.932 Y136.533 E41.69469
G1 X125.235 Y136.821 E41.71977
G1 X124.73 Y136.989 E41.73747
G1 X124.074 Y137.162 E41.76004
G1 X123.559 Y137.264 E41.7775
G1 X122.859 Y137.356 E41.80098
G1 X122.349 Y137.389 E41.81798
G1 X122 Y137.4 E41.82959
G1 X94 Y137.4 E42.76088
G1 X93.344 Y137.36 E42.78274
G1 X92.698 Y137.241 E42.80458
G1 X92.071 Y137.044 E42.82644
G1 X91.473 Y136.772 E42.84829
G1 X90.912 Y136.43 E42.87015
G1 X90.397 Y136.022 E42.892
G1 X89.935 Y135.555 E42.91385
G1 X89.534 Y135.035 E42.93569
G1 X89.198 Y134.471 E42.95752
G1 X88.934 Y133.869 E42.97939
G1 X88.744 Y133.24 E43.00124
G1 X88.633 Y132.593 E43.02308
G1 X88.6 Y132 E43.04283
G1 X88.6 Y88 E44.50628
G1 X88.64 Y87.344 E44.52813
G1 X88.759 Y86.698 E44.54998
G1 X88.956 Y86.071 E44.57184
G1 X89.228 Y85.473 E44.59369
G1 X89.57 Y84.912 E44.61554
