;FLAVOR:Marlin
;TIME:9566
;Filament used: 5.95972m
;Layer height: 0.2
;MINX:48.673
;MINY:28.911
;MINZ:0.2
;MAXX:121.598
;MAXY:159.606
;MAXZ:20
;Generated with Creality Slicer 4.8.2-205
M140 S50
M105
M190 S50
M104 S200
M105
M109 S200
M82 ;absolute extrusion mode

G28 ;Home

G92 E0 ;Reset Extruder
G1 Z2.0 F3000 ;Move Z Axis up
G1 X10.1 Y20 Z0.28 F5000.0 ;Move to start position
G1 X10.1 Y200.0 Z0.28 F1500.0 E15 ;Draw the first line
G1 X10.4 Y200.0 Z0.28 F5000.0 ;Move to side a little
G1 X10.4 Y20 Z0.28 F1500.0 E30 ;Draw the second line
G92 E0 ;Reset Extruder
G1 Z2.0 F3000 ;Move Z Axis up

G92 E0
G92 E0
G1 F2100 E-5
;LAYER_COUNT:101
;LAYER:0
M107
G0 F6000 X88.886 Y119.905 Z0.2
;TYPE:SKIRT
G1 F2100 E0
G1 F1200 X89.522 Y119.438 E0.02624
G1 X90.202 Y119.037 E0.0525
G1 X90.92 Y118.707 E0.07878
G1 X91.667 Y118.452 E0.10504
G1 X92.436 Y118.273 E0.1313
G1 X93.22 Y118.173 E0.15758
G1 X93.815 Y118.15 E0.17739
G1 X98.717 Y118.15 E0.34043
G1 X99.133 Y118.171 E0.35428
G1 X99.231 Y118.161 E0.35756
G1 X99.642 Y118.151 E0.37123
G1 X107.856 Y118.159 E0.64443
G1 X108.157 Y118.175 E0.65446
G1 X108.17 Y118.173 E0.6549
G1 X108.765 Y118.15 E0.6747
G1 X113.681 Y118.15 E0.83821
G1 X114.47 Y118.19 E0.86448
G1 X115.25 Y118.309 E0.89073
G1 X116.015 Y118.507 E0.91701
G1 X116.755 Y118.781 E0.94325
G1 X117.464 Y119.129 E0.96952
G1 X118.135 Y119.547 E0.99582
G1 X118.759 Y120.03 E1.02206
G1 X119.196 Y120.435 E1.04188
G1 X119.313 Y120.552 E1.04738
G1 X119.843 Y121.138 E1.07366
G1 X120.31 Y121.774 E1.0999
G1 X120.711 Y122.454 E1.12616
G1 X121.041 Y123.172 E1.15244
G1 X121.296 Y123.919 E1.1787
G1 X121.475 Y124.688 E1.20496
G1 X121.575 Y125.472 E1.23124
G1 X121.598 Y126.067 E1.25105
G1 X121.598 Y145.933 E1.9118
G1 X121.558 Y146.722 E1.93807
G1 X121.439 Y147.502 E1.96431
G1 X121.241 Y148.267 E1.9906
G1 X120.967 Y149.007 E2.01684
G1 X120.619 Y149.716 E2.04311
G1 X120.201 Y150.387 E2.0694
G1 X119.718 Y151.011 E2.09565
G1 X119.313 Y151.448 E2.11547
G1 X119.196 Y151.565 E2.12097
G1 X118.61 Y152.095 E2.14725
G1 X117.974 Y152.562 E2.17349
G1 X117.294 Y152.963 E2.19975
G1 X116.576 Y153.293 E2.22603
G1 X115.829 Y153.548 E2.25229
G1 X115.06 Y153.727 E2.27855
G1 X114.276 Y153.827 E2.30483
G1 X113.681 Y153.85 E2.32464
G1 X93.815 Y153.85 E2.98538
G1 X93.026 Y153.81 E3.01166
G1 X92.246 Y153.691 E3.0379
G1 X91.481 Y153.493 E3.06419
G1 X90.741 Y153.219 E3.09043
G1 X90.032 Y152.871 E3.1167
G1 X89.361 Y152.453 E3.14299
G1 X88.737 Y151.97 E3.16924
G1 X88.3 Y151.565 E3.18906
G1 X88.183 Y151.448 E3.19456
G1 X87.653 Y150.862 E3.22084
G1 X87.186 Y150.226 E3.24708
G1 X86.785 Y149.546 E3.27334
G1 X86.455 Y148.828 E3.29962
G1 X86.2 Y148.081 E3.32587
G1 X86.021 Y147.312 E3.35213
G1 X85.921 Y146.528 E3.37842
G1 X85.898 Y145.933 E3.39823
G1 X85.898 Y126.067 E4.05897
G1 X85.938 Y125.278 E4.08525
G1 X86.057 Y124.498 E4.11149
G1 X86.255 Y123.733 E4.13777
G1 X86.529 Y122.993 E4.16402
G1 X86.877 Y122.284 E4.19029
G1 X87.295 Y121.613 E4.21658
G1 X87.778 Y120.989 E4.24283
G1 X88.183 Y120.552 E4.26264
G1 X88.3 Y120.435 E4.26815
G1 X88.886 Y119.905 E4.29443
G0 F6000 X89.154 Y120.203
G1 F1200 X89.776 Y119.75 E4.32002
G1 X90.441 Y119.364 E4.34559
G1 X91.143 Y119.049 E4.37119
G1 X91.874 Y118.809 E4.39678
G1 X92.625 Y118.646 E4.42234
G1 X93.39 Y118.562 E4.44793
G1 X93.815 Y118.55 E4.46207
G1 X98.717 Y118.55 E4.62511
G1 X99.21 Y118.576 E4.64153
G1 X99.641 Y118.551 E4.65589
G1 X107.855 Y118.559 E4.92909
G1 X108.2 Y118.577 E4.94058
G1 X108.34 Y118.562 E4.94527
G1 X108.765 Y118.55 E4.95941
G1 X113.681 Y118.55 E5.12291
G1 X114.449 Y118.59 E5.14849
G1 X115.209 Y118.709 E5.17408
G1 X115.952 Y118.907 E5.19965
G1 X116.671 Y119.181 E5.22524
G1 X117.357 Y119.528 E5.25081
G1 X118.004 Y119.944 E5.2764
G1 X118.604 Y120.425 E5.30197
G1 X118.914 Y120.717 E5.31614
G1 X119.031 Y120.834 E5.32164
G1 X119.545 Y121.406 E5.34722
G1 X119.998 Y122.028 E5.37281
G1 X120.384 Y122.693 E5.39839
G1 X120.699 Y123.395 E5.42398
G1 X120.939 Y124.126 E5.44957
G1 X121.102 Y124.877 E5.47513
G1 X121.186 Y125.642 E5.50073
G1 X121.198 Y126.067 E5.51487
G1 X121.198 Y145.933 E6.17561
G1 X121.158 Y146.701 E6.20119
G1 X121.039 Y147.461 E6.22678
G1 X120.841 Y148.204 E6.25235
G1 X120.567 Y148.923 E6.27794
G1 X120.22 Y149.609 E6.30351
G1 X119.804 Y150.256 E6.3291
G1 X119.323 Y150.856 E6.35467
G1 X119.031 Y151.166 E6.36884
G1 X118.914 Y151.283 E6.37434
G1 X118.342 Y151.797 E6.39992
G1 X117.72 Y152.25 E6.42551
G1 X117.055 Y152.636 E6.45108
G1 X116.353 Y152.951 E6.47668
G1 X115.622 Y153.191 E6.50227
G1 X114.871 Y153.354 E6.52783
G1 X114.106 Y153.438 E6.55342
G1 X113.681 Y153.45 E6.56756
G1 X93.815 Y153.45 E7.22831
G1 X93.047 Y153.41 E7.25389
G1 X92.287 Y153.291 E7.27947
G1 X91.544 Y153.093 E7.30505
G1 X90.825 Y152.819 E7.33064
G1 X90.139 Y152.472 E7.35621
G1 X89.492 Y152.056 E7.38179
G1 X88.892 Y151.575 E7.40737
G1 X88.582 Y151.283 E7.42154
G1 X88.465 Y151.166 E7.42704
G1 X87.951 Y150.594 E7.45262
G1 X87.498 Y149.972 E7.47821
G1 X87.112 Y149.307 E7.50378
G1 X86.797 Y148.605 E7.52937
G1 X86.557 Y147.874 E7.55496
G1 X86.394 Y147.123 E7.58052
G1 X86.31 Y146.358 E7.60612
G1 X86.298 Y145.933 E7.62026
G1 X86.298 Y126.067 E8.28101
G1 X86.338 Y125.299 E8.30659
G1 X86.457 Y124.539 E8.33217
G1 X86.655 Y123.796 E8.35775
G1 X86.929 Y123.077 E8.38334
G1 X87.276 Y122.391 E8.40891
G1 X87.692 Y121.744 E8.43449
G1 X88.173 Y121.144 E8.46007
G1 X88.465 Y120.834 E8.47423
G1 X88.582 Y120.717 E8.47974
G1 X89.154 Y120.203 E8.50531
G0 F6000 X89.422 Y120.5
G1 F1200 X90.028 Y120.063 E8.53016
G1 X90.678 Y119.692 E8.55506
G1 X91.364 Y119.393 E8.57995
G1 X92.078 Y119.169 E8.60483
G1 X92.811 Y119.022 E8.6297
G1 X93.815 Y118.95 E8.66318
G1 X98.717 Y118.95 E8.82622
G1 X99.115 Y118.97 E8.83947
G1 X99.641 Y118.951 E8.85698
G1 X107.855 Y118.959 E9.13018
G1 X108.299 Y118.983 E9.14497
G1 X108.765 Y118.95 E9.16051
G1 X113.681 Y118.95 E9.32401
G1 X114.428 Y118.99 E9.34889
G1 X115.166 Y119.109 E9.37376
G1 X115.888 Y119.307 E9.39866
G1 X116.584 Y119.58 E9.42352
G1 X117.247 Y119.927 E9.44841
G1 X117.87 Y120.342 E9.47331
G1 X118.631 Y121 E9.50677
G1 X118.748 Y121.117 E9.51227
G1 X119.248 Y121.674 E9.53717
G1 X119.685 Y122.28 E9.56202
G1 X120.056 Y122.93 E9.58691
G1 X120.355 Y123.616 E9.6118
G1 X120.579 Y124.33 E9.63669
G1 X120.726 Y125.063 E9.66156
G1 X120.798 Y126.067 E9.69503
G1 X120.798 Y145.933 E10.35578
G1 X120.758 Y146.68 E10.38066
G1 X120.639 Y147.418 E10.40552
G1 X120.441 Y148.14 E10.43042
G1 X120.168 Y148.836 E10.45529
G1 X119.821 Y149.499 E10.48018
G1 X119.406 Y150.122 E10.50508
G1 X118.748 Y150.883 E10.53854
G1 X118.631 Y151 E10.54404
G1 X118.074 Y151.5 E10.56894
G1 X117.468 Y151.937 E10.59379
G1 X116.818 Y152.308 E10.61868
G1 X116.132 Y152.607 E10.64357
G1 X115.418 Y152.831 E10.66846
G1 X114.685 Y152.978 E10.69332
G1 X113.681 Y153.05 E10.7268
G1 X93.815 Y153.05 E11.38755
G1 X93.068 Y153.01 E11.41243
G1 X92.33 Y152.891 E11.43729
G1 X91.608 Y152.693 E11.46219
G1 X90.912 Y152.42 E11.48706
G1 X90.249 Y152.073 E11.51195
G1 X89.626 Y151.658 E11.53684
G1 X88.865 Y151 E11.5703
G1 X88.748 Y150.883 E11.57581
G1 X88.248 Y150.326 E11.6007
G1 X87.811 Y149.72 E11.62555
G1 X87.44 Y149.07 E11.65045
G1 X87.141 Y148.384 E11.67534
G1 X86.917 Y147.67 E11.70022
G1 X86.77 Y146.937 E11.72509
G1 X86.698 Y145.933 E11.75857
G1 X86.698 Y126.067 E12.41931
G1 X86.738 Y125.32 E12.4442
G1 X86.857 Y124.582 E12.46906
G1 X87.055 Y123.86 E12.49396
G1 X87.328 Y123.164 E12.51882
G1 X87.675 Y122.501 E12.54371
G1 X88.09 Y121.878 E12.56861
G1 X88.748 Y121.117 E12.60207
G1 X88.865 Y121 E12.60758
G1 X89.422 Y120.5 E12.63247
G0 F6000 X89.689 Y120.799
G1 F1200 X90.28 Y120.376 E12.65664
G1 X90.914 Y120.022 E12.68079
G1 X91.583 Y119.739 E12.70495
G1 X92.279 Y119.531 E12.72912
G1 X92.994 Y119.401 E12.75329
G1 X93.815 Y119.35 E12.78065
G1 X98.717 Y119.35 E12.94369
G1 X99.239 Y119.379 E12.96108
G1 X99.64 Y119.351 E12.97444
G1 X107.854 Y119.359 E13.24764
G1 X108.255 Y119.382 E13.261
G1 X108.765 Y119.35 E13.278
G1 X113.681 Y119.35 E13.44151
G1 X114.406 Y119.39 E13.46566
G1 X115.123 Y119.509 E13.48983
G1 X115.822 Y119.707 E13.51399
G1 X116.495 Y119.98 E13.53815
G1 X117.134 Y120.325 E13.5623
G1 X117.731 Y120.739 E13.58647
G1 X118.348 Y121.283 E13.61382
G1 X118.465 Y121.4 E13.61933
G1 X118.949 Y121.941 E13.64347
G1 X119.372 Y122.532 E13.66764
G1 X119.726 Y123.166 E13.6918
G1 X120.009 Y123.835 E13.71596
G1 X120.217 Y124.531 E13.74012
G1 X120.347 Y125.246 E13.76429
G1 X120.398 Y126.067 E13.79165
G1 X120.398 Y145.933 E14.45239
G1 X120.358 Y146.658 E14.47654
G1 X120.239 Y147.375 E14.50072
G1 X120.041 Y148.074 E14.52488
G1 X119.768 Y148.747 E14.54904
G1 X119.423 Y149.386 E14.57319
G1 X119.009 Y149.983 E14.59735
G1 X118.465 Y150.6 E14.62471
G1 X118.348 Y150.717 E14.63021
G1 X117.807 Y151.201 E14.65436
G1 X117.216 Y151.624 E14.67853
G1 X116.582 Y151.978 E14.70268
G1 X115.913 Y152.261 E14.72684
G1 X115.217 Y152.469 E14.751
G1 X114.502 Y152.599 E14.77517
G1 X113.681 Y152.65 E14.80253
G1 X93.815 Y152.65 E15.46328
G1 X93.09 Y152.61 E15.48743
G1 X92.373 Y152.491 E15.5116
G1 X91.674 Y152.293 E15.53577
G1 X91.001 Y152.02 E15.55992
G1 X90.362 Y151.675 E15.58407
G1 X89.765 Y151.261 E15.60824
G1 X89.148 Y150.717 E15.6356
G1 X89.031 Y150.6 E15.6411
G1 X88.547 Y150.059 E15.66524
G1 X88.124 Y149.468 E15.68942
G1 X87.77 Y148.834 E15.71357
G1 X87.487 Y148.165 E15.73773
G1 X87.279 Y147.469 E15.76189
G1 X87.149 Y146.754 E15.78606
G1 X87.098 Y145.933 E15.81342
G1 X87.098 Y126.067 E16.47416
G1 X87.138 Y125.342 E16.49832
G1 X87.257 Y124.625 E16.52249
G1 X87.455 Y123.926 E16.54665
G1 X87.728 Y123.253 E16.57081
G1 X88.073 Y122.614 E16.59496
G1 X88.487 Y122.017 E16.61912
G1 X89.031 Y121.4 E16.64648
G1 X89.148 Y121.283 E16.65199
G1 X89.689 Y120.799 E16.67613
G0 F6000 X89.956 Y121.097
G1 F1200 X90.531 Y120.691 E16.69954
G1 X91.149 Y120.353 E16.72297
G1 X91.8 Y120.086 E16.74637
G1 X92.478 Y119.896 E16.76979
G1 X93.173 Y119.783 E16.79321
G1 X93.815 Y119.75 E16.81459
G1 X98.717 Y119.75 E16.97763
G1 X99.139 Y119.774 E16.99169
G1 X99.64 Y119.751 E17.00837
G1 X107.854 Y119.759 E17.28157
G1 X108.199 Y119.779 E17.29307
G1 X108.765 Y119.75 E17.31192
G1 X113.681 Y119.75 E17.47542
G1 X114.384 Y119.79 E17.49884
G1 X115.078 Y119.909 E17.52226
G1 X115.753 Y120.107 E17.54566
G1 X116.402 Y120.379 E17.56906
G1 X117.016 Y120.724 E17.59249
G1 X117.587 Y121.135 E17.61589
G1 X118.065 Y121.566 E17.63729
G1 X118.182 Y121.683 E17.6428
G1 X118.651 Y122.208 E17.66621
G1 X119.057 Y122.783 E17.68962
G1 X119.395 Y123.401 E17.71305
G1 X119.662 Y124.052 E17.73645
G1 X119.852 Y124.73 E17.75987
G1 X119.965 Y125.425 E17.78329
G1 X119.998 Y126.067 E17.80467
G1 X119.998 Y145.933 E18.46542
G1 X119.958 Y146.636 E18.48884
G1 X119.839 Y147.33 E18.51226
G1 X119.641 Y148.005 E18.53566
G1 X119.369 Y148.654 E18.55906
G1 X119.024 Y149.268 E18.58249
G1 X118.613 Y149.839 E18.60589
G1 X118.182 Y150.317 E18.62729
G1 X118.065 Y150.434 E18.6328
G1 X117.54 Y150.903 E18.65621
G1 X116.965 Y151.309 E18.67962
G1 X116.347 Y151.647 E18.70305
G1 X115.696 Y151.914 E18.72645
G1 X115.018 Y152.104 E18.74987
G1 X114.323 Y152.217 E18.77329
G1 X113.681 Y152.25 E18.79467
G1 X93.815 Y152.25 E19.45542
G1 X93.112 Y152.21 E19.47884
G1 X92.418 Y152.091 E19.50226
G1 X91.743 Y151.893 E19.52565
G1 X91.094 Y151.621 E19.54906
G1 X90.48 Y151.276 E19.57248
G1 X89.909 Y150.865 E19.59588
G1 X89.431 Y150.434 E19.61729
G1 X89.314 Y150.317 E19.62279
G1 X88.845 Y149.792 E19.64621
G1 X88.439 Y149.217 E19.66962
G1 X88.101 Y148.599 E19.69305
G1 X87.834 Y147.948 E19.71645
G1 X87.644 Y147.27 E19.73987
G1 X87.531 Y146.575 E19.76329
G1 X87.498 Y145.933 E19.78467
G1 X87.498 Y126.067 E20.44541
G1 X87.538 Y125.364 E20.46883
G1 X87.657 Y124.67 E20.49225
G1 X87.855 Y123.995 E20.51565
G1 X88.127 Y123.346 E20.53906
G1 X88.472 Y122.732 E20.56248
G1 X88.883 Y122.161 E20.58588
G1 X89.314 Y121.683 E20.60729
G1 X89.431 Y121.566 E20.61279
G1 X89.956 Y121.097 E20.6362
G0 F6000 X90.223 Y121.396
G1 F1200 X90.781 Y121.007 E20.65883
G1 X91.381 Y120.685 E20.68148
G1 X92.015 Y120.436 E20.70413
G1 X92.674 Y120.263 E20.72679
G1 X93.348 Y120.169 E20.74943
G1 X93.815 Y120.15 E20.76497
G1 X98.717 Y120.15 E20.92801
G1 X99.256 Y120.182 E20.94597
G1 X99.64 Y120.151 E20.95879
G1 X107.854 Y120.159 E21.23198
G1 X108.214 Y120.181 E21.24398
G1 X108.298 Y120.169 E21.2468
G1 X108.765 Y120.15 E21.26235
G1 X113.681 Y120.15 E21.42585
G1 X114.361 Y120.19 E21.44851
G1 X115.031 Y120.309 E21.47114
G1 X115.683 Y120.506 E21.4938
G1 X116.307 Y120.778 E21.51644
G1 X116.895 Y121.122 E21.5391
G1 X117.439 Y121.532 E21.56175
G1 X117.782 Y121.849 E21.57729
G1 X117.899 Y121.966 E21.58279
G1 X118.352 Y122.475 E21.60545
G1 X118.741 Y123.033 E21.62808
G1 X119.063 Y123.633 E21.65073
G1 X119.312 Y124.267 E21.67338
G1 X119.485 Y124.926 E21.69604
G1 X119.579 Y125.6 E21.71868
G1 X119.598 Y126.067 E21.73422
G1 X119.598 Y145.933 E22.39497
G1 X119.558 Y146.613 E22.41762
G1 X119.439 Y147.283 E22.44026
G1 X119.242 Y147.935 E22.46291
G1 X118.97 Y148.559 E22.48555
G1 X118.626 Y149.147 E22.50821
G1 X118.216 Y149.691 E22.53087
G1 X117.899 Y150.034 E22.5464
G1 X117.782 Y150.151 E22.5519
G1 X117.273 Y150.604 E22.57457
G1 X116.715 Y150.993 E22.59719
G1 X116.115 Y151.315 E22.61984
G1 X115.481 Y151.564 E22.64249
G1 X114.822 Y151.737 E22.66515
G1 X114.148 Y151.831 E22.68779
G1 X113.681 Y151.85 E22.70333
G1 X93.815 Y151.85 E23.36408
G1 X93.135 Y151.81 E23.38674
G1 X92.465 Y151.691 E23.40937
G1 X91.813 Y151.494 E23.43202
G1 X91.189 Y151.222 E23.45466
G1 X90.601 Y150.878 E23.47732
G1 X90.057 Y150.468 E23.49998
G1 X89.714 Y150.151 E23.51551
G1 X89.597 Y150.034 E23.52102
G1 X89.144 Y149.525 E23.54368
G1 X88.755 Y148.967 E23.5663
G1 X88.433 Y148.367 E23.58895
G1 X88.184 Y147.733 E23.61161
G1 X88.011 Y147.074 E23.63427
G1 X87.917 Y146.4 E23.6569
G1 X87.898 Y145.933 E23.67245
G1 X87.898 Y126.067 E24.33319
G1 X87.938 Y125.387 E24.35585
G1 X88.057 Y124.717 E24.37848
G1 X88.254 Y124.065 E24.40113
G1 X88.526 Y123.441 E24.42378
G1 X88.87 Y122.853 E24.44643
G1 X89.28 Y122.309 E24.46909
G1 X89.597 Y121.966 E24.48462
G1 X89.714 Y121.849 E24.49013
G1 X90.223 Y121.396 E24.51279
G0 F6000 X90.489 Y121.696
G1 F1200 X91.03 Y121.324 E24.53463
G1 X91.612 Y121.02 E24.55647
G1 X92.227 Y120.789 E24.57832
G1 X92.866 Y120.634 E24.60019
G1 X93.815 Y120.55 E24.63187
G1 X98.717 Y120.55 E24.79492
G1 X99.163 Y120.577 E24.80978
G1 X99.639 Y120.551 E24.82563
G1 X107.853 Y120.559 E25.09883
G1 X108.328 Y120.589 E25.11466
G1 X108.765 Y120.55 E25.12925
G1 X113.681 Y120.55 E25.29276
G1 X114.337 Y120.59 E25.31462
G1 X114.983 Y120.709 E25.33647
G1 X115.61 Y120.906 E25.35833
G1 X116.208 Y121.178 E25.38018
G1 X116.769 Y121.52 E25.40203
G1 X117.499 Y122.132 E25.43371
G1 X117.616 Y122.249 E25.43922
G1 X118.052 Y122.741 E25.46108
G1 X118.424 Y123.282 E25.48292
G1 X118.728 Y123.864 E25.50476
G1 X118.959 Y124.479 E25.52661
G1 X119.114 Y125.118 E25.54848
G1 X119.198 Y126.067 E25.58016
G1 X119.198 Y145.933 E26.24091
G1 X119.158 Y146.589 E26.26277
G1 X119.039 Y147.235 E26.28462
G1 X118.842 Y147.862 E26.30648
G1 X118.57 Y148.46 E26.32833
G1 X118.228 Y149.021 E26.35018
G1 X117.616 Y149.751 E26.38186
G1 X117.499 Y149.868 E26.38737
G1 X117.007 Y150.304 E26.40923
G1 X116.466 Y150.676 E26.43107
G1 X115.884 Y150.98 E26.45291
G1 X115.269 Y151.211 E26.47476
G1 X114.63 Y151.366 E26.49663
G1 X113.681 Y151.45 E26.52831
G1 X93.815 Y151.45 E27.18906
G1 X93.159 Y151.41 E27.21092
G1 X92.513 Y151.291 E27.23277
G1 X91.886 Y151.094 E27.25463
G1 X91.288 Y150.822 E27.27648
G1 X90.727 Y150.48 E27.29833
G1 X89.997 Y149.868 E27.33001
G1 X89.88 Y149.751 E27.33552
G1 X89.444 Y149.259 E27.35738
G1 X89.072 Y148.718 E27.37922
