;FLAVOR:Marlin
;TIME:1884
;Filament used: 1.31019m
;Layer height: 0.2
;MINX:82.204
;MINY:82.203
;MINZ:0.2
;MAXX:137.792
;MAXY:137.797
;MAXZ:3.4
;Generated with Creality Slicer 4.8.2-205
M140 S50
M105
M190 S50
M104 S200
M105
M109 S200
M82 ;absolute extrusion mode

G28 ;Home

G92 E0 ;Reset Extruder
G1 Z2.0 F3000 ;Move Z Axis up
G1 X10.1 Y20 Z0.28 F5000.0 ;Move to start position
G1 X10.1 Y200.0 Z0.28 F1500.0 E15 ;Draw the first line
G1 X10.4 Y200.0 Z0.28 F5000.0 ;Move to side a little
G1 X10.4 Y20 Z0.28 F1500.0 E30 ;Draw the second line
G92 E0 ;Reset Extruder
G1 Z2.0 F3000 ;Move Z Axis up

G92 E0
G92 E0
G1 F2100 E-5
;LAYER_COUNT:17
;LAYER:0
M107
G0 F6000 X90.619 Y90.069 Z0.2
;TYPE:SKIRT
G1 F2100 E0
G1 F1200 X90.955 Y89.747 E0.01548
G1 X91.845 Y88.946 E0.0553
G1 X92.198 Y88.648 E0.07067
G1 X93.134 Y87.901 E0.1105
G1 X93.514 Y87.615 E0.12632
G1 X94.493 Y86.927 E0.16612
G1 X94.875 Y86.675 E0.18134
G1 X95.892 Y86.046 E0.22111
G1 X96.295 Y85.814 E0.23658
G1 X97.349 Y85.246 E0.2764
G1 X97.774 Y85.033 E0.29221
G1 X98.859 Y84.531 E0.33197
G1 X99.282 Y84.35 E0.34727
G1 X100.397 Y83.912 E0.38712
G1 X100.837 Y83.754 E0.40267
G1 X101.975 Y83.384 E0.44247
G1 X102.425 Y83.253 E0.45806
G1 X103.583 Y82.952 E0.49785
G1 X104.04 Y82.848 E0.51344
G1 X105.215 Y82.617 E0.55327
G1 X105.677 Y82.54 E0.56885
G1 X106.863 Y82.38 E0.60865
G1 X107.319 Y82.332 E0.6239
G1 X108.512 Y82.242 E0.66369
G1 X108.982 Y82.221 E0.67934
G1 X110.177 Y82.203 E0.71909
G1 X110.646 Y82.21 E0.73469
G1 X111.841 Y82.264 E0.77448
G1 X112.303 Y82.299 E0.78989
G1 X113.494 Y82.424 E0.82972
G1 X113.95 Y82.485 E0.84502
G1 X115.132 Y82.68 E0.88487
G1 X115.606 Y82.773 E0.90093
G1 X116.77 Y83.04 E0.94065
G1 X117.215 Y83.157 E0.95596
G1 X118.364 Y83.493 E0.99577
G1 X118.807 Y83.637 E1.01127
G1 X119.934 Y84.041 E1.05109
G1 X120.367 Y84.21 E1.06654
G1 X121.467 Y84.68 E1.10633
G1 X121.888 Y84.875 E1.12176
G1 X122.959 Y85.41 E1.16158
G1 X123.372 Y85.633 E1.17719
G1 X124.408 Y86.231 E1.21698
G1 X124.81 Y86.479 E1.23269
G1 X125.81 Y87.14 E1.27256
G1 X126.184 Y87.403 E1.28776
G1 X127.139 Y88.118 E1.32744
G1 X127.508 Y88.412 E1.34314
G1 X128.421 Y89.186 E1.38295
G1 X128.771 Y89.501 E1.39861
G1 X129.636 Y90.329 E1.43843
G1 X129.959 Y90.657 E1.45374
G1 X130.774 Y91.535 E1.49359
G1 X131.081 Y91.887 E1.50912
G1 X131.841 Y92.811 E1.54892
G1 X132.128 Y93.183 E1.56454
G1 X132.831 Y94.151 E1.60433
G1 X133.092 Y94.533 E1.61972
G1 X133.737 Y95.542 E1.65955
G1 X133.978 Y95.945 E1.67517
G1 X134.56 Y96.989 E1.71492
G1 X134.777 Y97.409 E1.73065
G1 X135.295 Y98.487 E1.77043
G1 X135.479 Y98.899 E1.78543
G1 X135.935 Y100.008 E1.82532
G1 X136.102 Y100.453 E1.84113
G1 X136.488 Y101.583 E1.88084
G1 X136.628 Y102.036 E1.89661
G1 X136.945 Y103.189 E1.93638
G1 X137.052 Y103.628 E1.95141
G1 X137.302 Y104.799 E1.99124
G1 X137.387 Y105.268 E2.00709
G1 X137.565 Y106.452 E2.04691
G1 X137.62 Y106.908 E2.06219
G1 X137.728 Y108.1 E2.102
G1 X137.756 Y108.569 E2.11763
G1 X137.792 Y109.764 E2.15739
G1 X137.792 Y110.234 E2.17302
G1 X137.756 Y111.43 E2.21282
G1 X137.728 Y111.899 E2.22845
G1 X137.62 Y113.091 E2.26825
G1 X137.565 Y113.547 E2.28353
G1 X137.387 Y114.731 E2.32335
G1 X137.304 Y115.192 E2.33893
G1 X137.055 Y116.364 E2.37878
G1 X136.944 Y116.819 E2.39436
G1 X136.626 Y117.971 E2.43411
G1 X136.487 Y118.42 E2.44974
G1 X136.1 Y119.551 E2.4895
G1 X135.936 Y119.987 E2.50499
G1 X135.481 Y121.096 E2.54486
G1 X135.295 Y121.513 E2.56005
G1 X134.777 Y122.591 E2.59983
G1 X134.56 Y123.011 E2.61555
G1 X133.978 Y124.055 E2.65531
G1 X133.738 Y124.456 E2.67085
G1 X133.094 Y125.464 E2.71064
G1 X132.832 Y125.848 E2.7261
G1 X132.129 Y126.816 E2.76589
G1 X131.841 Y127.189 E2.78156
G1 X131.08 Y128.114 E2.8214
G1 X130.777 Y128.461 E2.83672
G1 X129.963 Y129.339 E2.87654
G1 X129.633 Y129.674 E2.89218
G1 X128.768 Y130.501 E2.93199
G1 X128.422 Y130.813 E2.94748
G1 X127.509 Y131.587 E2.98729
G1 X127.141 Y131.88 E3.00294
G1 X126.185 Y132.596 E3.04266
G1 X125.81 Y132.86 E3.05792
G1 X124.81 Y133.521 E3.09779
G1 X124.408 Y133.769 E3.1135
G1 X123.372 Y134.367 E3.15328
G1 X122.959 Y134.59 E3.16889
G1 X121.888 Y135.125 E3.20871
G1 X121.467 Y135.32 E3.22414
G1 X120.367 Y135.79 E3.26393
G1 X119.934 Y135.959 E3.27939
G1 X118.807 Y136.363 E3.31921
G1 X118.364 Y136.507 E3.3347
G1 X117.215 Y136.843 E3.37452
G1 X116.764 Y136.961 E3.39002
G1 X115.6 Y137.227 E3.42974
G1 X115.138 Y137.318 E3.4454
G1 X113.956 Y137.514 E3.48525
G1 X113.494 Y137.576 E3.50075
G1 X112.303 Y137.701 E3.54058
G1 X111.841 Y137.736 E3.55599
G1 X110.646 Y137.79 E3.59578
G1 X110.177 Y137.797 E3.61138
G1 X108.982 Y137.779 E3.65113
G1 X108.512 Y137.758 E3.66678
G1 X107.319 Y137.668 E3.70657
G1 X106.863 Y137.62 E3.72182
G1 X105.677 Y137.46 E3.76163
G1 X105.222 Y137.385 E3.77696
G1 X104.047 Y137.155 E3.81679
G1 X103.577 Y137.048 E3.83282
G1 X102.419 Y136.746 E3.87262
G1 X101.975 Y136.616 E3.88801
G1 X100.837 Y136.246 E3.92781
G1 X100.397 Y136.088 E3.94336
G1 X99.282 Y135.65 E3.9832
G1 X98.859 Y135.469 E3.99851
G1 X97.774 Y134.967 E4.03827
G1 X97.349 Y134.754 E4.05408
G1 X96.295 Y134.186 E4.0939
G1 X95.892 Y133.954 E4.10937
G1 X94.875 Y133.325 E4.14914
G1 X94.493 Y133.073 E4.16436
G1 X93.514 Y132.385 E4.20416
G1 X93.134 Y132.099 E4.21998
G1 X92.198 Y131.352 E4.25981
G1 X91.845 Y131.054 E4.27517
G1 X90.955 Y130.253 E4.315
G1 X90.619 Y129.931 E4.33048
G1 X89.779 Y129.079 E4.37027
G1 X89.455 Y128.731 E4.38609
G1 X88.669 Y127.83 E4.42585
G1 X88.378 Y127.475 E4.44112
G1 X87.646 Y126.529 E4.4809
G1 X87.369 Y126.149 E4.49654
G1 X86.695 Y125.16 E4.53635
G1 X86.446 Y124.77 E4.55174
G1 X85.832 Y123.743 E4.59154
G1 X85.603 Y123.332 E4.60719
G1 X85.052 Y122.27 E4.64698
G1 X84.852 Y121.855 E4.6623
G1 X84.365 Y120.763 E4.70207
G1 X84.183 Y120.318 E4.71806
G1 X83.763 Y119.195 E4.75794
G1 X83.616 Y118.765 E4.77305
G1 X83.263 Y117.622 E4.81284
G1 X83.138 Y117.166 E4.82857
G1 X82.855 Y116.004 E4.86835
G1 X82.759 Y115.552 E4.88372
G1 X82.545 Y114.374 E4.92354
G1 X82.475 Y113.913 E4.93905
G1 X82.332 Y112.726 E4.97881
G1 X82.29 Y112.262 E4.99431
G1 X82.218 Y111.068 E5.03409
G1 X82.204 Y110.599 E5.0497
G1 X82.204 Y109.402 E5.08951
G1 X82.218 Y108.933 E5.10512
G1 X82.29 Y107.738 E5.14493
G1 X82.332 Y107.274 E5.16043
G1 X82.475 Y106.087 E5.20019
G1 X82.543 Y105.632 E5.2155
G1 X82.756 Y104.454 E5.25531
G1 X82.855 Y103.99 E5.27109
G1 X83.139 Y102.828 E5.31088
G1 X83.263 Y102.378 E5.3264
G1 X83.616 Y101.235 E5.36619
G1 X83.763 Y100.805 E5.38131
G1 X84.183 Y99.682 E5.42118
G1 X84.365 Y99.237 E5.43717
G1 X84.852 Y98.145 E5.47694
G1 X85.052 Y97.73 E5.49226
G1 X85.603 Y96.668 E5.53206
G1 X85.832 Y96.257 E5.54771
G1 X86.446 Y95.23 E5.5875
G1 X86.695 Y94.84 E5.60289
G1 X87.369 Y93.851 E5.6427
G1 X87.646 Y93.471 E5.65834
G1 X88.378 Y92.525 E5.69812
G1 X88.669 Y92.17 E5.71339
G1 X89.455 Y91.269 E5.75316
G1 X89.779 Y90.921 E5.76897
G1 X90.619 Y90.069 E5.80877
G0 F6000 X90.903 Y90.35
G1 F1200 X91.223 Y90.045 E5.82347
G1 X92.113 Y89.244 E5.8633
G1 X92.447 Y88.96 E5.87788
G1 X93.383 Y88.213 E5.91771
G1 X93.744 Y87.943 E5.9327
G1 X94.723 Y87.255 E5.9725
G1 X95.086 Y87.015 E5.98697
G1 X96.103 Y86.386 E6.02675
G1 X96.484 Y86.166 E6.04138
G1 X97.538 Y85.598 E6.0812
G1 X97.942 Y85.396 E6.09622
G1 X99.027 Y84.894 E6.13599
G1 X99.428 Y84.722 E6.1505
G1 X100.543 Y84.284 E6.19034
G1 X100.961 Y84.135 E6.2051
G1 X102.099 Y83.765 E6.2449
G1 X102.525 Y83.64 E6.25967
G1 X103.683 Y83.339 E6.29946
G1 X104.118 Y83.24 E6.3143
G1 X105.293 Y83.009 E6.35413
G1 X105.731 Y82.936 E6.3689
G1 X106.917 Y82.776 E6.4087
G1 X107.349 Y82.731 E6.42315
G1 X108.542 Y82.641 E6.46294
G1 X108.988 Y82.621 E6.47779
G1 X110.183 Y82.603 E6.51754
G1 X110.628 Y82.61 E6.53234
G1 X111.823 Y82.664 E6.57213
G1 X112.261 Y82.696 E6.58674
G1 X113.452 Y82.821 E6.62657
G1 X113.885 Y82.88 E6.6411
G1 X115.067 Y83.075 E6.68095
G1 X115.516 Y83.163 E6.69617
G1 X116.68 Y83.43 E6.73589
G1 X117.103 Y83.54 E6.75042
G1 X118.252 Y83.876 E6.79024
G1 X118.672 Y84.013 E6.80493
G1 X119.799 Y84.417 E6.84475
G1 X120.21 Y84.578 E6.85943
G1 X121.31 Y85.048 E6.89922
G1 X121.709 Y85.233 E6.91385
G1 X122.78 Y85.768 E6.95367
G1 X123.172 Y85.979 E6.96847
G1 X124.208 Y86.577 E7.00826
G1 X124.59 Y86.813 E7.02319
G1 X125.59 Y87.474 E7.06306
G1 X125.944 Y87.723 E7.07746
G1 X126.899 Y88.438 E7.11714
G1 X127.249 Y88.717 E7.13202
G1 X128.162 Y89.491 E7.17183
G1 X128.494 Y89.79 E7.1867
G1 X129.359 Y90.618 E7.22652
G1 X129.666 Y90.93 E7.24108
G1 X130.481 Y91.808 E7.28092
G1 X130.772 Y92.141 E7.29563
G1 X131.532 Y93.065 E7.33543
G1 X131.805 Y93.418 E7.35027
G1 X132.508 Y94.386 E7.39006
G1 X132.755 Y94.748 E7.40463
G1 X133.4 Y95.757 E7.44446
G1 X133.629 Y96.14 E7.45931
G1 X134.211 Y97.184 E7.49906
G1 X134.417 Y97.582 E7.51397
G1 X134.935 Y98.66 E7.55375
G1 X135.109 Y99.051 E7.56798
G1 X135.565 Y100.16 E7.60786
G1 X135.724 Y100.582 E7.62286
G1 X136.11 Y101.712 E7.66258
G1 X136.242 Y102.142 E7.67754
G1 X136.559 Y103.295 E7.71731
G1 X136.661 Y103.712 E7.73159
G1 X136.911 Y104.883 E7.77141
G1 X136.992 Y105.328 E7.78646
G1 X137.17 Y106.512 E7.82628
G1 X137.222 Y106.944 E7.84075
G1 X137.33 Y108.136 E7.88056
G1 X137.357 Y108.581 E7.89539
G1 X137.393 Y109.776 E7.93515
G1 X137.393 Y110.222 E7.94999
G1 X137.357 Y111.418 E7.98978
G1 X137.33 Y111.863 E8.00461
G1 X137.222 Y113.055 E8.04442
G1 X137.17 Y113.487 E8.05889
G1 X136.992 Y114.671 E8.09871
G1 X136.912 Y115.109 E8.11352
G1 X136.663 Y116.281 E8.15337
G1 X136.558 Y116.712 E8.16813
G1 X136.24 Y117.864 E8.20788
G1 X136.108 Y118.291 E8.22274
G1 X135.721 Y119.422 E8.2625
G1 X135.566 Y119.835 E8.27717
G1 X135.111 Y120.944 E8.31704
G1 X134.935 Y121.34 E8.33146
G1 X134.417 Y122.418 E8.37123
G1 X134.211 Y122.816 E8.38614
G1 X133.629 Y123.86 E8.42589
G1 X133.401 Y124.241 E8.44066
G1 X132.757 Y125.249 E8.48045
G1 X132.509 Y125.613 E8.4951
G1 X131.806 Y126.581 E8.53489
G1 X131.533 Y126.934 E8.54973
G1 X130.772 Y127.859 E8.58957
G1 X130.484 Y128.189 E8.60414
G1 X129.67 Y129.067 E8.64396
G1 X129.357 Y129.385 E8.6588
G1 X128.492 Y130.212 E8.6986
G1 X128.163 Y130.508 E8.71332
G1 X127.25 Y131.282 E8.75313
G1 X126.901 Y131.56 E8.76797
G1 X125.945 Y132.276 E8.8077
G1 X125.59 Y132.526 E8.82214
G1 X124.59 Y133.187 E8.86201
G1 X124.208 Y133.423 E8.87694
G1 X123.172 Y134.021 E8.91673
G1 X122.78 Y134.232 E8.93154
G1 X121.709 Y134.767 E8.97135
G1 X121.31 Y134.952 E8.98598
G1 X120.21 Y135.422 E9.02577
G1 X119.799 Y135.583 E9.04045
G1 X118.672 Y135.987 E9.08027
G1 X118.252 Y136.124 E9.09496
G1 X117.103 Y136.46 E9.13478
G1 X116.675 Y136.571 E9.14949
G1 X115.511 Y136.837 E9.1892
G1 X115.073 Y136.923 E9.20404
G1 X113.891 Y137.119 E9.2439
G1 X113.452 Y137.179 E9.25863
G1 X112.261 Y137.304 E9.29846
G1 X111.823 Y137.336 E9.31307
G1 X110.628 Y137.39 E9.35286
G1 X110.183 Y137.397 E9.36766
G1 X108.988 Y137.379 E9.40741
G1 X108.542 Y137.359 E9.42226
G1 X107.349 Y137.269 E9.46205
G1 X106.917 Y137.224 E9.4765
G1 X105.731 Y137.064 E9.5163
G1 X105.298 Y136.992 E9.5309
G1 X104.123 Y136.762 E9.57072
G1 X103.678 Y136.66 E9.58591
G1 X102.52 Y136.358 E9.62571
G1 X102.099 Y136.235 E9.6403
G1 X100.961 Y135.865 E9.6801
G1 X100.543 Y135.716 E9.69486
G1 X99.428 Y135.278 E9.7347
G1 X99.027 Y135.106 E9.74921
G1 X97.942 Y134.604 E9.78898
G1 X97.538 Y134.402 E9.804
G1 X96.484 Y133.834 E9.84382
G1 X96.103 Y133.614 E9.85845
G1 X95.086 Y132.985 E9.89823
G1 X94.723 Y132.745 E9.9127
G1 X93.744 Y132.057 E9.9525
G1 X93.383 Y131.787 E9.96749
G1 X92.447 Y131.04 E10.00732
G1 X92.113 Y130.756 E10.0219
G1 X91.223 Y129.955 E10.06173
G1 X90.903 Y129.65 E10.07643
G1 X90.063 Y128.798 E10.11623
G1 X89.757 Y128.468 E10.1312
G1 X88.971 Y127.567 E10.17096
G1 X88.694 Y127.231 E10.18545
G1 X87.962 Y126.285 E10.22523
G1 X87.7 Y125.923 E10.24009
G1 X87.026 Y124.934 E10.2799
G1 X86.79 Y124.564 E10.2945
G1 X86.176 Y123.537 E10.33429
G1 X85.958 Y123.148 E10.34913
G1 X85.407 Y122.086 E10.38892
G1 X85.218 Y121.692 E10.40345
G1 X84.731 Y120.6 E10.44322
G1 X84.558 Y120.178 E10.45839
G1 X84.138 Y119.055 E10.49827
G1 X83.999 Y118.647 E10.5126
G1 X83.646 Y117.504 E10.55239
G1 X83.526 Y117.071 E10.56734
G1 X83.243 Y115.909 E10.60711
G1 X83.152 Y115.481 E10.62167
G1 X82.938 Y114.303 E10.66149
G1 X82.872 Y113.865 E10.67622
G1 X82.729 Y112.678 E10.71599
G1 X82.689 Y112.238 E10.73068
G1 X82.617 Y111.044 E10.77047
G1 X82.604 Y110.599 E10.78527
G1 X82.604 Y109.402 E10.82509
G1 X82.617 Y108.957 E10.83989
G1 X82.689 Y107.762 E10.87971
G1 X82.729 Y107.322 E10.89441
G1 X82.872 Y106.135 E10.93417
G1 X82.937 Y105.703 E10.9487
G1 X83.15 Y104.525 E10.98852
G1 X83.244 Y104.085 E11.00348
G1 X83.528 Y102.923 E11.04327
G1 X83.646 Y102.496 E11.058
G1 X83.999 Y101.353 E11.09779
G1 X84.138 Y100.945 E11.11213
G1 X84.558 Y99.822 E11.152
G1 X84.731 Y99.4 E11.16717
G1 X85.218 Y98.308 E11.20694
G1 X85.407 Y97.914 E11.22148
G1 X85.958 Y96.852 E11.26127
G1 X86.176 Y96.463 E11.2761
G1 X86.79 Y95.436 E11.3159
G1 X87.026 Y95.066 E11.33049
G1 X87.7 Y94.077 E11.3703
G1 X87.962 Y93.715 E11.38516
G1 X88.694 Y92.769 E11.42495
G1 X88.971 Y92.433 E11.43943
G1 X89.757 Y91.532 E11.4792
G1 X90.063 Y91.202 E11.49417
G1 X90.903 Y90.35 E11.53396
G0 F6000 X91.188 Y90.63
G1 F1200 X91.49 Y90.342 E11.54784
G1 X92.38 Y89.541 E11.58767
G1 X92.697 Y89.273 E11.60147
G1 X93.633 Y88.526 E11.6413
G1 X93.974 Y88.27 E11.65549
G1 X94.953 Y87.582 E11.69528
G1 X95.296 Y87.356 E11.70895
G1 X96.313 Y86.727 E11.74872
G1 X96.674 Y86.518 E11.76259
G1 X97.728 Y85.95 E11.80241
G1 X98.11 Y85.759 E11.81662
G1 X99.195 Y85.257 E11.85638
G1 X99.575 Y85.095 E11.87012
G1 X100.69 Y84.657 E11.90997
G1 X101.085 Y84.515 E11.92393
G1 X102.223 Y84.145 E11.96373
G1 X102.626 Y84.027 E11.97769
G1 X103.784 Y83.726 E12.01749
G1 X104.195 Y83.632 E12.03151
G1 X105.37 Y83.401 E12.07134
G1 X105.784 Y83.333 E12.08529
G1 X106.97 Y83.173 E12.1251
G1 X107.379 Y83.13 E12.13878
G1 X108.572 Y83.04 E12.17857
G1 X108.994 Y83.021 E12.19262
G1 X110.189 Y83.003 E12.23237
G1 X110.61 Y83.009 E12.24637
G1 X111.805 Y83.063 E12.28616
G1 X112.22 Y83.094 E12.3
G1 X113.411 Y83.219 E12.33983
G1 X113.819 Y83.274 E12.35352
G1 X115.001 Y83.469 E12.39337
G1 X115.427 Y83.553 E12.40781
G1 X116.591 Y83.82 E12.44753
G1 X116.991 Y83.924 E12.46128
G1 X118.14 Y84.26 E12.50109
G1 X118.537 Y84.39 E12.51499
G1 X119.664 Y84.794 E12.55481
G1 X120.052 Y84.946 E12.56867
G1 X121.152 Y85.416 E12.60845
G1 X121.53 Y85.591 E12.62231
G1 X122.601 Y86.126 E12.66213
G1 X122.972 Y86.325 E12.67613
G1 X124.008 Y86.923 E12.71591
G1 X124.369 Y87.146 E12.73003
G1 X125.369 Y87.807 E12.7699
G1 X125.704 Y88.043 E12.78353
G1 X126.659 Y88.758 E12.82321
G1 X126.991 Y89.023 E12.83733
G1 X127.904 Y89.797 E12.87714
G1 X128.217 Y90.079 E12.89116
G1 X129.082 Y90.907 E12.93098
G1 X129.372 Y91.202 E12.94474
G1 X130.187 Y92.08 E12.98459
G1 X130.463 Y92.395 E12.99852
G1 X131.223 Y93.319 E13.03831
G1 X131.481 Y93.653 E13.05235
G1 X132.184 Y94.621 E13.09214
G1 X132.418 Y94.964 E13.10595
G1 X133.063 Y95.973 E13.14578
G1 X133.279 Y96.335 E13.1598
G1 X133.861 Y97.379 E13.19955
G1 X134.056 Y97.755 E13.21364
G1 X134.574 Y98.833 E13.25342
G1 X134.739 Y99.203 E13.26689
G1 X135.195 Y100.312 E13.30678
G1 X135.345 Y100.711 E13.32095
G1 X135.731 Y101.841 E13.36067
G1 X135.857 Y102.248 E13.37484
G1 X136.174 Y103.401 E13.41461
G1 X136.27 Y103.795 E13.4281
G1 X136.52 Y104.966 E13.46792
G1 X136.596 Y105.387 E13.48215
G1 X136.774 Y106.571 E13.52198
G1 X136.823 Y106.98 E13.53568
G1 X136.931 Y108.172 E13.57549
G1 X136.957 Y108.593 E13.58951
G1 X136.993 Y109.788 E13.62928
G1 X136.993 Y110.21 E13.64331
G1 X136.957 Y111.406 E13.68311
G1 X136.931 Y111.827 E13.69714
G1 X136.823 Y113.019 E13.73695
G1 X136.774 Y113.428 E13.75065
G1 X136.596 Y114.612 E13.79047
