;FLAVOR:Marlin
;TIME:15784
;Filament used: 9.81911m
;Layer height: 0.2
;MINX:18.884
;MINY:20.076
;MINZ:0.2
;MAXX:191.822
;MAXY:200.898
;MAXZ:6
;Generated with Creality Slicer 4.8.2-205
M140 S50
M105
M190 S50
M104 S200
M105
M109 S200
M82 ;absolute extrusion mode

G28 ;Home

G92 E0 ;Reset Extruder
G1 Z2.0 F3000 ;Move Z Axis up
G1 X10.1 Y20 Z0.28 F5000.0 ;Move to start position
G1 X10.1 Y200.0 Z0.28 F1500.0 E15 ;Draw the first line
G1 X10.4 Y200.0 Z0.28 F5000.0 ;Move to side a little
G1 X10.4 Y20 Z0.28 F1500.0 E30 ;Draw the second line
G92 E0 ;Reset Extruder
G1 Z2.0 F3000 ;Move Z Axis up

G92 E0
G92 E0
G1 F2100 E-5
;LAYER_COUNT:30
;LAYER:0
M107
G0 F6000 X25.301 Y45.664 Z0.2
;TYPE:SKIRT
G1 F2100 E0
G1 F1200 X26.016 Y45.33 E0.02625
G1 X26.762 Y45.07 E0.05252
G1 X27.53 Y44.886 E0.07879
G1 X28.312 Y44.782 E0.10503
G1 X28.955 Y44.755 E0.12643
G1 X49.248 Y44.755 E0.80138
G1 X55.516 Y25.459 E1.47618
G1 X55.797 Y24.721 E1.50245
G1 X56.152 Y24.016 E1.5287
G1 X56.576 Y23.35 E1.55496
G1 X57.066 Y22.73 E1.58124
G1 X57.616 Y22.163 E1.60752
G1 X58.22 Y21.655 E1.63376
G1 X58.872 Y21.21 E1.66002
G1 X59.566 Y20.833 E1.68629
G1 X60.295 Y20.529 E1.71256
G1 X61.051 Y20.3 E1.73883
G1 X61.826 Y20.148 E1.7651
G1 X62.612 Y20.076 E1.79135
G1 X63.402 Y20.083 E1.81763
G1 X64.187 Y20.17 E1.8439
G1 X64.959 Y20.336 E1.87016
G1 X65.71 Y20.58 E1.89642
G1 X66.433 Y20.898 E1.92269
G1 X67.12 Y21.287 E1.94895
G1 X67.764 Y21.744 E1.97522
G1 X68.358 Y22.264 E2.00147
G1 X68.897 Y22.841 E2.02774
G1 X69.375 Y23.47 E2.05401
G1 X69.787 Y24.143 E2.08026
G1 X70.128 Y24.855 E2.10652
G1 X70.352 Y25.459 E2.12794
G1 X76.622 Y44.755 E2.80276
G1 X96.915 Y44.755 E3.47771
G1 X97.704 Y44.795 E3.50398
G1 X98.484 Y44.914 E3.53023
G1 X99.249 Y45.112 E3.55651
G1 X99.989 Y45.386 E3.58276
G1 X100.698 Y45.734 E3.60902
G1 X101.369 Y46.152 E3.63532
G1 X101.993 Y46.635 E3.66156
G1 X102.566 Y47.178 E3.68782
G1 X103.081 Y47.777 E3.71409
G1 X103.532 Y48.425 E3.74035
G1 X103.916 Y49.116 E3.76665
G1 X104.228 Y49.841 E3.7929
G1 X104.465 Y50.594 E3.81915
G1 X104.624 Y51.368 E3.84543
G1 X104.705 Y52.153 E3.87168
G1 X104.705 Y52.943 E3.89796
G1 X104.626 Y53.729 E3.92423
G1 X104.468 Y54.502 E3.95047
G1 X104.232 Y55.256 E3.97675
G1 X103.922 Y55.982 E4.00301
G1 X103.539 Y56.673 E4.02928
G1 X103.089 Y57.322 E4.05555
G1 X102.575 Y57.922 E4.08183
G1 X102.004 Y58.466 E4.10806
G1 X101.5 Y58.865 E4.12944
G1 X85.083 Y70.792 E4.80436
G1 X91.353 Y90.089 E5.47921
G1 X91.559 Y90.852 E5.5055
G1 X91.686 Y91.631 E5.53175
G1 X91.735 Y92.419 E5.55801
G1 X91.703 Y93.208 E5.58427
G1 X91.591 Y93.99 E5.61055
G1 X91.401 Y94.757 E5.63683
G1 X91.135 Y95.5 E5.66308
G1 X90.795 Y96.213 E5.68935
G1 X90.384 Y96.887 E5.7156
G1 X89.907 Y97.517 E5.74189
G1 X89.37 Y98.095 E5.76813
G1 X88.776 Y98.616 E5.79441
G1 X88.133 Y99.074 E5.82066
G1 X87.447 Y99.465 E5.84693
G1 X86.724 Y99.784 E5.87321
G1 X85.974 Y100.029 E5.89945
G1 X85.202 Y100.196 E5.92572
G1 X84.417 Y100.285 E5.952
G1 X83.628 Y100.294 E5.97824
G1 X82.841 Y100.223 E6.00453
G1 X82.066 Y100.073 E6.03078
G1 X81.31 Y99.845 E6.05704
G1 X80.58 Y99.542 E6.08333
G1 X79.886 Y99.167 E6.10957
G1 X79.35 Y98.81 E6.13099
G1 X62.935 Y86.883 E6.80585
G1 X46.52 Y98.81 E7.48072
G1 X45.858 Y99.241 E7.50699
G1 X45.157 Y99.604 E7.53325
G1 X44.422 Y99.893 E7.55952
G1 X43.662 Y100.107 E7.58578
G1 X42.884 Y100.242 E7.61204
G1 X42.096 Y100.298 E7.63832
G1 X41.307 Y100.275 E7.66457
G1 X40.524 Y100.171 E7.69084
G1 X39.755 Y99.989 E7.71713
G1 X39.009 Y99.73 E7.74339
G1 X38.293 Y99.398 E7.76964
G1 X37.614 Y98.994 E7.79592
G1 X36.98 Y98.524 E7.82217
G1 X36.396 Y97.992 E7.84844
G1 X35.869 Y97.404 E7.87471
G1 X35.405 Y96.765 E7.90097
G1 X35.007 Y96.083 E7.92723
G1 X34.68 Y95.364 E7.95351
G1 X34.427 Y94.616 E7.97977
G1 X34.252 Y93.846 E8.00603
G1 X34.155 Y93.062 E8.03231
G1 X34.138 Y92.273 E8.05855
G1 X34.201 Y91.486 E8.08481
G1 X34.343 Y90.709 E8.11109
G1 X34.517 Y90.089 E8.1325
G1 X40.787 Y70.792 E8.80735
G1 X24.37 Y58.865 E9.48227
G1 X23.756 Y58.37 E9.50851
G1 X23.195 Y57.814 E9.53478
G1 X22.692 Y57.205 E9.56105
G1 X22.254 Y56.548 E9.58731
G1 X21.885 Y55.85 E9.61357
G1 X21.588 Y55.118 E9.63984
G1 X21.367 Y54.36 E9.6661
G1 X21.223 Y53.583 E9.69239
G1 X21.159 Y52.796 E9.71865
G1 X21.174 Y52.007 E9.7449
G1 X21.27 Y51.223 E9.77117
G1 X21.444 Y50.453 E9.79742
G1 X21.695 Y49.704 E9.8237
G1 X22.02 Y48.984 E9.84997
G1 X22.417 Y48.302 E9.87622
G1 X22.88 Y47.662 E9.90249
G1 X23.406 Y47.073 E9.92876
G1 X23.989 Y46.54 E9.95503
G1 X24.623 Y46.069 E9.9813
G1 X25.301 Y45.664 E10.00756
G0 F6000 X25.166 Y46.199
G1 F1200 X25.846 Y45.84 E10.03314
G1 X26.56 Y45.553 E10.05873
G1 X27.3 Y45.343 E10.08432
G1 X28.057 Y45.21 E10.10988
G1 X28.955 Y45.155 E10.13981
G1 X49.538 Y45.155 E10.8244
G1 X55.896 Y25.583 E11.50885
G1 X56.171 Y24.865 E11.53443
G1 X56.52 Y24.179 E11.56003
G1 X56.937 Y23.533 E11.5856
G1 X57.42 Y22.934 E11.61119
G1 X57.962 Y22.388 E11.63678
G1 X58.558 Y21.902 E11.66236
G1 X59.201 Y21.48 E11.68794
G1 X59.884 Y21.127 E11.71351
G1 X60.6 Y20.847 E11.73908
G1 X61.342 Y20.642 E11.76468
G1 X62.101 Y20.516 E11.79027
G1 X62.868 Y20.469 E11.81583
G1 X63.637 Y20.502 E11.84143
G1 X64.398 Y20.615 E11.86702
G1 X65.143 Y20.806 E11.8926
G1 X65.864 Y21.074 E11.91819
G1 X66.553 Y21.415 E11.94375
G1 X67.204 Y21.825 E11.96934
G1 X67.808 Y22.301 E11.99492
G1 X68.36 Y22.837 E12.02051
G1 X68.853 Y23.427 E12.04608
G1 X69.282 Y24.066 E12.07168
G1 X69.642 Y24.745 E12.09724
G1 X69.972 Y25.582 E12.12717
G1 X76.332 Y45.155 E12.81167
G1 X96.915 Y45.155 E13.49627
G1 X97.683 Y45.195 E13.52185
G1 X98.443 Y45.314 E13.54743
G1 X99.186 Y45.512 E13.57301
G1 X99.905 Y45.786 E13.5986
G1 X100.591 Y46.133 E13.62417
G1 X101.238 Y46.549 E13.64975
G1 X101.838 Y47.03 E13.67533
G1 X102.385 Y47.571 E13.70092
G1 X102.873 Y48.166 E13.72651
G1 X103.296 Y48.808 E13.75208
G1 X103.651 Y49.491 E13.77769
G1 X103.932 Y50.206 E13.80324
G1 X104.138 Y50.948 E13.82885
G1 X104.266 Y51.706 E13.85442
G1 X104.315 Y52.474 E13.88001
G1 X104.283 Y53.242 E13.90558
G1 X104.172 Y54.003 E13.93116
G1 X103.982 Y54.749 E13.95676
G1 X103.716 Y55.47 E13.98232
G1 X103.377 Y56.161 E14.00792
G1 X102.968 Y56.812 E14.03349
G1 X102.493 Y57.417 E14.05908
G1 X101.959 Y57.97 E14.08464
G1 X101.264 Y58.542 E14.11458
G1 X84.613 Y70.639 E14.79912
G1 X90.973 Y90.213 E15.48366
G1 X91.172 Y90.956 E15.50924
G1 X91.293 Y91.716 E15.53484
G1 X91.335 Y92.484 E15.56042
G1 X91.297 Y93.252 E15.586
G1 X91.179 Y94.012 E15.61158
G1 X90.983 Y94.756 E15.63717
G1 X90.711 Y95.475 E15.66273
G1 X90.365 Y96.162 E15.68832
G1 X89.95 Y96.81 E15.71391
G1 X89.471 Y97.411 E15.73947
G1 X88.931 Y97.959 E15.76506
G1 X88.337 Y98.448 E15.79065
G1 X87.696 Y98.873 E15.81623
G1 X87.014 Y99.229 E15.84182
G1 X86.299 Y99.512 E15.8674
G1 X85.559 Y99.72 E15.89296
G1 X84.8 Y99.849 E15.91857
G1 X84.033 Y99.899 E15.94413
G1 X83.264 Y99.87 E15.96973
G1 X82.503 Y99.76 E15.9953
G1 X81.757 Y99.572 E16.02089
G1 X81.035 Y99.308 E16.04646
G1 X80.344 Y98.97 E16.07204
G1 X79.585 Y98.487 E16.10197
G1 X62.935 Y86.39 E16.78648
G1 X46.285 Y98.487 E17.47099
G1 X45.64 Y98.906 E17.49657
G1 X44.955 Y99.256 E17.52216
G1 X44.237 Y99.533 E17.54776
G1 X43.495 Y99.734 E17.57332
G1 X42.736 Y99.857 E17.5989
G1 X41.968 Y99.9 E17.62448
G1 X41.199 Y99.863 E17.65009
G1 X40.439 Y99.747 E17.67566
G1 X39.695 Y99.553 E17.70123
G1 X38.975 Y99.282 E17.72682
G1 X38.287 Y98.938 E17.7524
G1 X37.638 Y98.525 E17.77799
G1 X37.036 Y98.046 E17.80358
G1 X36.487 Y97.508 E17.82914
G1 X35.997 Y96.915 E17.85473
G1 X35.57 Y96.275 E17.88032
G1 X35.213 Y95.594 E17.90589
G1 X34.928 Y94.88 E17.93146
G1 X34.719 Y94.139 E17.95707
G1 X34.588 Y93.381 E17.98265
G1 X34.536 Y92.614 E18.00822
G1 X34.564 Y91.845 E18.03382
G1 X34.672 Y91.084 E18.05938
G1 X34.897 Y90.213 E18.0893
G1 X41.257 Y70.639 E18.77384
G1 X24.606 Y58.542 E19.45838
G1 X24.008 Y58.058 E19.48397
G1 X23.463 Y57.515 E19.50955
G1 X22.978 Y56.918 E19.53514
G1 X22.557 Y56.274 E19.56073
G1 X22.206 Y55.59 E19.5863
G1 X21.927 Y54.873 E19.61189
G1 X21.725 Y54.131 E19.63746
G1 X21.6 Y53.372 E19.66305
G1 X21.555 Y52.604 E19.68864
G1 X21.59 Y51.836 E19.71421
G1 X21.704 Y51.075 E19.7398
G1 X21.897 Y50.33 E19.7654
G1 X22.166 Y49.61 E19.79096
G1 X22.509 Y48.921 E19.81656
G1 X22.921 Y48.272 E19.84213
G1 X23.398 Y47.668 E19.86773
G1 X23.935 Y47.118 E19.89329
G1 X24.527 Y46.626 E19.9189
G1 X25.166 Y46.199 E19.94446
G0 F6000 X25.711 Y46.352
G1 F1200 X26.391 Y46.041 E19.96933
G1 X27.101 Y45.805 E19.99421
G1 X27.832 Y45.646 E20.01909
G1 X28.576 Y45.565 E20.04399
G1 X28.955 Y45.555 E20.0566
G1 X49.828 Y45.555 E20.75083
G1 X56.276 Y25.706 E21.44498
G1 X56.545 Y25.008 E21.46986
G1 X56.887 Y24.343 E21.49473
G1 X57.298 Y23.718 E21.51961
G1 X57.773 Y23.14 E21.54449
G1 X58.307 Y22.616 E21.56937
G1 X58.894 Y22.152 E21.59426
G1 X59.527 Y21.754 E21.61913
G1 X60.199 Y21.425 E21.64401
G1 X60.902 Y21.17 E21.66889
G1 X61.629 Y20.992 E21.69378
G1 X62.37 Y20.892 E21.71865
G1 X63.118 Y20.871 E21.74354
G1 X63.864 Y20.931 E21.76843
G1 X64.599 Y21.07 E21.79331
G1 X65.315 Y21.286 E21.81819
G1 X66.004 Y21.578 E21.84307
G1 X66.658 Y21.942 E21.86797
G1 X67.269 Y22.373 E21.89284
G1 X67.831 Y22.867 E21.91772
G1 X68.336 Y23.418 E21.94258
G1 X68.781 Y24.02 E21.96748
G1 X69.158 Y24.666 E21.99236
G1 X69.464 Y25.348 E22.01722
G1 X69.591 Y25.706 E22.02986
G1 X76.04 Y45.555 E22.72401
G1 X96.915 Y45.555 E23.41831
G1 X97.662 Y45.595 E23.44319
G1 X98.4 Y45.714 E23.46806
G1 X99.122 Y45.912 E23.49296
G1 X99.818 Y46.185 E23.51782
G1 X100.481 Y46.532 E23.54271
G1 X101.104 Y46.947 E23.56761
G1 X101.678 Y47.426 E23.59248
G1 X102.199 Y47.963 E23.61736
G1 X102.658 Y48.553 E23.64222
G1 X103.053 Y49.189 E23.66713
G1 X103.377 Y49.863 E23.692
G1 X103.627 Y50.568 E23.71688
G1 X103.801 Y51.296 E23.74177
G1 X103.896 Y52.038 E23.76665
G1 X103.911 Y52.786 E23.79154
G1 X103.847 Y53.531 E23.81641
G1 X103.703 Y54.265 E23.84128
G1 X103.482 Y54.98 E23.86618
G1 X103.185 Y55.667 E23.89107
G1 X102.818 Y56.318 E23.91593
G1 X102.382 Y56.926 E23.94081
G1 X101.885 Y57.485 E23.96569
G1 X101.33 Y57.987 E23.99058
G1 X101.029 Y58.218 E24.0032
G1 X84.142 Y70.487 E24.69745
G1 X90.592 Y90.337 E25.39164
G1 X90.785 Y91.059 E25.4165
G1 X90.9 Y91.799 E25.44141
G1 X90.935 Y92.546 E25.46628
G1 X90.89 Y93.293 E25.49117
G1 X90.766 Y94.03 E25.51603
G1 X90.563 Y94.751 E25.54094
G1 X90.285 Y95.445 E25.56581
G1 X89.935 Y96.106 E25.59068
G1 X89.516 Y96.726 E25.61557
G1 X89.033 Y97.297 E25.64045
G1 X88.492 Y97.814 E25.66534
G1 X87.899 Y98.27 E25.69022
G1 X87.261 Y98.66 E25.71509
G1 X86.584 Y98.979 E25.73998
G1 X85.878 Y99.225 E25.76485
G1 X85.149 Y99.394 E25.78973
G1 X84.406 Y99.484 E25.81463
G1 X83.658 Y99.495 E25.83951
G1 X82.914 Y99.425 E25.86436
G1 X82.18 Y99.277 E25.88927
G1 X81.467 Y99.051 E25.91415
G1 X80.782 Y98.75 E25.93903
G1 X80.133 Y98.378 E25.96391
G1 X79.82 Y98.163 E25.97654
G1 X62.935 Y85.895 E26.67072
G1 X46.05 Y98.163 E27.3649
G1 X45.422 Y98.57 E27.38979
G1 X44.754 Y98.907 E27.41467
G1 X44.054 Y99.171 E27.43956
G1 X43.33 Y99.36 E27.46444
G1 X42.59 Y99.469 E27.48932
G1 X41.843 Y99.499 E27.51419
G1 X41.096 Y99.45 E27.53909
G1 X40.36 Y99.32 E27.56395
G1 X39.641 Y99.113 E27.58883
G1 X38.948 Y98.831 E27.61372
G1 X38.29 Y98.476 E27.63858
G1 X37.673 Y98.053 E27.66346
G1 X37.105 Y97.566 E27.68835
G1 X36.591 Y97.022 E27.71324
G1 X36.139 Y96.426 E27.73812
G1 X35.754 Y95.785 E27.76299
G1 X35.438 Y95.106 E27.7879
G1 X35.197 Y94.398 E27.81277
G1 X35.033 Y93.668 E27.83766
G1 X34.948 Y92.925 E27.86253
G1 X34.942 Y92.177 E27.88741
G1 X35.017 Y91.433 E27.91228
G1 X35.17 Y90.701 E27.93716
G1 X35.278 Y90.337 E27.94978
G1 X41.728 Y70.487 E28.64398
G1 X24.841 Y58.218 E29.33823
G1 X24.26 Y57.747 E29.36311
G1 X23.733 Y57.216 E29.38799
G1 X23.265 Y56.632 E29.41288
G1 X22.862 Y56.002 E29.43775
G1 X22.529 Y55.332 E29.46264
G1 X22.27 Y54.63 E29.48753
G1 X22.086 Y53.905 E29.5124
G1 X21.982 Y53.164 E29.53729
G1 X21.956 Y52.417 E29.56215
G1 X22.011 Y51.671 E29.58703
G1 X22.145 Y50.935 E29.61191
G1 X22.357 Y50.217 E29.63681
G1 X22.644 Y49.527 E29.66167
G1 X23.003 Y48.87 E29.68657
G1 X23.43 Y48.256 E29.71144
G1 X23.921 Y47.691 E29.73634
G1 X24.468 Y47.182 E29.76119
G1 X25.068 Y46.734 E29.7861
G1 X25.711 Y46.352 E29.81097
G0 F6000 X25.611 Y46.865
G1 F1200 X26.257 Y46.532 E29.83515
G1 X26.935 Y46.272 E29.8593
G1 X27.637 Y46.088 E29.88344
G1 X28.356 Y45.982 E29.90761
G1 X28.955 Y45.955 E29.92755
G1 X50.12 Y45.955 E30.6315
G1 X56.657 Y25.83 E31.33529
G1 X56.919 Y25.153 E31.35943
G1 X57.254 Y24.508 E31.38361
G1 X57.658 Y23.904 E31.40778
G1 X58.125 Y23.348 E31.43193
G1 X58.651 Y22.847 E31.45609
G1 X59.229 Y22.407 E31.48025
G1 X59.852 Y22.033 E31.50441
G1 X60.512 Y21.73 E31.52857
G1 X61.201 Y21.501 E31.55272
G1 X61.911 Y21.349 E31.57687
G1 X62.634 Y21.276 E31.60104
G1 X63.36 Y21.283 E31.62519
G1 X64.081 Y21.369 E31.64934
G1 X64.789 Y21.535 E31.67352
G1 X65.473 Y21.777 E31.69765
G1 X66.127 Y22.093 E31.72181
G1 X66.743 Y22.479 E31.74599
G1 X67.312 Y22.93 E31.77014
G1 X67.828 Y23.441 E31.79429
G1 X68.285 Y24.006 E31.81846
G1 X68.677 Y24.617 E31.84261
G1 X69 Y25.268 E31.86678
G1 X69.211 Y25.829 E31.88671
G1 X75.75 Y45.955 E32.59055
G1 X96.915 Y45.955 E33.2945
G1 X97.64 Y45.995 E33.31865
G1 X98.357 Y46.114 E33.34283
G1 X99.056 Y46.312 E33.36699
G1 X99.729 Y46.585 E33.39115
G1 X100.368 Y46.93 E33.4153
G1 X100.965 Y47.344 E33.43946
G1 X101.513 Y47.82 E33.46361
G1 X102.006 Y48.354 E33.48778
G1 X102.436 Y48.939 E33.51193
G1 X102.8 Y49.568 E33.5361
G1 X103.093 Y50.233 E33.56027
G1 X103.311 Y50.926 E33.58443
G1 X103.451 Y51.638 E33.60856
G1 X103.512 Y52.362 E33.63273
G1 X103.493 Y53.088 E33.65689
G1 X103.395 Y53.808 E33.68105
G1 X103.218 Y54.512 E33.7052
G1 X102.965 Y55.193 E33.72936
G1 X102.638 Y55.842 E33.75353
G1 X102.242 Y56.451 E33.77769
G1 X101.782 Y57.013 E33.80185
G1 X101.263 Y57.521 E33.826
G1 X100.794 Y57.895 E33.84595
G1 X83.672 Y70.334 E34.54985
G1 X90.212 Y90.46 E35.2537
G1 X90.398 Y91.162 E35.27786
G1 X90.506 Y91.881 E35.30204
G1 X90.534 Y92.607 E35.3262
G1 X90.482 Y93.331 E35.35035
G1 X90.351 Y94.046 E35.37452
G1 X90.143 Y94.741 E35.39865
G1 X89.859 Y95.41 E35.42282
G1 X89.503 Y96.043 E35.44698
G1 X89.08 Y96.634 E35.47115
G1 X88.595 Y97.174 E35.49529
G1 X88.053 Y97.658 E35.51946
G1 X87.461 Y98.079 E35.54362
G1 X86.827 Y98.433 E35.56777
G1 X86.157 Y98.715 E35.59195
G1 X85.461 Y98.921 E35.61609
G1 X84.746 Y99.05 E35.64026
G1 X84.022 Y99.099 E35.66439
G1 X83.296 Y99.069 E35.68856
G1 X82.578 Y98.959 E35.71272
G1 X81.876 Y98.771 E35.73689
G1 X81.2 Y98.506 E35.76104
G1 X80.556 Y98.17 E35.7852
G1 X80.056 Y97.839 E35.80515
G1 X62.935 Y85.399 E36.50904
G1 X45.814 Y97.839 E37.21293
G1 X45.204 Y98.233 E37.23708
G1 X44.554 Y98.558 E37.26125
G1 X43.873 Y98.809 E37.28539
G1 X43.168 Y98.984 E37.30955
G1 X42.448 Y99.08 E37.33371
G1 X41.722 Y99.097 E37.35787
G1 X40.998 Y99.033 E37.38204
G1 X40.286 Y98.891 E37.40619
G1 X39.594 Y98.671 E37.43034
G1 X38.93 Y98.376 E37.4545
G1 X38.302 Y98.01 E37.47868
G1 X37.719 Y97.578 E37.50281
G1 X37.186 Y97.084 E37.52699
G1 X36.711 Y96.534 E37.55116
G1 X36.3 Y95.936 E37.57529
G1 X35.956 Y95.295 E37.59949
G1 X35.685 Y94.622 E37.62362
G1 X35.49 Y93.922 E37.64779
G1 X35.373 Y93.205 E37.67195
G1 X35.335 Y92.48 E37.69609
G1 X35.377 Y91.755 E37.72025
G1 X35.499 Y91.038 E37.74444
G1 X35.658 Y90.46 E37.76438
G1 X42.198 Y70.334 E38.46823
G1 X25.076 Y57.895 E39.17213
G1 X24.512 Y57.436 E39.19631
G1 X24.003 Y56.918 E39.22047
G1 X23.554 Y56.348 E39.2446
G1 X23.169 Y55.731 E39.26879
G1 X22.856 Y55.076 E39.29293
G1 X22.615 Y54.391 E39.31709
G1 X22.452 Y53.683 E39.34125
G1 X22.368 Y52.961 E39.36543
G1 X22.363 Y52.235 E39.38957
G1 X22.438 Y51.513 E39.41372
