;FLAVOR:Marlin
;TIME:1815
;Filament used: 1.02882m
;Layer height: 0.2
;MINX:89.775
;MINY:59.702
;MINZ:0.2
;MAXX:129.366
;MAXY:184.298
;MAXZ:3
;Generated with Creality Slicer 4.8.2-205
M140 S50
M105
M190 S50
M104 S200
M105
M109 S200
M82 ;absolute extrusion mode

G28 ;Home

G92 E0 ;Reset Extruder
G1 Z2.0 F3000 ;Move Z Axis up
G1 X10.1 Y20 Z0.28 F5000.0 ;Move to start position
G1 X10.1 Y200.0 Z0.28 F1500.0 E15 ;Draw the first line
G1 X10.4 Y200.0 Z0.28 F5000.0 ;Move to side a little
G1 X10.4 Y20 Z0.28 F1500.0 E30 ;Draw the second line
G92 E0 ;Reset Extruder
G1 Z2.0 F3000 ;Move Z Axis up

G92 E0
G92 E0
G1 F2100 E-5
;LAYER_COUNT:15
;LAYER:0
M107
G0 F6000 X93.689 Y67.677 Z0.2
;TYPE:SKIRT
G1 F2100 E0
G1 F1200 X94.128 Y67.109 E0.02388
G1 X94.423 Y66.751 E0.03931
G1 X94.895 Y66.21 E0.06318
G1 X95.219 Y65.861 E0.07902
G1 X95.723 Y65.35 E0.1029
G1 X96.056 Y65.031 E0.11823
G1 X96.589 Y64.551 E0.14209
G1 X96.946 Y64.249 E0.15764
G1 X97.509 Y63.8 E0.18159
G1 X97.884 Y63.519 E0.19718
G1 X98.471 Y63.106 E0.22105
G1 X98.861 Y62.848 E0.2366
G1 X99.47 Y62.472 E0.26041
G1 X99.865 Y62.244 E0.27558
G1 X100.499 Y61.902 E0.29954
G1 X100.933 Y61.685 E0.31568
G1 X101.583 Y61.385 E0.33949
G1 X101.989 Y61.211 E0.35418
G1 X102.658 Y60.947 E0.3781
G1 X103.11 Y60.785 E0.39407
G1 X103.793 Y60.563 E0.41796
G1 X104.248 Y60.43 E0.43372
G1 X104.943 Y60.25 E0.4576
G1 X105.392 Y60.148 E0.47292
G1 X106.098 Y60.009 E0.49685
G1 X106.561 Y59.932 E0.51246
G1 X107.272 Y59.836 E0.53632
G1 X107.729 Y59.788 E0.5516
G1 X108.445 Y59.734 E0.57549
G1 X108.912 Y59.713 E0.59103
G1 X109.628 Y59.702 E0.61485
G1 X110.106 Y59.709 E0.63075
G1 X110.824 Y59.742 E0.65466
G1 X111.281 Y59.777 E0.6699
G1 X111.995 Y59.852 E0.69378
G1 X112.439 Y59.911 E0.70868
G1 X113.148 Y60.027 E0.73257
G1 X113.642 Y60.125 E0.74932
G1 X114.34 Y60.286 E0.77315
G1 X114.768 Y60.397 E0.78786
G1 X115.458 Y60.598 E0.81176
G1 X115.916 Y60.747 E0.82778
G1 X116.592 Y60.99 E0.85167
G1 X117.018 Y61.157 E0.86689
G1 X117.678 Y61.439 E0.89076
G1 X118.097 Y61.633 E0.90612
G1 X118.74 Y61.954 E0.93002
G1 X119.155 Y62.177 E0.94569
G1 X119.777 Y62.536 E0.96958
G1 X120.175 Y62.782 E0.98514
G1 X120.775 Y63.178 E1.00905
G1 X121.158 Y63.448 E1.02463
G1 X121.73 Y63.877 E1.04842
G1 X122.09 Y64.164 E1.06373
G1 X122.638 Y64.628 E1.08761
G1 X122.993 Y64.947 E1.10349
G1 X123.512 Y65.444 E1.12739
G1 X123.84 Y65.778 E1.14296
G1 X124.329 Y66.306 E1.16689
G1 X124.624 Y66.644 E1.18181
G1 X125.08 Y67.197 E1.20565
G1 X125.373 Y67.575 E1.22156
G1 X125.795 Y68.156 E1.24544
G1 X126.058 Y68.542 E1.26098
G1 X126.445 Y69.148 E1.28489
G1 X126.684 Y69.548 E1.30039
G1 X127.033 Y70.174 E1.32423
G1 X127.25 Y70.593 E1.33992
G1 X127.561 Y71.24 E1.3638
G1 X127.744 Y71.651 E1.37876
G1 X128.018 Y72.317 E1.40272
G1 X128.187 Y72.766 E1.41867
G1 X128.418 Y73.443 E1.44246
G1 X128.558 Y73.897 E1.45827
G1 X128.748 Y74.589 E1.48213
G1 X128.852 Y75.014 E1.49669
G1 X129.003 Y75.716 E1.52057
G1 X129.09 Y76.195 E1.53676
G1 X129.197 Y76.906 E1.56068
G1 X129.253 Y77.372 E1.57629
G1 X129.317 Y78.087 E1.60016
G1 X129.345 Y78.554 E1.61572
G1 X129.366 Y79.271 E1.63958
G1 X129.366 Y79.727 E1.65475
G1 X129.345 Y80.445 E1.67864
G1 X129.317 Y80.912 E1.6942
G1 X129.253 Y81.627 E1.71807
G1 X129.197 Y82.093 E1.73369
G1 X129.09 Y82.804 E1.7576
G1 X129.005 Y83.271 E1.77339
G1 X128.855 Y83.974 E1.7973
G1 X128.745 Y84.424 E1.8127
G1 X128.554 Y85.115 E1.83655
G1 X128.416 Y85.562 E1.85211
G1 X128.184 Y86.24 E1.87594
G1 X128.021 Y86.673 E1.89133
G1 X127.748 Y87.339 E1.91527
G1 X127.561 Y87.76 E1.93059
G1 X127.25 Y88.407 E1.95447
G1 X127.033 Y88.826 E1.97016
G1 X126.684 Y89.452 E1.994
G1 X126.447 Y89.849 E2.00938
G1 X126.061 Y90.454 E2.03325
G1 X125.796 Y90.843 E2.0489
G1 X125.374 Y91.424 E2.07279
G1 X125.08 Y91.803 E2.08874
G1 X124.623 Y92.357 E2.11263
G1 X124.334 Y92.688 E2.12724
G1 X123.846 Y93.216 E2.15115
G1 X123.507 Y93.561 E2.16724
G1 X122.988 Y94.057 E2.19112
G1 X122.639 Y94.371 E2.20673
G1 X122.091 Y94.835 E2.23062
G1 X121.733 Y95.121 E2.24586
G1 X121.16 Y95.551 E2.26968
G1 X120.775 Y95.822 E2.28534
G1 X120.175 Y96.218 E2.30925
G1 X119.777 Y96.464 E2.32482
G1 X119.155 Y96.823 E2.3487
G1 X118.74 Y97.046 E2.36437
G1 X118.097 Y97.367 E2.38827
G1 X117.678 Y97.561 E2.40363
G1 X117.018 Y97.843 E2.4275
G1 X116.592 Y98.01 E2.44272
G1 X115.916 Y98.253 E2.46661
G1 X115.458 Y98.402 E2.48263
G1 X114.768 Y98.603 E2.50654
G1 X114.33 Y98.717 E2.52159
G1 X113.632 Y98.877 E2.54541
G1 X113.159 Y98.97 E2.56144
G1 X112.45 Y99.087 E2.58534
G1 X111.995 Y99.148 E2.60061
G1 X111.281 Y99.223 E2.62449
G1 X110.824 Y99.258 E2.63973
G1 X110.106 Y99.291 E2.66364
G1 X109.628 Y99.298 E2.67954
G1 X108.912 Y99.287 E2.70336
G1 X108.445 Y99.266 E2.7189
G1 X107.729 Y99.212 E2.74279
G1 X107.272 Y99.164 E2.75807
G1 X106.561 Y99.068 E2.78193
G1 X106.109 Y98.993 E2.79717
G1 X105.403 Y98.855 E2.8211
G1 X104.933 Y98.748 E2.83713
G1 X104.238 Y98.567 E2.86102
G1 X103.793 Y98.437 E2.87644
G1 X103.11 Y98.215 E2.90032
G1 X102.658 Y98.053 E2.91629
G1 X101.989 Y97.789 E2.94021
G1 X101.583 Y97.615 E2.9549
G1 X100.933 Y97.315 E2.97872
G1 X100.499 Y97.098 E2.99485
G1 X99.865 Y96.756 E3.01881
G1 X99.47 Y96.528 E3.03398
G1 X98.861 Y96.152 E3.05779
G1 X98.471 Y95.894 E3.07334
G1 X97.884 Y95.481 E3.09721
G1 X97.509 Y95.2 E3.1128
G1 X96.946 Y94.751 E3.13675
G1 X96.589 Y94.449 E3.1523
G1 X96.056 Y93.969 E3.17616
G1 X95.723 Y93.65 E3.1915
G1 X95.219 Y93.139 E3.21537
G1 X94.895 Y92.79 E3.23121
G1 X94.423 Y92.249 E3.25509
G1 X94.128 Y91.891 E3.27052
G1 X93.689 Y91.323 E3.29439
G1 X93.415 Y90.945 E3.30992
G1 X93.011 Y90.352 E3.33379
G1 X92.766 Y89.968 E3.34894
G1 X92.397 Y89.352 E3.37282
G1 X92.162 Y88.932 E3.38883
G1 X91.832 Y88.295 E3.41269
G1 X91.634 Y87.883 E3.42789
G1 X91.342 Y87.228 E3.45174
G1 X91.164 Y86.793 E3.46737
G1 X90.911 Y86.119 E3.49132
G1 X90.757 Y85.668 E3.50717
G1 X90.546 Y84.981 E3.53107
G1 X90.425 Y84.542 E3.54622
G1 X90.255 Y83.846 E3.57005
G1 X90.159 Y83.395 E3.58538
G1 X90.03 Y82.688 E3.60929
G1 X89.958 Y82.213 E3.62527
G1 X89.873 Y81.501 E3.64912
G1 X89.832 Y81.044 E3.66438
G1 X89.789 Y80.328 E3.68823
G1 X89.775 Y79.86 E3.70381
G1 X89.775 Y79.141 E3.72772
G1 X89.789 Y78.674 E3.74326
G1 X89.832 Y77.957 E3.76715
G1 X89.873 Y77.499 E3.78245
G1 X89.958 Y76.787 E3.80629
G1 X90.028 Y76.322 E3.82193
G1 X90.156 Y75.615 E3.84583
G1 X90.256 Y75.144 E3.86185
G1 X90.427 Y74.448 E3.88568
G1 X90.546 Y74.019 E3.90049
G1 X90.757 Y73.332 E3.92439
G1 X90.911 Y72.881 E3.94025
G1 X91.164 Y72.207 E3.96419
G1 X91.342 Y71.772 E3.97982
G1 X91.634 Y71.117 E4.00367
G1 X91.832 Y70.705 E4.01888
G1 X92.162 Y70.068 E4.04274
G1 X92.397 Y69.648 E4.05875
G1 X92.766 Y69.032 E4.08263
G1 X93.011 Y68.648 E4.09778
G1 X93.415 Y68.055 E4.12164
G1 X93.689 Y67.677 E4.13717
G0 F6000 X94.006 Y67.922
G1 F1200 X94.445 Y67.354 E4.16105
G1 X94.724 Y67.014 E4.17568
G1 X95.196 Y66.473 E4.19956
G1 X95.503 Y66.142 E4.21457
G1 X96.007 Y65.631 E4.23844
G1 X96.324 Y65.328 E4.25303
G1 X96.857 Y64.848 E4.27689
G1 X97.195 Y64.562 E4.29161
G1 X97.758 Y64.113 E4.31556
G1 X98.114 Y63.846 E4.33036
G1 X98.701 Y63.433 E4.35424
G1 X99.071 Y63.188 E4.369
G1 X99.68 Y62.812 E4.3928
G1 X100.055 Y62.596 E4.40719
G1 X100.689 Y62.254 E4.43115
G1 X101.101 Y62.048 E4.44647
G1 X101.751 Y61.748 E4.47029
G1 X102.136 Y61.584 E4.4842
G1 X102.805 Y61.32 E4.50812
G1 X103.234 Y61.165 E4.5233
G1 X103.917 Y60.943 E4.54718
G1 X104.349 Y60.817 E4.56215
G1 X105.044 Y60.637 E4.58603
G1 X105.47 Y60.54 E4.60056
G1 X106.176 Y60.401 E4.62449
G1 X106.615 Y60.329 E4.63929
G1 X107.326 Y60.233 E4.66315
G1 X107.759 Y60.187 E4.67763
G1 X108.475 Y60.133 E4.70152
G1 X108.918 Y60.113 E4.71626
G1 X109.634 Y60.102 E4.74008
G1 X110.088 Y60.109 E4.75518
G1 X110.806 Y60.142 E4.77909
G1 X111.239 Y60.174 E4.79353
G1 X111.953 Y60.249 E4.81741
G1 X112.375 Y60.306 E4.83157
G1 X113.084 Y60.422 E4.85547
G1 X113.552 Y60.514 E4.87133
G1 X114.25 Y60.675 E4.89516
G1 X114.657 Y60.781 E4.90914
G1 X115.347 Y60.982 E4.93305
G1 X115.78 Y61.123 E4.94819
G1 X116.456 Y61.366 E4.97209
G1 X116.861 Y61.525 E4.98656
G1 X117.521 Y61.807 E5.01043
G1 X117.918 Y61.991 E5.02498
G1 X118.561 Y62.312 E5.04889
G1 X118.955 Y62.524 E5.06377
G1 X119.577 Y62.883 E5.08765
G1 X119.954 Y63.116 E5.10239
G1 X120.554 Y63.512 E5.1263
G1 X120.918 Y63.768 E5.14111
G1 X121.49 Y64.197 E5.16489
G1 X121.832 Y64.47 E5.17944
G1 X122.38 Y64.934 E5.20332
G1 X122.716 Y65.236 E5.21835
G1 X123.235 Y65.733 E5.24225
G1 X123.546 Y66.05 E5.25702
G1 X124.035 Y66.578 E5.28096
G1 X124.315 Y66.898 E5.2951
G1 X124.771 Y67.451 E5.31894
G1 X125.049 Y67.81 E5.33404
G1 X125.471 Y68.391 E5.35792
G1 X125.721 Y68.757 E5.37267
G1 X126.108 Y69.363 E5.39658
G1 X126.334 Y69.743 E5.41129
G1 X126.683 Y70.369 E5.43512
G1 X126.89 Y70.766 E5.45002
G1 X127.201 Y71.413 E5.47389
G1 X127.374 Y71.804 E5.48811
G1 X127.648 Y72.47 E5.51207
G1 X127.809 Y72.895 E5.52718
G1 X128.04 Y73.572 E5.55097
G1 X128.172 Y74.003 E5.56597
G1 X128.362 Y74.695 E5.58983
G1 X128.461 Y75.098 E5.60364
G1 X128.612 Y75.8 E5.62752
G1 X128.695 Y76.255 E5.6429
G1 X128.802 Y76.966 E5.66682
G1 X128.855 Y77.407 E5.68159
G1 X128.919 Y78.122 E5.70546
G1 X128.945 Y78.565 E5.72022
G1 X128.966 Y79.282 E5.74408
G1 X128.966 Y79.715 E5.75848
G1 X128.945 Y80.433 E5.78237
G1 X128.919 Y80.877 E5.79717
G1 X128.855 Y81.592 E5.82104
G1 X128.802 Y82.033 E5.83582
G1 X128.695 Y82.744 E5.85973
G1 X128.614 Y83.187 E5.87471
G1 X128.464 Y83.89 E5.89862
G1 X128.36 Y84.318 E5.91327
G1 X128.169 Y85.009 E5.93711
G1 X128.037 Y85.433 E5.95188
G1 X127.805 Y86.111 E5.97572
G1 X127.651 Y86.522 E5.99031
G1 X127.378 Y87.188 E6.01425
G1 X127.201 Y87.587 E6.02877
G1 X126.89 Y88.234 E6.05265
G1 X126.683 Y88.631 E6.06754
G1 X126.334 Y89.257 E6.09138
G1 X126.109 Y89.634 E6.10598
G1 X125.723 Y90.239 E6.12985
G1 X125.472 Y90.608 E6.14469
G1 X125.05 Y91.189 E6.16858
G1 X124.771 Y91.549 E6.18372
G1 X124.314 Y92.103 E6.20761
G1 X124.04 Y92.417 E6.22147
G1 X123.552 Y92.945 E6.24538
G1 X123.231 Y93.272 E6.26063
G1 X122.712 Y93.768 E6.2845
G1 X122.381 Y94.065 E6.29929
G1 X121.833 Y94.529 E6.32318
G1 X121.493 Y94.801 E6.33766
G1 X120.92 Y95.231 E6.36149
G1 X120.554 Y95.488 E6.37636
G1 X119.954 Y95.884 E6.40027
G1 X119.577 Y96.117 E6.41501
G1 X118.955 Y96.476 E6.4389
G1 X118.561 Y96.688 E6.45378
G1 X117.918 Y97.009 E6.47768
G1 X117.521 Y97.193 E6.49224
G1 X116.861 Y97.475 E6.51611
G1 X116.456 Y97.634 E6.53058
G1 X115.78 Y97.877 E6.55447
G1 X115.347 Y98.018 E6.56962
G1 X114.657 Y98.219 E6.59352
G1 X114.24 Y98.327 E6.60785
G1 X113.542 Y98.487 E6.63167
G1 X113.094 Y98.575 E6.64685
G1 X112.385 Y98.692 E6.67075
G1 X111.953 Y98.751 E6.68525
G1 X111.239 Y98.826 E6.70913
G1 X110.806 Y98.858 E6.72357
G1 X110.088 Y98.891 E6.74748
G1 X109.634 Y98.898 E6.76258
G1 X108.918 Y98.887 E6.7864
G1 X108.475 Y98.867 E6.80115
G1 X107.759 Y98.813 E6.82503
G1 X107.326 Y98.767 E6.83951
G1 X106.615 Y98.671 E6.86337
G1 X106.185 Y98.601 E6.87786
G1 X105.479 Y98.463 E6.90179
G1 X105.034 Y98.361 E6.91697
G1 X104.339 Y98.18 E6.94086
G1 X103.917 Y98.057 E6.95548
G1 X103.234 Y97.835 E6.97937
G1 X102.805 Y97.68 E6.99454
G1 X102.136 Y97.416 E7.01846
G1 X101.751 Y97.252 E7.03238
G1 X101.101 Y96.952 E7.05619
G1 X100.689 Y96.746 E7.07151
G1 X100.055 Y96.404 E7.09547
G1 X99.68 Y96.188 E7.10986
G1 X99.071 Y95.812 E7.13367
G1 X98.701 Y95.567 E7.14843
G1 X98.114 Y95.154 E7.1723
G1 X97.758 Y94.887 E7.1871
G1 X97.195 Y94.438 E7.21105
G1 X96.857 Y94.152 E7.22578
G1 X96.324 Y93.672 E7.24963
G1 X96.007 Y93.369 E7.26422
G1 X95.503 Y92.858 E7.28809
G1 X95.196 Y92.527 E7.30311
G1 X94.724 Y91.986 E7.32699
G1 X94.445 Y91.646 E7.34161
G1 X94.006 Y91.078 E7.36549
G1 X93.745 Y90.719 E7.38025
G1 X93.341 Y90.126 E7.40412
G1 X93.109 Y89.763 E7.41845
G1 X92.74 Y89.147 E7.44233
G1 X92.517 Y88.748 E7.45753
G1 X92.187 Y88.111 E7.48139
G1 X91.999 Y87.72 E7.49582
G1 X91.707 Y87.065 E7.51968
G1 X91.538 Y86.653 E7.53449
G1 X91.285 Y85.979 E7.55843
G1 X91.139 Y85.551 E7.57347
G1 X90.928 Y84.864 E7.59738
G1 X90.813 Y84.447 E7.61176
G1 X90.643 Y83.751 E7.63559
G1 X90.552 Y83.323 E7.65015
G1 X90.423 Y82.616 E7.67405
G1 X90.355 Y82.165 E7.68922
G1 X90.27 Y81.453 E7.71307
G1 X90.231 Y81.02 E7.72753
G1 X90.188 Y80.304 E7.75139
G1 X90.175 Y79.86 E7.76616
G1 X90.175 Y79.141 E7.79007
G1 X90.188 Y78.698 E7.80481
G1 X90.231 Y77.981 E7.8287
G1 X90.27 Y77.547 E7.8432
G1 X90.355 Y76.835 E7.86705
G1 X90.421 Y76.394 E7.88188
G1 X90.549 Y75.687 E7.90578
G1 X90.645 Y75.239 E7.92101
G1 X90.816 Y74.543 E7.94485
G1 X90.928 Y74.136 E7.95889
G1 X91.139 Y73.449 E7.98279
G1 X91.285 Y73.021 E7.99784
G1 X91.538 Y72.347 E8.02178
G1 X91.707 Y71.935 E8.03659
G1 X91.999 Y71.28 E8.06044
G1 X92.187 Y70.889 E8.07487
G1 X92.517 Y70.252 E8.09873
G1 X92.74 Y69.853 E8.11394
G1 X93.109 Y69.237 E8.13782
G1 X93.341 Y68.874 E8.15215
G1 X93.745 Y68.281 E8.17601
G1 X94.006 Y67.922 E8.19078
G0 F6000 X94.322 Y68.166
G1 F1200 X94.761 Y67.598 E8.21465
G1 X95.025 Y67.277 E8.22848
G1 X95.497 Y66.736 E8.25236
G1 X95.788 Y66.423 E8.26657
G1 X96.292 Y65.912 E8.29044
G1 X96.592 Y65.625 E8.30425
G1 X97.125 Y65.145 E8.32811
G1 X97.444 Y64.874 E8.34203
G1 X98.007 Y64.425 E8.36598
G1 X98.344 Y64.173 E8.37998
G1 X98.931 Y63.76 E8.40385
G1 X99.282 Y63.529 E8.41782
G1 X99.891 Y63.153 E8.44163
G1 X100.245 Y62.948 E8.45524
G1 X100.879 Y62.606 E8.47919
G1 X101.269 Y62.411 E8.4937
G1 X101.919 Y62.111 E8.51751
G1 X102.282 Y61.956 E8.53064
G1 X102.951 Y61.692 E8.55456
G1 X103.357 Y61.546 E8.56891
G1 X104.04 Y61.324 E8.59279
G1 X104.449 Y61.205 E8.60696
G1 X105.144 Y61.025 E8.63084
G1 X105.547 Y60.933 E8.64459
G1 X106.253 Y60.794 E8.66852
G1 X106.668 Y60.725 E8.68251
G1 X107.379 Y60.629 E8.70638
G1 X107.79 Y60.586 E8.72012
G1 X108.506 Y60.532 E8.744
G1 X108.924 Y60.513 E8.75792
G1 X109.64 Y60.502 E8.78174
G1 X110.069 Y60.508 E8.79601
G1 X110.787 Y60.541 E8.81991
G1 X111.197 Y60.572 E8.83359
G1 X111.911 Y60.647 E8.85747
G1 X112.31 Y60.701 E8.87086
G1 X113.019 Y60.817 E8.89475
G1 X113.462 Y60.904 E8.90977
G1 X114.16 Y61.065 E8.93359
G1 X114.545 Y61.165 E8.94682
G1 X115.235 Y61.366 E8.97073
G1 X115.645 Y61.5 E8.98507
G1 X116.321 Y61.743 E9.00897
G1 X116.703 Y61.893 E9.02262
G1 X117.363 Y62.175 E9.04649
G1 X117.74 Y62.349 E9.0603
G1 X118.383 Y62.67 E9.0842
G1 X118.755 Y62.87 E9.09825
G1 X119.377 Y63.229 E9.12213
G1 X119.734 Y63.45 E9.1361
G1 X120.334 Y63.846 E9.16001
G1 X120.678 Y64.088 E9.174
G1 X121.25 Y64.517 E9.19778
G1 X121.573 Y64.775 E9.21153
G1 X122.121 Y65.239 E9.23541
G1 X122.439 Y65.525 E9.24964
G1 X122.958 Y66.022 E9.27354
G1 X123.253 Y66.322 E9.28753
G1 X123.742 Y66.85 E9.31147
G1 X124.007 Y67.153 E9.32486
G1 X124.463 Y67.706 E9.3487
G1 X124.726 Y68.045 E9.36297
G1 X125.148 Y68.626 E9.38685
G1 X125.384 Y68.972 E9.40078
G1 X125.771 Y69.578 E9.42469
G1 X125.985 Y69.937 E9.4386
G1 X126.334 Y70.563 E9.46243
G1 X126.529 Y70.939 E9.47652
G1 X126.84 Y71.586 E9.5004
G1 X127.005 Y71.956 E9.51387
G1 X127.279 Y72.622 E9.53782
G1 X127.43 Y73.024 E9.55211
G1 X127.661 Y73.701 E9.5759
G1 X127.786 Y74.109 E9.59009
G1 X127.976 Y74.801 E9.61396
G1 X128.069 Y75.182 E9.627
G1 X128.22 Y75.884 E9.65089
G1 X128.299 Y76.314 E9.66543
G1 X128.406 Y77.025 E9.68934
G1 X128.456 Y77.443 E9.70334
G1 X128.52 Y78.158 E9.72722
G1 X128.545 Y78.577 E9.74118
G1 X128.566 Y79.294 E9.76504
G1 X128.566 Y79.704 E9.77867
G1 X128.545 Y80.422 E9.80257
G1 X128.52 Y80.841 E9.81653
G1 X128.456 Y81.556 E9.8404
G1 X128.406 Y81.974 E9.8544
G1 X128.299 Y82.685 E9.87832
G1 X128.223 Y83.104 E9.89248
G1 X128.073 Y83.807 E9.91639
G1 X127.974 Y84.211 E9.93022
G1 X127.783 Y84.902 E9.95407
G1 X127.659 Y85.303 E9.96803
G1 X127.427 Y85.981 E9.99186
G1 X127.281 Y86.37 E10.00568
