;FLAVOR:Marlin
;TIME:915
;Filament used: 0.56268m
;Layer height: 0.2
;MINX:95.463
;MINY:79
;MINZ:0.2
;MAXX:124.537
;MAXY:141
;MAXZ:10
;Generated with Creality Slicer 4.8.2-205
M140 S50
M105
M190 S50
M104 S200
M105
M109 S200
M82 ;absolute extrusion mode

G28 ;Home

G92 E0 ;Reset Extruder
G1 Z2.0 F3000 ;Move Z Axis up
G1 X10.1 Y20 Z0.28 F5000.0 ;Move to start position
G1 X10.1 Y200.0 Z0.28 F1500.0 E15 ;Draw the first line
G1 X10.4 Y200.0 Z0.28 F5000.0 ;Move to side a little
G1 X10.4 Y20 Z0.28 F1500.0 E30 ;Draw the second line
G92 E0 ;Reset Extruder
G1 Z2.0 F3000 ;Move Z Axis up

G92 E0
G92 E0
G1 F2100 E-5
;LAYER_COUNT:50
;LAYER:0
M107
G0 F6000 X98.029 Y82.958 Z0.2
;TYPE:SKIRT
G1 F2100 E0
G1 F1200 X98.661 Y82.264 E0.03122
G1 X99.349 Y81.627 E0.0624
G1 X100.089 Y81.051 E0.09359
G1 X100.875 Y80.539 E0.12479
G1 X101.702 Y80.097 E0.15598
G1 X102.564 Y79.727 E0.18718
G1 X103.454 Y79.431 E0.21838
G1 X104.366 Y79.213 E0.24957
G1 X105.293 Y79.072 E0.28075
G1 X106.164 Y79.013 E0.30979
G1 X106.485 Y79.004 E0.32047
G1 X106.793 Y79 E0.33071
G1 X107.756 Y79 E0.36274
G1 X108.613 Y79.011 E0.39125
G1 X109.549 Y79.064 E0.42243
G1 X110.478 Y79.197 E0.45364
G1 X111.392 Y79.409 E0.48485
G1 X112.284 Y79.698 E0.51604
G1 X113.148 Y80.061 E0.54721
G1 X113.979 Y80.497 E0.57842
G1 X114.769 Y81.002 E0.60961
G1 X115.514 Y81.573 E0.64083
G1 X116.207 Y82.204 E0.672
G1 X116.843 Y82.893 E0.70318
G1 X117.419 Y83.633 E0.73437
G1 X117.93 Y84.42 E0.76558
G1 X118.475 Y85.469 E0.8049
G1 X118.943 Y86.501 E0.84259
G1 X120.027 Y88.807 E0.92734
G1 X121.181 Y91.089 E1.01239
G1 X122.365 Y93.276 E1.09511
G1 X122.526 Y93.558 E1.10591
G1 X123.13 Y94.639 E1.14709
G1 X123.552 Y95.476 E1.17827
G1 X123.901 Y96.346 E1.20945
G1 X124.175 Y97.243 E1.24064
G1 X124.371 Y98.161 E1.27187
G1 X124.489 Y99.091 E1.30305
G1 X124.522 Y99.667 E1.32223
G1 X124.532 Y99.993 E1.33308
G1 X124.537 Y100.33 E1.34429
G1 X124.536 Y119.449 E1.98019
G1 X124.526 Y120.152 E2.00358
G1 X124.473 Y121.089 E2.03479
G1 X124.34 Y122.017 E2.06597
G1 X124.128 Y122.931 E2.09718
G1 X123.84 Y123.823 E2.12836
G1 X123.476 Y124.688 E2.15957
G1 X123.064 Y125.477 E2.18917
G1 X122.969 Y125.642 E2.19551
G1 X121.714 Y127.891 E2.28117
G1 X120.541 Y130.142 E2.36559
G1 X119.428 Y132.432 E2.45028
G1 X118.56 Y134.351 E2.52033
G1 X118.409 Y134.672 E2.53213
G1 X117.974 Y135.503 E2.56332
G1 X117.469 Y136.294 E2.59454
G1 X116.9 Y137.039 E2.62572
G1 X116.269 Y137.733 E2.65691
G1 X115.581 Y138.37 E2.6881
G1 X114.841 Y138.947 E2.71931
G1 X114.055 Y139.458 E2.75049
G1 X113.228 Y139.901 E2.78169
G1 X112.366 Y140.271 E2.81289
G1 X111.476 Y140.567 E2.84409
G1 X110.564 Y140.786 E2.87528
G1 X109.637 Y140.926 E2.90647
G1 X108.796 Y140.985 E2.93451
G1 X108.474 Y140.995 E2.94522
G1 X108.133 Y141 E2.95656
G1 X107.028 Y140.999 E2.99332
G1 X106.33 Y140.99 E3.01653
G1 X105.394 Y140.938 E3.04771
G1 X104.465 Y140.806 E3.07892
G1 X103.551 Y140.596 E3.11011
G1 X102.658 Y140.309 E3.14131
G1 X101.793 Y139.946 E3.17251
G1 X100.962 Y139.512 E3.20369
G1 X100.171 Y139.008 E3.23489
G1 X99.426 Y138.438 E3.26609
G1 X98.732 Y137.807 E3.29729
G1 X98.095 Y137.12 E3.32845
G1 X97.518 Y136.38 E3.35966
G1 X97.006 Y135.594 E3.39086
G1 X96.563 Y134.767 E3.42206
G1 X96.192 Y133.906 E3.45324
G1 X95.896 Y133.016 E3.48444
G1 X95.677 Y132.104 E3.51563
G1 X95.536 Y131.177 E3.54682
G1 X95.476 Y130.288 E3.57646
G1 X95.467 Y129.955 E3.58754
G1 X95.463 Y129.658 E3.59742
G1 X95.464 Y90.525 E4.89898
G1 X95.473 Y89.86 E4.9211
G1 X95.526 Y88.924 E4.95229
G1 X95.658 Y87.995 E4.9835
G1 X95.869 Y87.081 E5.01469
G1 X96.157 Y86.189 E5.04587
G1 X96.52 Y85.324 E5.07707
G1 X96.955 Y84.493 E5.10827
G1 X97.459 Y83.703 E5.13944
G1 X98.029 Y82.958 E5.17063
G0 F6000 X98.424 Y83.111
G1 F1200 X99.052 Y82.439 E5.20123
G1 X99.737 Y81.823 E5.23187
G1 X100.473 Y81.27 E5.26249
G1 X101.254 Y80.782 E5.29312
G1 X102.074 Y80.364 E5.32373
G1 X102.928 Y80.019 E5.35436
G1 X103.808 Y79.749 E5.38498
G1 X104.708 Y79.557 E5.41559
G1 X105.622 Y79.443 E5.44622
G1 X106.175 Y79.413 E5.46464
G1 X106.496 Y79.404 E5.47532
G1 X106.793 Y79.4 E5.4852
G1 X107.756 Y79.4 E5.51723
G1 X108.607 Y79.411 E5.54554
G1 X109.527 Y79.464 E5.57619
G1 X110.438 Y79.597 E5.60681
G1 X111.334 Y79.808 E5.63743
G1 X112.208 Y80.096 E5.66803
G1 X113.054 Y80.459 E5.69865
G1 X113.866 Y80.894 E5.72929
G1 X114.636 Y81.398 E5.7599
G1 X115.36 Y81.967 E5.79053
G1 X116.032 Y82.596 E5.82114
G1 X116.647 Y83.282 E5.85178
G1 X117.2 Y84.018 E5.8824
G1 X117.687 Y84.799 E5.91301
G1 X118.111 Y85.634 E5.94416
G1 X118.588 Y86.687 E5.98261
G1 X119.673 Y88.993 E6.06737
G1 X120.829 Y91.279 E6.15258
G1 X122.024 Y93.488 E6.23611
G1 X122.177 Y93.753 E6.24629
G1 X122.781 Y94.834 E6.28747
G1 X123.194 Y95.656 E6.31807
G1 X123.535 Y96.511 E6.34868
G1 X123.8 Y97.393 E6.37932
G1 X123.988 Y98.294 E6.40993
G1 X124.097 Y99.208 E6.44054
G1 X124.122 Y99.679 E6.45623
G1 X124.132 Y100.005 E6.46708
G1 X124.137 Y100.33 E6.47789
G1 X124.136 Y119.444 E7.11362
G1 X124.126 Y120.147 E7.13701
G1 X124.073 Y121.066 E7.16763
G1 X123.94 Y121.977 E7.19825
G1 X123.729 Y122.873 E7.22886
G1 X123.441 Y123.747 E7.25947
G1 X123.078 Y124.594 E7.29012
G1 X122.718 Y125.277 E7.3158
G1 X122.616 Y125.455 E7.32262
G1 X121.353 Y127.718 E7.40882
G1 X120.193 Y129.944 E7.49231
G1 X119.075 Y132.242 E7.5773
G1 X118.198 Y134.181 E7.64808
G1 X118.047 Y134.502 E7.65988
G1 X117.619 Y135.317 E7.6905
G1 X117.122 Y136.092 E7.72112
G1 X116.56 Y136.821 E7.75174
G1 X115.937 Y137.499 E7.78236
G1 X115.257 Y138.12 E7.81299
G1 X114.526 Y138.679 E7.8436
G1 X113.749 Y139.173 E7.87422
G1 X112.932 Y139.598 E7.90485
G1 X112.081 Y139.95 E7.93548
G1 X111.204 Y140.227 E7.96607
G1 X110.305 Y140.427 E7.9967
G1 X109.392 Y140.548 E8.02734
G1 X108.784 Y140.585 E8.0476
G1 X108.462 Y140.595 E8.05831
G1 X108.133 Y140.6 E8.06925
G1 X107.033 Y140.599 E8.10584
G1 X106.335 Y140.59 E8.12906
G1 X105.416 Y140.538 E8.15967
G1 X104.505 Y140.407 E8.19028
G1 X103.609 Y140.197 E8.22089
G1 X102.734 Y139.91 E8.25152
G1 X101.887 Y139.548 E8.28216
G1 X101.075 Y139.114 E8.31278
G1 X100.304 Y138.612 E8.34338
G1 X99.579 Y138.044 E8.37401
G1 X98.906 Y137.415 E8.40465
G1 X98.291 Y136.731 E8.43525
G1 X97.737 Y135.996 E8.46586
G1 X97.249 Y135.215 E8.49649
G1 X96.83 Y134.395 E8.52712
G1 X96.484 Y133.542 E8.55773
G1 X96.214 Y132.662 E8.58835
G1 X96.021 Y131.761 E8.61899
G1 X95.907 Y130.848 E8.6496
G1 X95.876 Y130.277 E8.66862
G1 X95.867 Y129.944 E8.6797
G1 X95.863 Y129.658 E8.68921
G1 X95.864 Y90.531 E9.99058
G1 X95.873 Y89.866 E10.0127
G1 X95.925 Y88.946 E10.04335
G1 X96.057 Y88.035 E10.07396
G1 X96.268 Y87.139 E10.10458
G1 X96.555 Y86.264 E10.13521
G1 X96.918 Y85.418 E10.16583
G1 X97.352 Y84.606 E10.19645
G1 X97.855 Y83.835 E10.22707
G1 X98.424 Y83.111 E10.25769
G0 F6000 X98.818 Y83.267
G1 F1200 X99.444 Y82.617 E10.28771
G1 X100.125 Y82.024 E10.31774
G1 X100.857 Y81.494 E10.3478
G1 X101.632 Y81.031 E10.37783
G1 X102.445 Y80.638 E10.40786
G1 X103.29 Y80.318 E10.43791
G1 X104.159 Y80.075 E10.46793
G1 X105.047 Y79.909 E10.49797
G1 X106.186 Y79.813 E10.53599
G1 X106.507 Y79.804 E10.54667
G1 X106.793 Y79.8 E10.55618
G1 X107.756 Y79.8 E10.58821
G1 X108.602 Y79.811 E10.61635
G1 X109.503 Y79.864 E10.64637
G1 X110.397 Y79.996 E10.67643
G1 X111.275 Y80.207 E10.70646
G1 X112.131 Y80.495 E10.7365
G1 X112.958 Y80.857 E10.76653
G1 X113.75 Y81.291 E10.79657
G1 X114.5 Y81.794 E10.8266
G1 X115.203 Y82.361 E10.85664
G1 X115.854 Y82.987 E10.88668
G1 X116.446 Y83.669 E10.91672
G1 X116.975 Y84.401 E10.94676
G1 X117.438 Y85.176 E10.97678
G1 X117.746 Y85.8 E10.99993
G1 X118.206 Y86.815 E11.03699
G1 X119.305 Y89.151 E11.12286
G1 X120.463 Y91.442 E11.20824
G1 X121.684 Y93.699 E11.29359
G1 X121.827 Y93.948 E11.30314
G1 X122.431 Y95.029 E11.34432
G1 X122.837 Y95.836 E11.37437
G1 X123.169 Y96.676 E11.40441
G1 X123.425 Y97.542 E11.43444
G1 X123.604 Y98.427 E11.46448
G1 X123.722 Y99.691 E11.5067
G1 X123.732 Y100.017 E11.51755
G1 X123.737 Y100.33 E11.52796
G1 X123.736 Y119.438 E12.16349
G1 X123.726 Y120.141 E12.18688
G1 X123.673 Y121.043 E12.21693
G1 X123.541 Y121.936 E12.24695
G1 X123.33 Y122.814 E12.27699
G1 X123.042 Y123.67 E12.30703
G1 X122.68 Y124.497 E12.33705
G1 X122.371 Y125.078 E12.35894
G1 X122.277 Y125.242 E12.36523
G1 X120.992 Y127.544 E12.45291
G1 X119.827 Y129.78 E12.53677
G1 X118.715 Y132.067 E12.62135
G1 X117.836 Y134.011 E12.69231
G1 X117.685 Y134.332 E12.70411
G1 X117.265 Y135.131 E12.73413
G1 X116.775 Y135.89 E12.76418
G1 X116.221 Y136.603 E12.79421
G1 X115.605 Y137.264 E12.82427
G1 X114.934 Y137.868 E12.85429
G1 X114.212 Y138.41 E12.88432
G1 X113.444 Y138.886 E12.91437
G1 X112.638 Y139.293 E12.9444
G1 X111.799 Y139.626 E12.97443
G1 X110.933 Y139.884 E13.00448
G1 X110.048 Y140.065 E13.03453
G1 X108.772 Y140.185 E13.07715
G1 X108.45 Y140.195 E13.08787
G1 X108.133 Y140.2 E13.09841
G1 X107.038 Y140.199 E13.13483
G1 X106.34 Y140.19 E13.15805
G1 X105.439 Y140.139 E13.18807
G1 X104.545 Y140.007 E13.21812
G1 X103.667 Y139.798 E13.24814
G1 X102.81 Y139.511 E13.2782
G1 X101.983 Y139.15 E13.30821
G1 X101.19 Y138.717 E13.33826
G1 X100.439 Y138.216 E13.36829
G1 X99.735 Y137.65 E13.39834
G1 X99.084 Y137.024 E13.42837
G1 X98.491 Y136.343 E13.45841
G1 X97.961 Y135.612 E13.48844
G1 X97.497 Y134.837 E13.51848
G1 X97.103 Y134.024 E13.54853
G1 X96.783 Y133.18 E13.57855
G1 X96.539 Y132.31 E13.60861
G1 X96.373 Y131.422 E13.63865
G1 X96.276 Y130.267 E13.6772
G1 X96.267 Y129.934 E13.68828
G1 X96.263 Y129.658 E13.69746
G1 X96.264 Y90.536 E14.99867
G1 X96.273 Y89.871 E15.02079
G1 X96.325 Y88.969 E15.05084
G1 X96.457 Y88.076 E15.08086
G1 X96.667 Y87.198 E15.11089
G1 X96.954 Y86.341 E15.14095
G1 X97.316 Y85.514 E15.17097
G1 X97.749 Y84.722 E15.20099
G1 X98.251 Y83.971 E15.23104
G1 X98.818 Y83.267 E15.2611
G1 F2100 E10.2611
;MESH:facade_vezetek.stl
G0 F6000 X105.798 Y90.414
G0 X106.877 Y90.414
G0 X107.863 Y118.6
;TYPE:WALL-INNER
G1 F2100 E15.2611
G1 F1200 X107.863 Y101.4 E15.83318
G1 X112.137 Y101.4 E15.97533
G1 X112.137 Y118.6 E16.54741
G1 X107.863 Y118.6 E16.68956
G0 F6000 X107.463 Y119
G1 F1200 X107.463 Y101 E17.28824
G1 X112.537 Y101 E17.457
G1 X112.537 Y119 E18.05569
G1 X107.463 Y119 E18.22445
G0 F6000 X107.863 Y129.4
G1 F1200 X107.063 Y129.4 E18.25106
G1 X107.063 Y90.6 E19.54155
G1 X107.863 Y90.6 E19.56816
G1 X107.863 Y100.6 E19.90076
G1 X112.937 Y100.6 E20.06952
G1 X112.937 Y119.4 E20.69481
G1 X107.863 Y119.4 E20.86357
G1 X107.863 Y129.4 E21.19618
G0 F6000 X108.263 Y129.8
;TYPE:WALL-OUTER
G1 F1200 X106.663 Y129.8 E21.24939
G1 X106.663 Y90.2 E22.56649
G1 X108.263 Y90.2 E22.61971
G1 X108.263 Y100.2 E22.95231
G1 X113.337 Y100.2 E23.12107
G1 X113.337 Y119.8 E23.77297
G1 X108.263 Y119.8 E23.94173
G1 X108.263 Y129.8 E24.27433
G0 F6000 X107.993 Y129.53
G0 X107.973 Y118.21
G0 X108.253 Y118.21
;TYPE:SKIN
G1 F1200 X108.253 Y101.79 E24.82047
G1 X111.747 Y101.79 E24.93668
G1 X111.747 Y118.21 E25.48281
G1 X108.253 Y118.21 E25.59902
G0 F6000 X108.998 Y118.049
G1 F1200 X108.412 Y117.463 E25.62658
G0 F6000 X108.412 Y116.898
G1 F1200 X109.564 Y118.049 E25.68075
G0 F6000 X110.129 Y118.049
G1 F1200 X108.412 Y116.332 E25.76151
G0 F6000 X108.412 Y115.766
G1 F1200 X110.695 Y118.049 E25.86889
G0 F6000 X111.261 Y118.049
G1 F1200 X108.412 Y115.201 E26.00288
G0 F6000 X108.412 Y114.635
G1 F1200 X111.586 Y117.808 E26.15215
G0 F6000 X111.586 Y117.243
G1 F1200 X108.412 Y114.069 E26.30145
G0 F6000 X108.412 Y113.504
G1 F1200 X111.586 Y116.677 E26.45072
G0 F6000 X111.586 Y116.111
G1 F1200 X108.412 Y112.938 E26.59999
G0 F6000 X108.412 Y112.372
G1 F1200 X111.586 Y115.546 E26.74928
G0 F6000 X111.586 Y114.98
G1 F1200 X108.412 Y111.807 E26.89856
G0 F6000 X108.412 Y111.241
G1 F1200 X111.586 Y114.414 E27.04783
G0 F6000 X111.586 Y113.849
G1 F1200 X108.412 Y110.675 E27.19712
G0 F6000 X108.412 Y110.109
G1 F1200 X111.586 Y113.283 E27.34642
G0 F6000 X111.586 Y112.717
G1 F1200 X108.412 Y109.544 E27.49569
G0 F6000 X108.412 Y108.978
G1 F1200 X111.586 Y112.152 E27.64498
G0 F6000 X111.586 Y111.586
G1 F1200 X108.412 Y108.412 E27.79428
G0 F6000 X108.412 Y107.847
G1 F1200 X111.586 Y111.02 E27.94355
G0 F6000 X111.586 Y110.455
G1 F1200 X108.412 Y107.281 E28.09285
G0 F6000 X108.412 Y106.715
G1 F1200 X111.586 Y109.889 E28.24214
G0 F6000 X111.586 Y109.323
G1 F1200 X108.412 Y106.15 E28.39141
G0 F6000 X108.412 Y105.584
G1 F1200 X111.586 Y108.757 E28.54069
G0 F6000 X111.586 Y108.192
G1 F1200 X108.412 Y105.018 E28.68998
G0 F6000 X108.412 Y104.453
G1 F1200 X111.586 Y107.626 E28.83925
G0 F6000 X111.586 Y107.06
G1 F1200 X108.412 Y103.887 E28.98852
G0 F6000 X108.412 Y103.321
G1 F1200 X111.586 Y106.495 E29.13782
G0 F6000 X111.586 Y105.929
G1 F1200 X108.412 Y102.756 E29.28709
G0 F6000 X108.412 Y102.19
G1 F1200 X111.586 Y105.363 E29.43636
G0 F6000 X111.586 Y104.798
G1 F1200 X108.738 Y101.949 E29.57035
G0 F6000 X109.303 Y101.949
G1 F1200 X111.586 Y104.232 E29.67773
G0 F6000 X111.586 Y103.666
G1 F1200 X109.869 Y101.949 E29.7585
G0 F6000 X110.435 Y101.949
G1 F1200 X111.586 Y103.101 E29.81266
G0 F6000 X111.586 Y102.535
G1 F1200 X111 Y101.949 E29.84022
G0 F6000 X111 Y101.51
G0 X107.628 Y100.839
G0 X107.432 Y100.644
;TYPE:SKIN
G1 F1200 X107.462 Y100.391 E29.85018
G1 X107.462 Y91.057 E30.21484
G1 X107.574 Y90.886 E30.22283
G0 F6000 X107.687 Y90.999
G0 X107.237 Y100.732
G1 F1200 X107.345 Y100.839 E30.22536
G0 F6000 X107.28 Y119.159
G0 X107.484 Y119.363
G1 F1200 X107.625 Y119.221 E30.23286
G1 X107.462 Y119.907 E30.25929
G1 X107.462 Y128.958 E30.59859
G1 X107.34 Y129.119 E30.60616
G0 F6000 X107.444 Y129.2
G1 F2100 E25.60616
;MESH:NONMESH
G0 F300 X107.444 Y129.2 Z0.4
G0 F6000 X107.863 Y118.6
;TIME_ELAPSED:56.524931
;LAYER:1
M106 S85
;TYPE:WALL-INNER
;MESH:facade_vezetek.stl
G1 F2100 E30.60616
G1 F1350 X107.863 Y101.4 E31.17823
G1 X112.137 Y101.4 E31.32039
G1 X112.137 Y118.6 E31.89246
G1 X107.863 Y118.6 E32.03461
G0 F5700 X107.463 Y119
G1 F1350 X107.463 Y101 E32.6333
G1 X112.537 Y101 E32.80206
G1 X112.537 Y119 E33.40074
G1 X107.463 Y119 E33.5695
G0 F5700 X107.863 Y129.4
G1 F1350 X107.063 Y129.4 E33.59611
G1 X107.063 Y90.6 E34.8866
G1 X107.863 Y90.6 E34.91321
G1 X107.863 Y100.6 E35.24581
G1 X112.937 Y100.6 E35.41458
G1 X112.937 Y119.4 E36.03987
G1 X107.863 Y119.4 E36.20863
G1 X107.863 Y129.4 E36.54123
G0 F5700 X108.263 Y129.8
;TYPE:WALL-OUTER
G1 F1350 X106.663 Y129.8 E36.59445
G1 X106.663 Y90.2 E37.91155
G1 X108.263 Y90.2 E37.96476
G1 X108.263 Y100.2 E38.29736
G1 X113.337 Y100.2 E38.46613
G1 X113.337 Y119.8 E39.11803
G1 X108.263 Y119.8 E39.28679
G1 X108.263 Y129.8 E39.61939
G0 F5700 X107.993 Y129.53
G0 X107.973 Y118.21
G0 X108.253 Y118.21
;TYPE:SKIN
G1 F1350 X108.253 Y101.79 E40.16552
G1 X111.747 Y101.79 E40.28173
G1 X111.747 Y118.21 E40.82786
G1 X108.253 Y118.21 E40.94407
G0 F5700 X107.973 Y118.21
G0 X111.053 Y118.49
G0 X111.053 Y118.049
G1 F1350 X111.586 Y117.516 E40.96914
G0 F5700 X111.586 Y116.95
G1 F1350 X110.487 Y118.049 E41.02084
G0 F5700 X109.921 Y118.049
G1 F1350 X111.586 Y116.384 E41.09915
G0 F5700 X111.586 Y115.819
G1 F1350 X109.356 Y118.049 E41.20405
G0 F5700 X108.79 Y118.049
G1 F1350 X111.586 Y115.253 E41.33556
G0 F5700 X111.586 Y114.687
G1 F1350 X108.412 Y117.861 E41.48486
G0 F5700 X108.412 Y117.295
G1 F1350 X111.586 Y114.122 E41.63413
G0 F5700 X111.586 Y113.556
G1 F1350 X108.412 Y116.729 E41.7834
G0 F5700 X108.412 Y116.164
G1 F1350 X111.586 Y112.99 E41.9327
G0 F5700 X111.586 Y112.425
G1 F1350 X108.412 Y115.598 E42.08197
G0 F5700 X108.412 Y115.032
G1 F1350 X111.586 Y111.859 E42.23124
G0 F5700 X111.586 Y111.293
G1 F1350 X108.412 Y114.467 E42.38053
G0 F5700 X108.412 Y113.901
G1 F1350 X111.586 Y110.727 E42.52983
G0 F5700 X111.586 Y110.162
G1 F1350 X108.412 Y113.335 E42.6791
G0 F5700 X108.412 Y112.77
