;FLAVOR:Marlin
;TIME:9908
;Filament used: 6.0483m
;Layer height: 0.2
;MINX:63.463
;MINY:70.962
;MINZ:0.2
;MAXX:156.537
;MAXY:149.037
;MAXZ:10
;Generated with Creality Slicer 4.8.2-205
M140 S50
M105
M190 S50
M104 S200
M105
M109 S200
M82 ;absolute extrusion mode

G28 ;Home

G92 E0 ;Reset Extruder
G1 Z2.0 F3000 ;Move Z Axis up
G1 X10.1 Y20 Z0.28 F5000.0 ;Move to start position
G1 X10.1 Y200.0 Z0.28 F1500.0 E15 ;Draw the first line
G1 X10.4 Y200.0 Z0.28 F5000.0 ;Move to side a little
G1 X10.4 Y20 Z0.28 F1500.0 E30 ;Draw the second line
G92 E0 ;Reset Extruder
G1 Z2.0 F3000 ;Move Z Axis up

G92 E0
G92 E0
G1 F2100 E-5
;LAYER_COUNT:50
;LAYER:0
M107
G0 F6000 X67.362 Y81.615 Z0.2
;TYPE:SKIRT
G1 F2100 E0
G1 F1200 X68.103 Y81.04 E0.0312
G1 X68.89 Y80.53 E0.06239
G1 X69.718 Y80.089 E0.09359
G1 X70.58 Y79.72 E0.12478
G1 X71.47 Y79.426 E0.15595
G1 X72.452 Y79.195 E0.1895
G1 X75.066 Y78.706 E0.27795
G1 X77.48 Y78.183 E0.36011
G1 X79.949 Y77.575 E0.44468
G1 X82.39 Y76.9 E0.52891
G1 X84.775 Y76.168 E0.61189
G1 X87.174 Y75.356 E0.69613
G1 X89.553 Y74.474 E0.78052
G1 X91.844 Y73.551 E0.86267
G1 X94.261 Y72.497 E0.95037
G1 X95.47 Y71.95 E0.9945
G1 X96.34 Y71.601 E1.02568
G1 X97.626 Y71.233 E1.07017
G1 X98.549 Y71.069 E1.10135
G1 X99.701 Y70.975 E1.13979
G1 X100.019 Y70.966 E1.15038
G1 X100.33 Y70.962 E1.16072
G1 X119.293 Y70.962 E1.79143
G1 X120.152 Y70.973 E1.82001
G1 X121.089 Y71.026 E1.85122
G1 X122.017 Y71.159 E1.8824
G1 X122.931 Y71.371 E1.91361
G1 X123.823 Y71.659 E1.94478
G1 X124.937 Y72.144 E1.98519
G1 X125.98 Y72.67 E2.02405
G1 X126.516 Y72.95 E2.04416
G1 X128.801 Y74.061 E2.12867
G1 X131.111 Y75.105 E2.21298
G1 X133.376 Y76.053 E2.29465
G1 X135.788 Y76.984 E2.38064
G1 X138.147 Y77.815 E2.46383
G1 X140.503 Y78.572 E2.54613
G1 X143.083 Y79.322 E2.63549
G1 X143.392 Y79.408 E2.64616
G1 X144.284 Y79.697 E2.67735
G1 X145.149 Y80.061 E2.70856
G1 X145.979 Y80.497 E2.73975
G1 X146.769 Y81.002 E2.77093
G1 X147.514 Y81.572 E2.80213
G1 X148.207 Y82.204 E2.83333
G1 X148.843 Y82.893 E2.86451
G1 X149.419 Y83.633 E2.8957
G1 X149.929 Y84.42 E2.92689
G1 X150.473 Y85.465 E2.96608
G1 X150.951 Y86.519 E3.00457
G1 X152.035 Y88.822 E3.08923
G1 X153.172 Y91.074 E3.17314
G1 X154.361 Y93.271 E3.25622
G1 X154.533 Y93.569 E3.26767
G1 X155.132 Y94.642 E3.30854
G1 X155.554 Y95.48 E3.33975
G1 X155.902 Y96.35 E3.37091
G1 X156.176 Y97.247 E3.40211
G1 X156.372 Y98.165 E3.43333
G1 X156.489 Y99.095 E3.4645
G1 X156.522 Y99.667 E3.48356
G1 X156.532 Y99.993 E3.49441
G1 X156.537 Y100.33 E3.50562
G1 X156.536 Y119.449 E4.14152
G1 X156.526 Y120.152 E4.1649
G1 X156.473 Y121.089 E4.19612
G1 X156.34 Y122.017 E4.2273
G1 X156.128 Y122.931 E4.25851
G1 X155.84 Y123.823 E4.28968
G1 X155.476 Y124.688 E4.3209
G1 X155.067 Y125.471 E4.35028
G1 X154.981 Y125.621 E4.35603
G1 X153.709 Y127.9 E4.44283
G1 X152.529 Y130.164 E4.52775
G1 X151.429 Y132.429 E4.6115
G1 X150.576 Y134.314 E4.68031
G1 X150.418 Y134.652 E4.69272
G1 X149.985 Y135.484 E4.72392
G1 X149.483 Y136.276 E4.75511
G1 X148.915 Y137.022 E4.78629
G1 X148.285 Y137.718 E4.81752
G1 X147.599 Y138.357 E4.8487
G1 X146.626 Y139.099 E4.8894
G1 X146.185 Y139.398 E4.90712
G1 X144.125 Y140.835 E4.99066
G1 X142.098 Y142.336 E5.07455
G1 X140.095 Y143.908 E5.15923
G1 X138.132 Y145.542 E5.24418
G1 X137.15 Y146.383 E5.28719
G1 X136.412 Y146.962 E5.31838
G1 X135.628 Y147.476 E5.34956
G1 X134.802 Y147.921 E5.38077
G1 X133.942 Y148.295 E5.41196
G1 X133.053 Y148.594 E5.44316
G1 X132.142 Y148.816 E5.47434
G1 X131.215 Y148.959 E5.50554
G1 X130.333 Y149.022 E5.53495
G1 X130.007 Y149.032 E5.5458
G1 X129.67 Y149.037 E5.55701
G1 X90.551 Y149.036 E6.85811
G1 X89.847 Y149.026 E6.88153
G1 X88.91 Y148.973 E6.91274
G1 X87.982 Y148.84 E6.94393
G1 X87.068 Y148.628 E6.97513
G1 X86.176 Y148.34 E7.00631
G1 X85.311 Y147.976 E7.03752
G1 X84.234 Y147.393 E7.07825
G1 X83.166 Y146.735 E7.11998
G1 X80.902 Y145.386 E7.20763
G1 X78.737 Y144.177 E7.29011
G1 X76.486 Y143.003 E7.37455
G1 X74.217 Y141.899 E7.45847
G1 X71.943 Y140.871 E7.54148
G1 X70.855 Y140.416 E7.5807
G1 X70.085 Y140.081 E7.60863
G1 X69.241 Y139.67 E7.63985
G1 X68.436 Y139.189 E7.67104
G1 X67.675 Y138.642 E7.70221
G1 X66.963 Y138.031 E7.73342
G1 X66.305 Y137.362 E7.76463
G1 X65.708 Y136.64 E7.79579
G1 X65.173 Y135.869 E7.827
G1 X64.707 Y135.055 E7.8582
G1 X64.311 Y134.205 E7.88939
G1 X63.989 Y133.324 E7.92058
G1 X63.744 Y132.419 E7.95177
G1 X63.576 Y131.496 E7.98297
G1 X63.478 Y130.319 E8.02225
G1 X63.468 Y129.981 E8.0335
G1 X63.463 Y129.656 E8.04431
G1 X63.464 Y90.509 E9.34635
G1 X63.474 Y89.843 E9.3685
G1 X63.528 Y88.907 E9.39968
G1 X63.662 Y87.978 E9.4309
G1 X63.874 Y87.065 E9.46208
G1 X64.163 Y86.173 E9.49326
G1 X64.528 Y85.308 E9.52449
G1 X64.964 Y84.478 E9.55567
G1 X65.47 Y83.688 E9.58687
G1 X66.041 Y82.944 E9.61807
G1 X66.673 Y82.252 E9.64924
G1 X67.362 Y81.615 E9.68045
G0 F6000 X67.751 Y81.812
G1 F1200 X68.487 Y81.26 E9.71105
G1 X69.269 Y80.774 E9.74167
G1 X70.09 Y80.357 E9.7723
G1 X70.944 Y80.013 E9.80292
G1 X71.824 Y79.744 E9.83353
G1 X72.525 Y79.588 E9.85741
G1 X75.159 Y79.096 E9.94653
G1 X77.555 Y78.576 E10.02808
G1 X80.07 Y77.957 E10.11423
G1 X82.486 Y77.289 E10.1976
G1 X84.916 Y76.543 E10.28214
G1 X87.293 Y75.738 E10.36561
G1 X89.693 Y74.849 E10.45074
G1 X92.017 Y73.912 E10.53408
G1 X94.438 Y72.857 E10.62192
G1 X95.635 Y72.315 E10.66562
G1 X96.489 Y71.972 E10.69623
G1 X97.713 Y71.623 E10.73856
G1 X98.619 Y71.463 E10.76916
G1 X99.712 Y71.375 E10.80563
G1 X100.03 Y71.366 E10.81621
G1 X100.33 Y71.362 E10.82619
G1 X119.293 Y71.362 E11.4569
G1 X120.147 Y71.373 E11.48531
G1 X121.066 Y71.426 E11.51593
G1 X121.977 Y71.559 E11.54655
G1 X122.873 Y71.77 E11.57716
G1 X123.747 Y72.058 E11.60777
G1 X124.758 Y72.502 E11.6445
G1 X125.795 Y73.025 E11.68313
G1 X126.335 Y73.307 E11.70339
G1 X128.64 Y74.428 E11.78864
G1 X130.897 Y75.448 E11.87102
G1 X133.287 Y76.448 E11.95719
G1 X135.648 Y77.359 E12.04136
G1 X137.997 Y78.187 E12.1242
G1 X140.384 Y78.954 E12.20759
G1 X143.016 Y79.719 E12.29875
G1 X143.285 Y79.794 E12.30804
G1 X144.161 Y80.078 E12.33867
G1 X145.009 Y80.437 E12.36929
G1 X145.822 Y80.868 E12.3999
G1 X146.595 Y81.368 E12.43052
G1 X147.322 Y81.934 E12.46116
G1 X147.996 Y82.56 E12.49176
G1 X148.614 Y83.242 E12.52237
G1 X149.171 Y83.976 E12.55302
G1 X149.661 Y84.755 E12.58362
G1 X150.108 Y85.63 E12.61631
G1 X150.563 Y86.633 E12.65294
G1 X151.673 Y88.993 E12.73968
G1 X152.821 Y91.266 E12.82438
G1 X154.014 Y93.471 E12.90776
G1 X154.183 Y93.764 E12.91901
G1 X154.782 Y94.837 E12.95988
G1 X155.196 Y95.66 E12.99052
G1 X155.536 Y96.515 E13.02113
G1 X155.801 Y97.397 E13.05176
G1 X155.989 Y98.298 E13.08237
G1 X156.097 Y99.212 E13.11298
G1 X156.122 Y99.679 E13.12854
G1 X156.132 Y100.005 E13.13938
G1 X156.137 Y100.33 E13.1502
G1 X156.136 Y119.444 E13.78593
G1 X156.126 Y120.147 E13.80931
G1 X156.073 Y121.066 E13.83993
G1 X155.94 Y121.977 E13.87055
G1 X155.729 Y122.873 E13.90117
G1 X155.441 Y123.747 E13.93178
G1 X155.078 Y124.594 E13.96242
G1 X154.721 Y125.272 E13.98791
G1 X154.607 Y125.47 E13.99551
G1 X153.348 Y127.727 E14.08147
G1 X152.187 Y129.955 E14.16503
G1 X151.063 Y132.268 E14.25056
G1 X150.214 Y134.145 E14.31908
G1 X150.056 Y134.483 E14.33149
G1 X149.63 Y135.299 E14.36211
G1 X149.135 Y136.075 E14.39272
G1 X148.575 Y136.806 E14.42335
G1 X147.953 Y137.485 E14.45397
G1 X147.275 Y138.107 E14.48458
G1 X146.402 Y138.768 E14.521
G1 X145.961 Y139.067 E14.53872
G1 X143.888 Y140.513 E14.62278
G1 X141.836 Y142.032 E14.7077
G1 X139.877 Y143.571 E14.79056
G1 X137.823 Y145.28 E14.87943
G1 X136.89 Y146.079 E14.92028
G1 X136.165 Y146.647 E14.95092
G1 X135.394 Y147.15 E14.98153
G1 X134.582 Y147.584 E15.01216
G1 X133.735 Y147.946 E15.04279
G1 X132.861 Y148.233 E15.07339
G1 X131.964 Y148.443 E15.10403
G1 X131.053 Y148.574 E15.13464
G1 X130.321 Y148.622 E15.15904
G1 X129.995 Y148.632 E15.16989
G1 X129.67 Y148.637 E15.1807
G1 X90.556 Y148.636 E16.48164
G1 X89.852 Y148.626 E16.50505
G1 X88.933 Y148.573 E16.53567
G1 X88.022 Y148.44 E16.56629
G1 X87.126 Y148.229 E16.59691
G1 X86.252 Y147.941 E16.62751
G1 X85.406 Y147.578 E16.65813
G1 X84.444 Y147.052 E16.6946
G1 X83.375 Y146.394 E16.73635
G1 X81.123 Y145.052 E16.82354
G1 X78.911 Y143.816 E16.90782
G1 X76.668 Y142.646 E16.99196
G1 X74.378 Y141.533 E17.07665
G1 X72.096 Y140.501 E17.15995
G1 X71.014 Y140.049 E17.19895
G1 X70.244 Y139.714 E17.22688
G1 X69.417 Y139.31 E17.25749
G1 X68.627 Y138.836 E17.28813
G1 X67.882 Y138.296 E17.31874
G1 X67.187 Y137.693 E17.34934
G1 X66.546 Y137.031 E17.37999
G1 X65.965 Y136.317 E17.41061
G1 X65.449 Y135.555 E17.44122
G1 X65 Y134.751 E17.47184
G1 X64.623 Y133.911 E17.50247
G1 X64.321 Y133.042 E17.53307
G1 X64.094 Y132.149 E17.56371
G1 X63.947 Y131.24 E17.59434
G1 X63.878 Y130.307 E17.62545
G1 X63.868 Y129.969 E17.6367
G1 X63.863 Y129.656 E17.64711
G1 X63.864 Y90.515 E18.94895
G1 X63.874 Y89.849 E18.9711
G1 X63.928 Y88.93 E19.00172
G1 X64.061 Y88.019 E19.03234
G1 X64.273 Y87.123 E19.06297
G1 X64.562 Y86.249 E19.09358
G1 X64.926 Y85.403 E19.12422
G1 X65.361 Y84.592 E19.15482
G1 X65.866 Y83.822 E19.18545
G1 X66.435 Y83.098 E19.21608
G1 X67.065 Y82.427 E19.24669
G1 X67.751 Y81.812 E19.27733
G0 F6000 X68.138 Y82.014
G1 F1200 X68.87 Y81.485 E19.30737
G1 X69.646 Y81.022 E19.33743
G1 X70.46 Y80.631 E19.36746
G1 X71.305 Y80.312 E19.3975
G1 X72.599 Y79.982 E19.44192
G1 X75.213 Y79.493 E19.53037
G1 X77.656 Y78.964 E19.61351
G1 X80.143 Y78.351 E19.6987
G1 X82.628 Y77.664 E19.78445
G1 X85.024 Y76.929 E19.86781
G1 X87.424 Y76.116 E19.95209
G1 X89.845 Y75.219 E20.03796
G1 X92.178 Y74.279 E20.12162
G1 X94.552 Y73.244 E20.20776
G1 X95.8 Y72.679 E20.25332
G1 X96.638 Y72.344 E20.28334
G1 X97.799 Y72.014 E20.32348
G1 X98.689 Y71.857 E20.35354
G1 X99.723 Y71.775 E20.38804
G1 X100.041 Y71.766 E20.39862
G1 X100.33 Y71.762 E20.40823
G1 X119.293 Y71.762 E21.03895
G1 X120.141 Y71.773 E21.06715
G1 X121.043 Y71.826 E21.0972
G1 X121.936 Y71.958 E21.12723
G1 X122.814 Y72.169 E21.15726
G1 X123.67 Y72.457 E21.1873
G1 X124.578 Y72.859 E21.22033
G1 X125.61 Y73.379 E21.25876
G1 X126.182 Y73.677 E21.28022
G1 X128.45 Y74.78 E21.3641
G1 X130.757 Y75.823 E21.44831
G1 X133.125 Y76.814 E21.53369
G1 X135.508 Y77.734 E21.61865
G1 X137.846 Y78.558 E21.7011
G1 X140.33 Y79.356 E21.78787
G1 X142.799 Y80.074 E21.87339
G1 X143.178 Y80.179 E21.88647
G1 X144.037 Y80.459 E21.91652
G1 X144.868 Y80.813 E21.94657
G1 X145.664 Y81.239 E21.9766
G1 X146.419 Y81.734 E22.00662
G1 X147.128 Y82.294 E22.03667
G1 X147.784 Y82.915 E22.06672
G1 X148.383 Y83.591 E22.09676
G1 X148.919 Y84.317 E22.12677
G1 X149.39 Y85.088 E22.15682
G1 X149.744 Y85.795 E22.18312
G1 X150.227 Y86.86 E22.22202
G1 X151.305 Y89.151 E22.30623
G1 X152.463 Y91.444 E22.39167
G1 X153.675 Y93.682 E22.47632
G1 X153.834 Y93.959 E22.48694
G1 X154.433 Y95.032 E22.52781
G1 X154.838 Y95.839 E22.55784
G1 X155.17 Y96.679 E22.58789
G1 X155.426 Y97.545 E22.61792
G1 X155.605 Y98.431 E22.64799
G1 X155.722 Y99.691 E22.69007
G1 X155.732 Y100.017 E22.70092
G1 X155.737 Y100.33 E22.71133
G1 X155.736 Y119.438 E23.34687
G1 X155.726 Y120.141 E23.37025
G1 X155.673 Y121.043 E23.4003
G1 X155.541 Y121.936 E23.43033
G1 X155.33 Y122.814 E23.46036
G1 X155.042 Y123.67 E23.4904
G1 X154.68 Y124.497 E23.52043
G1 X154.374 Y125.073 E23.54212
G1 X154.269 Y125.256 E23.54914
G1 X152.987 Y127.553 E23.63663
G1 X151.83 Y129.774 E23.71992
G1 X150.703 Y132.094 E23.80571
G1 X149.851 Y133.975 E23.87439
G1 X149.693 Y134.313 E23.8868
G1 X149.275 Y135.114 E23.91685
G1 X148.788 Y135.874 E23.94687
G1 X148.235 Y136.588 E23.97691
G1 X147.621 Y137.251 E24.00697
G1 X146.951 Y137.856 E24.03699
G1 X146.177 Y138.436 E24.06916
G1 X145.809 Y138.686 E24.08396
G1 X143.65 Y140.191 E24.17149
G1 X141.619 Y141.695 E24.25555
G1 X139.598 Y143.282 E24.34101
G1 X137.592 Y144.952 E24.42783
G1 X136.63 Y145.775 E24.46993
G1 X135.918 Y146.332 E24.5
G1 X135.161 Y146.823 E24.53001
G1 X134.362 Y147.245 E24.56007
G1 X133.53 Y147.595 E24.59009
G1 X132.67 Y147.87 E24.62012
G1 X131.788 Y148.068 E24.65018
G1 X130.893 Y148.187 E24.68021
G1 X130.309 Y148.222 E24.69967
G1 X129.983 Y148.232 E24.71052
G1 X129.67 Y148.237 E24.72093
G1 X90.562 Y148.236 E26.02167
G1 X89.858 Y148.226 E26.04509
G1 X88.957 Y148.173 E26.07511
G1 X88.063 Y148.041 E26.10516
G1 X87.185 Y147.83 E26.1352
G1 X86.329 Y147.542 E26.16524
G1 X85.502 Y147.18 E26.19526
G1 X84.654 Y146.712 E26.22748
G1 X83.534 Y146.022 E26.27123
G1 X81.343 Y144.717 E26.35605
G1 X79.084 Y143.455 E26.44211
G1 X76.849 Y142.289 E26.52596
G1 X74.568 Y141.18 E26.61032
G1 X72.249 Y140.132 E26.69496
G1 X71.174 Y139.682 E26.73372
G1 X70.404 Y139.347 E26.76165
G1 X69.592 Y138.951 E26.79169
G1 X68.819 Y138.484 E26.82173
G1 X68.091 Y137.95 E26.85176
G1 X67.412 Y137.355 E26.88179
G1 X66.788 Y136.701 E26.91185
G1 X66.225 Y135.995 E26.94189
G1 X65.727 Y135.242 E26.97191
G1 X65.297 Y134.448 E27.00195
G1 X64.939 Y133.619 E27.03198
G1 X64.656 Y132.761 E27.06203
G1 X64.449 Y131.882 E27.09206
G1 X64.322 Y130.988 E27.1221
G1 X64.277 Y130.296 E27.14516
G1 X64.267 Y129.958 E27.15641
G1 X64.263 Y129.656 E27.16645
G1 X64.264 Y90.521 E28.46809
G1 X64.274 Y89.855 E28.49024
G1 X64.328 Y88.953 E28.5203
G1 X64.461 Y88.06 E28.55033
G1 X64.672 Y87.182 E28.58036
G1 X64.961 Y86.326 E28.61041
G1 X65.324 Y85.499 E28.64045
G1 X65.758 Y84.708 E28.67046
G1 X66.261 Y83.958 E28.70049
G1 X66.829 Y83.255 E28.73055
G1 X67.456 Y82.605 E28.76059
G1 X68.138 Y82.014 E28.79061
G1 F2100 E23.79061
;MESH:facade_vezetek.stl(9)
G0 F6000 X74.877 Y89.335
G0 X74.877 Y90.414
G0 X75.863 Y118.6
;TYPE:WALL-INNER
G1 F2100 E28.79061
G1 F1200 X75.863 Y101.4 E29.36268
G1 X80.138 Y101.4 E29.50487
G1 X80.138 Y118.6 E30.07694
G1 X75.863 Y118.6 E30.21913
G0 F6000 X75.463 Y119
G1 F1200 X75.463 Y101 E30.81781
G1 X80.538 Y101 E30.98661
G1 X80.538 Y119 E31.58529
G1 X75.463 Y119 E31.75409
G0 F6000 X75.863 Y129.4
G1 F1200 X75.063 Y129.4 E31.78069
G1 X75.063 Y90.6 E33.07119
G1 X75.863 Y90.6 E33.09779
G1 X75.863 Y100.6 E33.4304
G1 X80.938 Y100.6 E33.59919
G1 X80.938 Y119.4 E34.22448
G1 X75.863 Y119.4 E34.39328
G1 X75.863 Y129.4 E34.72588
G0 F6000 X76.263 Y129.8
;TYPE:WALL-OUTER
G1 F1200 X74.663 Y129.8 E34.77909
G1 X74.663 Y90.2 E36.0962
G1 X76.263 Y90.2 E36.14941
G1 X76.263 Y100.2 E36.48201
G1 X81.338 Y100.2 E36.65081
G1 X81.338 Y119.8 E37.30271
G1 X76.263 Y119.8 E37.4715
G1 X76.263 Y129.8 E37.8041
G0 F6000 X75.993 Y129.53
G0 X75.973 Y118.21
G0 X76.253 Y118.21
;TYPE:SKIN
G1 F1200 X76.253 Y101.79 E38.35024
G1 X79.748 Y101.79 E38.46648
G1 X79.748 Y118.21 E39.01261
G1 X76.253 Y118.21 E39.12886
G0 F6000 X76.754 Y118.049
G1 F1200 X76.412 Y117.707 E39.14494
G0 F6000 X76.412 Y117.142
G1 F1200 X77.32 Y118.049 E39.18763
G0 F6000 X77.885 Y118.049
G1 F1200 X76.412 Y116.576 E39.25691
G0 F6000 X76.412 Y116.01
G1 F1200 X78.451 Y118.049 E39.35282
G0 F6000 X79.017 Y118.049
G1 F1200 X76.412 Y115.445 E39.47533
G0 F6000 X76.412 Y114.879
G1 F1200 X79.582 Y118.049 E39.62444
G0 F6000 X79.588 Y117.489
G1 F1200 X76.412 Y114.313 E39.77383
G0 F6000 X76.412 Y113.748
G1 F1200 X79.588 Y116.923 E39.92319
G0 F6000 X79.588 Y116.357
G1 F1200 X76.412 Y113.182 E40.07256
G0 F6000 X76.412 Y112.616
G1 F1200 X79.588 Y115.792 E40.22195
G0 F6000 X79.588 Y115.226
G1 F1200 X76.412 Y112.05 E40.37134
G0 F6000 X76.412 Y111.485
G1 F1200 X79.588 Y114.66 E40.5207
G0 F6000 X79.588 Y114.095
G1 F1200 X76.412 Y110.919 E40.67009
G0 F6000 X76.412 Y110.353
G1 F1200 X79.588 Y113.529 E40.81948
G0 F6000 X79.588 Y112.963
G1 F1200 X76.412 Y109.788 E40.96885
G0 F6000 X76.412 Y109.222
G1 F1200 X79.588 Y112.398 E41.11824
G0 F6000 X79.588 Y111.832
G1 F1200 X76.412 Y108.656 E41.26762
G0 F6000 X76.412 Y108.091
G1 F1200 X79.588 Y111.266 E41.41699
