;FLAVOR:Marlin
;TIME:3855
;Filament used: 2.36321m
;Layer height: 0.2
;MINX:76.719
;MINY:76.351
;MINZ:0.2
;MAXX:143.29
;MAXY:143.648
;MAXZ:6
;Generated with Creality Slicer 4.8.2-205
M140 S50
M105
M190 S50
M104 S200
M105
M109 S200
M82 ;absolute extrusion mode

G28 ;Home

G92 E0 ;Reset Extruder
G1 Z2.0 F3000 ;Move Z Axis up
G1 X10.1 Y20 Z0.28 F5000.0 ;Move to start position
G1 X10.1 Y200.0 Z0.28 F1500.0 E15 ;Draw the first line
G1 X10.4 Y200.0 Z0.28 F5000.0 ;Move to side a little
G1 X10.4 Y20 Z0.28 F1500.0 E30 ;Draw the second line
G92 E0 ;Reset Extruder
G1 Z2.0 F3000 ;Move Z Axis up

G92 E0
G92 E0
G1 F2100 E-5
;LAYER_COUNT:30
;LAYER:0
M107
G0 F6000 X86.545 Y87.114 Z0.2
;TYPE:SKIRT
G1 F2100 E0
G1 F1200 X86.923 Y86.747 E0.01752
G1 X87.652 Y86.099 E0.04996
G1 X87.854 Y85.935 E0.05862
G1 X88.282 Y85.605 E0.07659
G1 X88.941 Y85.122 E0.10377
G1 X90.575 Y83.954 E0.17057
G1 X91.173 Y83.538 E0.1948
G1 X92.036 Y82.995 E0.22871
G1 X92.142 Y82.935 E0.23277
G1 X92.474 Y82.755 E0.24533
G1 X92.752 Y82.61 E0.25575
G1 X93.267 Y82.358 E0.27482
G1 X94.151 Y81.954 E0.30715
G1 X94.449 Y81.823 E0.31798
G1 X94.8 Y81.675 E0.33065
G1 X95.17 Y81.527 E0.3439
G1 X96.582 Y80.991 E0.39414
G1 X96.772 Y80.921 E0.40087
G1 X98.242 Y80.394 E0.45281
G1 X100.542 Y79.494 E0.53496
G1 X102.941 Y78.476 E0.62163
G1 X104.352 Y77.84 E0.67311
G1 X105.378 Y77.366 E0.7107
G1 X106.245 Y77.009 E0.74189
G1 X107.14 Y76.727 E0.7731
G1 X108.055 Y76.523 E0.80428
G1 X108.985 Y76.397 E0.83549
G1 X109.921 Y76.351 E0.86666
G1 X110.859 Y76.385 E0.89788
G1 X111.79 Y76.499 E0.92908
G1 X112.707 Y76.691 E0.96024
G1 X113.606 Y76.961 E0.99146
G1 X114.578 Y77.352 E1.0263
G1 X117.043 Y78.483 E1.11651
G1 X119.33 Y79.454 E1.19915
G1 X122.947 Y80.843 E1.32801
G1 X123.896 Y81.185 E1.36156
G1 X124.107 Y81.263 E1.36905
G1 X124.813 Y81.535 E1.39421
G1 X125.095 Y81.647 E1.4043
G1 X125.326 Y81.742 E1.41261
G1 X125.883 Y81.978 E1.43273
G1 X126.352 Y82.189 E1.44983
G1 X126.68 Y82.35 E1.46199
G1 X127.36 Y82.696 E1.48736
G1 X127.723 Y82.889 E1.50104
G1 X128.26 Y83.188 E1.52148
G1 X128.865 Y83.551 E1.54495
G1 X129.078 Y83.688 E1.55337
G1 X129.594 Y84.011 E1.57362
G1 X129.81 Y84.149 E1.58214
G1 X130.015 Y84.284 E1.59031
G1 X130.389 Y84.541 E1.6054
G1 X130.601 Y84.694 E1.6141
G1 X131.376 Y85.266 E1.64613
G1 X132.088 Y85.838 E1.67651
G1 X132.248 Y85.978 E1.68358
G1 X132.491 Y86.197 E1.69446
G1 X132.769 Y86.457 E1.70712
G1 X133.391 Y87.055 E1.73582
G1 X133.807 Y87.466 E1.75527
G1 X134.029 Y87.692 E1.76581
G1 X134.158 Y87.827 E1.77202
G1 X134.399 Y88.087 E1.78381
G1 X134.794 Y88.528 E1.8035
G1 X135.335 Y89.181 E1.8317
G1 X135.795 Y89.782 E1.85688
G1 X136.005 Y90.065 E1.8686
G1 X136.209 Y90.35 E1.88025
G1 X136.406 Y90.635 E1.89178
G1 X136.833 Y91.273 E1.91731
G1 X137.12 Y91.727 E1.93518
G1 X137.46 Y92.293 E1.95714
G1 X137.628 Y92.581 E1.96823
G1 X137.856 Y92.988 E1.98374
G1 X138.161 Y93.574 E2.00571
G1 X138.443 Y94.157 E2.02725
G1 X138.594 Y94.482 E2.03917
G1 X138.765 Y94.867 E2.05318
G1 X138.879 Y95.134 E2.06284
G1 X138.962 Y95.335 E2.07007
G1 X139.07 Y95.606 E2.07978
G1 X139.229 Y96.022 E2.09459
G1 X139.319 Y96.264 E2.10318
G1 X139.442 Y96.61 E2.11539
G1 X139.666 Y97.277 E2.13879
G1 X139.728 Y97.467 E2.14544
G1 X139.867 Y97.913 E2.16098
G1 X140.005 Y98.368 E2.17679
G1 X140.069 Y98.587 E2.18438
G1 X140.778 Y101.11 E2.27155
G1 X141.524 Y103.507 E2.35504
G1 X142.52 Y106.358 E2.45549
G1 X142.71 Y106.919 E2.47519
G1 X142.972 Y107.82 E2.5064
G1 X143.157 Y108.739 E2.53757
G1 X143.264 Y109.671 E2.56878
G1 X143.29 Y110.608 E2.59995
G1 X143.236 Y111.545 E2.63117
G1 X143.11 Y112.437 E2.66113
G1 X142.925 Y113.434 E2.69486
G1 X142.756 Y114.285 E2.72372
G1 X142.338 Y116.746 E2.80674
G1 X141.981 Y119.281 E2.89189
G1 X141.707 Y121.73 E2.97385
G1 X141.492 Y124.29 E3.0593
G1 X141.354 Y126.8 E3.1429
G1 X141.306 Y128.224 E3.19029
G1 X141.291 Y128.803 E3.20956
G1 X141.227 Y129.739 E3.24076
G1 X141.084 Y130.666 E3.27196
G1 X140.862 Y131.577 E3.30315
G1 X140.564 Y132.466 E3.33433
G1 X140.19 Y133.326 E3.36552
G1 X139.745 Y134.152 E3.39673
G1 X139.416 Y134.671 E3.41717
G1 X139.174 Y135.03 E3.43157
G1 X138.887 Y135.436 E3.4481
G1 X138.175 Y136.393 E3.48778
G1 X137.772 Y136.918 E3.50979
G1 X137.388 Y137.427 E3.531
G1 X136.975 Y137.962 E3.55348
G1 X136.371 Y138.679 E3.58466
G1 X135.708 Y139.342 E3.61584
G1 X134.991 Y139.947 E3.64705
G1 X134.225 Y140.488 E3.67824
G1 X133.415 Y140.961 E3.70943
G1 X132.568 Y141.365 E3.74065
G1 X131.69 Y141.694 E3.77183
G1 X130.787 Y141.948 E3.80303
G1 X129.866 Y142.123 E3.83421
G1 X128.95 Y142.219 E3.86484
G1 X126.272 Y142.427 E3.95418
G1 X123.809 Y142.689 E4.03657
G1 X121.331 Y143.024 E4.11973
G1 X119.745 Y143.291 E4.17323
G1 X118.341 Y143.515 E4.22051
G1 X117.409 Y143.623 E4.25172
G1 X116.198 Y143.644 E4.292
G1 X115.886 Y143.631 E4.30239
G1 X113.549 Y143.506 E4.38023
G1 X111.057 Y143.442 E4.46314
G1 X108.545 Y143.45 E4.54669
G1 X104.827 Y143.59 E4.67044
G1 X104.058 Y143.634 E4.69606
G1 X103.12 Y143.648 E4.72726
G1 X102.184 Y143.582 E4.75847
G1 X101.587 Y143.498 E4.77852
G1 X100.567 Y143.325 E4.81293
G1 X97.992 Y142.925 E4.8996
G1 X95.517 Y142.612 E4.98258
G1 X92.976 Y142.363 E5.0675
G1 X92.344 Y142.32 E5.08857
G1 X92.161 Y142.3 E5.09469
G1 X90.872 Y142.201 E5.13769
G1 X89.941 Y142.09 E5.16887
G1 X89.023 Y141.899 E5.20006
G1 X88.124 Y141.632 E5.23125
G1 X87.251 Y141.288 E5.26246
G1 X86.411 Y140.872 E5.29364
G1 X85.609 Y140.385 E5.32484
G1 X84.851 Y139.832 E5.35605
G1 X84.144 Y139.217 E5.38722
G1 X83.491 Y138.543 E5.41843
G1 X82.931 Y137.859 E5.44783
G1 X82.616 Y137.442 E5.46521
G1 X81.422 Y135.882 E5.53055
G1 X81.266 Y135.672 E5.53925
G1 X80.904 Y135.175 E5.5597
G1 X80.702 Y134.889 E5.57135
G1 X80.589 Y134.723 E5.57803
G1 X80.095 Y133.926 E5.60922
G1 X79.67 Y133.09 E5.64041
G1 X79.318 Y132.22 E5.67162
G1 X79.042 Y131.324 E5.70281
G1 X78.843 Y130.407 E5.73402
G1 X78.723 Y129.477 E5.7652
G1 X78.688 Y128.909 E5.78413
G1 X78.642 Y127.527 E5.83012
G1 X78.633 Y127.088 E5.84473
G1 X78.511 Y124.579 E5.92828
G1 X78.316 Y122.08 E6.01165
G1 X78.05 Y119.565 E6.09576
G1 X77.717 Y117.093 E6.17872
G1 X77.088 Y113.39 E6.30365
G1 X76.929 Y112.557 E6.33186
G1 X76.839 Y112.007 E6.35039
G1 X76.817 Y111.848 E6.35573
G1 X76.728 Y110.914 E6.38694
G1 X76.719 Y109.976 E6.41814
G1 X76.79 Y109.041 E6.44932
G1 X76.94 Y108.115 E6.48052
G1 X77.169 Y107.206 E6.5117
G1 X77.339 Y106.683 E6.52999
G1 X77.711 Y105.629 E6.56717
G1 X77.793 Y105.372 E6.57614
G1 X78.269 Y104.017 E6.62391
G1 X79.018 Y101.678 E6.7056
G1 X80.011 Y98.196 E6.82602
G1 X80.146 Y97.753 E6.84143
G1 X80.371 Y97.067 E6.86544
G1 X80.477 Y96.76 E6.87624
G1 X80.829 Y95.785 E6.91072
G1 X81.131 Y95.035 E6.93761
G1 X81.323 Y94.605 E6.95327
G1 X81.466 Y94.298 E6.96454
G1 X81.587 Y94.048 E6.97378
G1 X81.744 Y93.735 E6.98542
G1 X82.128 Y93.002 E7.01294
G1 X82.376 Y92.554 E7.02998
G1 X82.745 Y91.923 E7.05429
G1 X82.959 Y91.574 E7.0679
G1 X83.323 Y91.005 E7.09037
G1 X83.462 Y90.796 E7.09872
G1 X83.849 Y90.251 E7.12095
G1 X84.278 Y89.684 E7.1446
G1 X84.442 Y89.473 E7.15349
G1 X84.874 Y88.93 E7.17657
G1 X85.121 Y88.63 E7.18949
G1 X85.286 Y88.437 E7.19794
G1 X85.74 Y87.938 E7.22037
G1 X86.3 Y87.359 E7.24717
G1 X86.545 Y87.114 E7.25869
G0 F6000 X86.823 Y87.401
G1 F1200 X87.201 Y87.034 E7.27621
G1 X87.904 Y86.41 E7.30748
G1 X88.106 Y86.246 E7.31613
G1 X88.519 Y85.927 E7.33349
G1 X89.174 Y85.447 E7.3605
G1 X90.804 Y84.282 E7.42713
G1 X91.402 Y83.866 E7.45136
G1 X92.233 Y83.343 E7.48402
G1 X92.339 Y83.283 E7.48807
G1 X92.659 Y83.11 E7.50017
G1 X92.937 Y82.965 E7.5106
G1 X93.433 Y82.722 E7.52897
G1 X94.317 Y82.318 E7.5613
G1 X94.605 Y82.192 E7.57175
G1 X94.956 Y82.044 E7.58442
G1 X95.312 Y81.901 E7.59718
G1 X96.907 Y81.297 E7.65391
G1 X98.374 Y80.771 E7.70574
G1 X100.751 Y79.841 E7.79064
G1 X103.066 Y78.859 E7.87428
G1 X104.516 Y78.205 E7.92718
G1 X105.546 Y77.729 E7.96492
G1 X106.397 Y77.379 E7.99553
G1 X107.276 Y77.105 E8.02615
G1 X108.176 Y76.908 E8.05679
G1 X109.089 Y76.79 E8.08741
G1 X110.008 Y76.751 E8.118
G1 X110.928 Y76.792 E8.14863
G1 X111.841 Y76.913 E8.17927
G1 X112.739 Y77.113 E8.20987
G1 X113.617 Y77.39 E8.24049
G1 X114.411 Y77.716 E8.26903
G1 X116.869 Y78.843 E8.35897
G1 X119.163 Y79.818 E8.44188
G1 X122.809 Y81.218 E8.57178
G1 X123.761 Y81.561 E8.60543
G1 X124.546 Y81.86 E8.63337
G1 X124.948 Y82.019 E8.64775
G1 X125.17 Y82.11 E8.65573
G1 X125.727 Y82.346 E8.67585
G1 X126.179 Y82.55 E8.69234
G1 X126.499 Y82.707 E8.7042
G1 X127.179 Y83.053 E8.72957
G1 X127.529 Y83.239 E8.74276
G1 X128.066 Y83.538 E8.7632
G1 X128.648 Y83.887 E8.78577
G1 X128.854 Y84.02 E8.79393
G1 X129.382 Y84.35 E8.81464
G1 X129.795 Y84.618 E8.83101
G1 X130.159 Y84.868 E8.8457
G1 X130.364 Y85.015 E8.85409
G1 X131.139 Y85.587 E8.88613
G1 X131.824 Y86.139 E8.91539
G1 X131.984 Y86.279 E8.92246
G1 X132.219 Y86.49 E8.93296
G1 X132.492 Y86.746 E8.94541
G1 X133.11 Y87.339 E8.9739
G1 X133.526 Y87.75 E8.99335
G1 X133.74 Y87.968 E9.00351
G1 X133.869 Y88.103 E9.00972
G1 X134.101 Y88.354 E9.02108
G1 X134.496 Y88.795 E9.04078
G1 X135.017 Y89.424 E9.06794
G1 X135.477 Y90.025 E9.09311
G1 X135.679 Y90.298 E9.10441
G1 X135.883 Y90.583 E9.11607
G1 X136.073 Y90.857 E9.12716
G1 X136.5 Y91.495 E9.15269
G1 X136.778 Y91.933 E9.16994
G1 X137.118 Y92.499 E9.19191
G1 X137.279 Y92.776 E9.20256
G1 X137.507 Y93.183 E9.21808
G1 X137.801 Y93.748 E9.23926
G1 X138.083 Y94.331 E9.2608
G1 X138.228 Y94.644 E9.27227
G1 X138.399 Y95.029 E9.28629
G1 X138.51 Y95.286 E9.2956
G1 X138.593 Y95.487 E9.30283
G1 X138.696 Y95.749 E9.31219
G1 X138.942 Y96.398 E9.33528
G1 X139.065 Y96.744 E9.34749
G1 X139.287 Y97.404 E9.37065
G1 X139.485 Y98.029 E9.39246
G1 X139.623 Y98.484 E9.40827
G1 X139.684 Y98.695 E9.41558
G1 X140.396 Y101.232 E9.50322
G1 X141.138 Y103.614 E9.5862
G1 X142.141 Y106.487 E9.68741
G1 X142.331 Y107.048 E9.70711
G1 X142.588 Y107.932 E9.73773
G1 X142.768 Y108.835 E9.76835
G1 X142.868 Y109.75 E9.79897
G1 X142.889 Y110.67 E9.82958
G1 X142.829 Y111.589 E9.86021
G1 X142.716 Y112.365 E9.88629
G1 X142.533 Y113.356 E9.91981
G1 X142.363 Y114.212 E9.94883
G1 X141.941 Y116.694 E10.03257
G1 X141.586 Y119.216 E10.11728
G1 X141.305 Y121.722 E10.20115
G1 X141.095 Y124.233 E10.28496
G1 X140.953 Y126.81 E10.3708
G1 X140.909 Y128.128 E10.41466
G1 X140.892 Y128.793 E10.43679
G1 X140.828 Y129.711 E10.46739
G1 X140.685 Y130.621 E10.49803
G1 X140.464 Y131.514 E10.52863
G1 X140.166 Y132.386 E10.55928
G1 X139.793 Y133.228 E10.58991
G1 X139.349 Y134.034 E10.62052
G1 X139.084 Y134.447 E10.63684
G1 X138.842 Y134.806 E10.65124
G1 X138.566 Y135.197 E10.66715
G1 X137.962 Y136.011 E10.70087
G1 X137.516 Y136.594 E10.72528
G1 X137.072 Y137.182 E10.74979
G1 X136.659 Y137.717 E10.77227
G1 X136.065 Y138.421 E10.8029
G1 X135.413 Y139.07 E10.8335
G1 X134.706 Y139.661 E10.86415
G1 X133.951 Y140.188 E10.89477
G1 X133.153 Y140.647 E10.92539
G1 X132.319 Y141.036 E10.956
G1 X131.453 Y141.35 E10.98664
G1 X130.564 Y141.588 E11.01725
G1 X129.657 Y141.749 E11.04789
G1 X128.925 Y141.82 E11.07235
G1 X128.829 Y141.826 E11.07555
G1 X126.273 Y142.025 E11.16082
G1 X123.716 Y142.297 E11.24634
G1 X121.267 Y142.628 E11.32854
G1 X119.682 Y142.896 E11.382
G1 X118.278 Y143.12 E11.42929
G1 X117.363 Y143.225 E11.45992
G1 X116.213 Y143.245 E11.49818
G1 X115.907 Y143.232 E11.50837
G1 X113.58 Y143.107 E11.58587
G1 X111.03 Y143.043 E11.67071
G1 X108.558 Y143.05 E11.75293
G1 X104.737 Y143.193 E11.88011
G1 X104.034 Y143.234 E11.90353
G1 X103.114 Y143.247 E11.93413
G1 X102.196 Y143.181 E11.96474
G1 X101.654 Y143.103 E11.98296
G1 X100.618 Y142.928 E12.0179
G1 X98.067 Y142.532 E12.10377
G1 X95.539 Y142.212 E12.18852
G1 X93.043 Y141.967 E12.27193
G1 X92.371 Y141.921 E12.29434
G1 X92.185 Y141.9 E12.30056
G1 X90.903 Y141.802 E12.34333
G1 X89.989 Y141.692 E12.37395
G1 X89.088 Y141.503 E12.40457
G1 X88.206 Y141.237 E12.43521
G1 X87.351 Y140.895 E12.46583
G1 X86.53 Y140.48 E12.49643
G1 X85.747 Y139.996 E12.52705
G1 X85.009 Y139.445 E12.55768
G1 X84.321 Y138.833 E12.58831
G1 X83.69 Y138.163 E12.61892
G1 X83.25 Y137.619 E12.64219
G1 X82.89 Y137.142 E12.66207
G1 X81.74 Y135.639 E12.72501
G1 X81.589 Y135.437 E12.7334
G1 X81.227 Y134.94 E12.75385
G1 X81.033 Y134.664 E12.76507
G1 X80.92 Y134.498 E12.77175
G1 X80.435 Y133.715 E12.80238
G1 X80.02 Y132.893 E12.83301
G1 X79.678 Y132.038 E12.86364
G1 X79.412 Y131.157 E12.89424
G1 X79.223 Y130.256 E12.92486
G1 X79.088 Y128.895 E12.97035
G1 X79.042 Y127.519 E13.01615
G1 X79.033 Y127.059 E13.03145
G1 X78.911 Y124.564 E13.11453
G1 X78.715 Y122.043 E13.19863
G1 X78.446 Y119.507 E13.28345
G1 X78.116 Y117.05 E13.36591
G1 X77.487 Y113.346 E13.49087
G1 X77.322 Y112.482 E13.52012
G1 X77.235 Y111.952 E13.53799
G1 X77.213 Y111.793 E13.54333
G1 X77.127 Y110.876 E13.57396
G1 X77.12 Y109.956 E13.60456
G1 X77.193 Y109.038 E13.63519
G1 X77.346 Y108.13 E13.66581
G1 X77.716 Y106.816 E13.71122
G1 X78.132 Y105.637 E13.7528
G1 X78.17 Y105.504 E13.7574
G1 X78.643 Y104.156 E13.80492
G1 X79.412 Y101.755 E13.88877
G1 X80.396 Y98.304 E14.00812
G1 X80.526 Y97.877 E14.02297
G1 X80.751 Y97.191 E14.04698
G1 X80.853 Y96.896 E14.05736
G1 X81.205 Y95.921 E14.09184
G1 X81.496 Y95.198 E14.11776
G1 X81.688 Y94.768 E14.13343
G1 X81.826 Y94.472 E14.14429
G1 X81.947 Y94.222 E14.15353
G1 X82.098 Y93.921 E14.16473
G1 X82.482 Y93.188 E14.19225
G1 X82.722 Y92.756 E14.20869
G1 X83.091 Y92.125 E14.233
G1 X83.296 Y91.788 E14.24612
G1 X83.537 Y91.409 E14.26106
G1 X83.795 Y91.018 E14.27664
G1 X84.168 Y90.492 E14.29808
G1 X84.597 Y89.925 E14.32173
G1 X84.755 Y89.722 E14.33029
G1 X85.187 Y89.179 E14.35337
G1 X85.425 Y88.89 E14.36582
G1 X85.59 Y88.697 E14.37426
G1 X86.028 Y88.216 E14.3959
G1 X86.588 Y87.637 E14.42269
G1 X86.823 Y87.401 E14.43377
G0 F6000 X87.102 Y87.688
G1 F1200 X87.48 Y87.321 E14.45129
G1 X88.156 Y86.72 E14.48138
G1 X88.358 Y86.556 E14.49003
G1 X88.755 Y86.25 E14.5067
G1 X89.407 Y85.773 E14.53357
G1 X91.032 Y84.611 E14.60002
G1 X91.63 Y84.195 E14.62425
G1 X92.43 Y83.691 E14.65569
G1 X92.536 Y83.631 E14.65975
G1 X92.844 Y83.464 E14.6714
G1 X93.122 Y83.319 E14.68183
G1 X93.599 Y83.086 E14.69948
G1 X94.483 Y82.682 E14.73181
G1 X94.76 Y82.56 E14.74188
G1 X95.111 Y82.412 E14.75455
G1 X95.454 Y82.275 E14.76683
G1 X96.866 Y81.739 E14.81707
G1 X97.042 Y81.674 E14.82331
G1 X98.518 Y81.145 E14.87546
G1 X100.873 Y80.223 E14.95957
G1 X103.245 Y79.217 E15.04527
G1 X104.622 Y78.596 E15.09551
G1 X105.713 Y78.092 E15.13548
G1 X106.549 Y77.75 E15.16552
G1 X107.412 Y77.483 E15.19557
G1 X108.295 Y77.293 E15.22561
G1 X109.191 Y77.182 E15.25564
G1 X110.094 Y77.152 E15.28569
G1 X110.996 Y77.2 E15.31573
G1 X111.89 Y77.329 E15.34577
G1 X112.769 Y77.536 E15.37581
G1 X113.626 Y77.82 E15.40584
G1 X114.244 Y78.08 E15.42814
G1 X116.712 Y79.212 E15.51845
G1 X119.017 Y80.191 E15.60174
G1 X122.67 Y81.594 E15.73189
G1 X123.821 Y82.01 E15.7726
G1 X124.518 Y82.278 E15.79743
G1 X124.8 Y82.39 E15.80753
G1 X125.014 Y82.478 E15.81522
G1 X125.571 Y82.714 E15.83534
G1 X126.006 Y82.91 E15.85121
G1 X126.318 Y83.063 E15.86277
G1 X126.998 Y83.409 E15.88815
G1 X127.334 Y83.588 E15.90081
G1 X127.871 Y83.887 E15.92125
G1 X128.432 Y84.223 E15.943
G1 X128.665 Y84.373 E15.95222
G1 X129.17 Y84.689 E15.97203
G1 X129.575 Y84.952 E15.98809
G1 X129.929 Y85.195 E16.00237
G1 X130.126 Y85.337 E16.01045
G1 X130.901 Y85.909 E16.04249
G1 X131.561 Y86.44 E16.07066
G1 X131.721 Y86.58 E16.07773
G1 X131.946 Y86.783 E16.08781
G1 X132.215 Y87.035 E16.10007
G1 X132.829 Y87.624 E16.12837
G1 X133.245 Y88.035 E16.14782
G1 X133.451 Y88.244 E16.15758
G1 X133.58 Y88.379 E16.16379
G1 X133.803 Y88.621 E16.17474
G1 X134.198 Y89.062 E16.19443
G1 X134.7 Y89.668 E16.2206
G1 X135.16 Y90.269 E16.24577
