;FLAVOR:Marlin
;TIME:8306
;Filament used: 6.61155m
;Layer height: 0.2
;MINX:49.895
;MINY:49.945
;MINZ:0.2
;MAXX:170.06
;MAXY:170.054
;MAXZ:10
;Generated with Creality Slicer 4.8.2-205
M140 S50
M105
M190 S50
M104 S200
M105
M109 S200
M82 ;absolute extrusion mode

G28 ;Home

G92 E0 ;Reset Extruder
G1 Z2.0 F3000 ;Move Z Axis up
G1 X10.1 Y20 Z0.28 F5000.0 ;Move to start position
G1 X10.1 Y200.0 Z0.28 F1500.0 E15 ;Draw the first line
G1 X10.4 Y200.0 Z0.28 F5000.0 ;Move to side a little
G1 X10.4 Y20 Z0.28 F1500.0 E30 ;Draw the second line
G92 E0 ;Reset Extruder
G1 Z2.0 F3000 ;Move Z Axis up

G92 E0
G92 E0
G1 F2100 E-5
;LAYER_COUNT:50
;LAYER:0
M107
G0 F6000 X68.32 Y66.698 Z0.2
;TYPE:SKIRT
G1 F2100 E0
G1 F1200 X68.774 Y66.265 E0.02087
G1 X69.485 Y65.626 E0.05266
G1 X71.323 Y64.022 E0.1338
G1 X72.276 Y63.215 E0.17533
G1 X72.565 Y62.979 E0.18774
G1 X72.875 Y62.739 E0.20078
G1 X73.597 Y62.199 E0.23077
G1 X75.724 Y60.655 E0.31819
G1 X76.802 Y59.899 E0.36198
G1 X77.217 Y59.63 E0.37843
G1 X77.924 Y59.193 E0.40607
G1 X80.224 Y57.82 E0.49517
G1 X81.124 Y57.298 E0.52977
G1 X81.466 Y57.107 E0.5428
G1 X81.805 Y56.93 E0.55552
G1 X82.828 Y56.418 E0.59357
G1 X85.004 Y55.369 E0.67391
G1 X85.946 Y54.931 E0.70847
G1 X86.366 Y54.746 E0.72373
G1 X86.644 Y54.632 E0.73372
G1 X87.73 Y54.204 E0.77255
G1 X90.179 Y53.285 E0.85955
G1 X90.983 Y52.996 E0.88796
G1 X91.386 Y52.86 E0.90211
G1 X91.692 Y52.765 E0.91277
G1 X92.814 Y52.436 E0.95166
G1 X95.283 Y51.756 E1.03683
G1 X96.147 Y51.53 E1.06654
G1 X96.489 Y51.446 E1.07825
G1 X96.901 Y51.357 E1.09227
G1 X97.873 Y51.163 E1.12524
G1 X100.384 Y50.705 E1.21013
G1 X100.534 Y50.678 E1.2152
G1 X101.465 Y50.522 E1.2466
G1 X101.919 Y50.455 E1.26186
G1 X102.201 Y50.421 E1.27131
G1 X103.366 Y50.297 E1.31027
G1 X105.937 Y50.066 E1.39613
G1 X106.794 Y50 E1.42472
G1 X107.222 Y49.976 E1.43898
G1 X107.512 Y49.967 E1.44863
G1 X108.772 Y49.946 E1.49054
G1 X111.28 Y49.945 E1.57396
G1 X112.171 Y49.956 E1.60359
G1 X112.793 Y49.982 E1.6243
G1 X113.988 Y50.066 E1.66414
G1 X114.201 Y50.083 E1.67125
G1 X116.738 Y50.312 E1.75597
G1 X117.471 Y50.386 E1.78048
G1 X118.113 Y50.47 E1.80201
G1 X119.356 Y50.67 E1.84389
G1 X119.572 Y50.707 E1.85118
G1 X122.1 Y51.166 E1.93663
G1 X122.75 Y51.292 E1.95865
G1 X123.058 Y51.356 E1.96912
G1 X123.477 Y51.454 E1.98343
G1 X124.611 Y51.743 E2.02235
G1 X124.819 Y51.798 E2.02951
G1 X127.343 Y52.495 E2.1166
G1 X127.848 Y52.639 E2.13406
G1 X128.122 Y52.72 E2.14357
G1 X128.54 Y52.851 E2.15814
G1 X128.825 Y52.945 E2.16812
G1 X129.148 Y53.056 E2.17948
G1 X129.439 Y53.161 E2.18977
G1 X132.455 Y54.293 E2.29691
G1 X132.911 Y54.468 E2.31316
G1 X133.176 Y54.574 E2.32265
G1 X133.524 Y54.718 E2.33518
G1 X133.803 Y54.838 E2.34528
G1 X134.13 Y54.984 E2.35719
G1 X134.413 Y55.115 E2.36756
G1 X137.387 Y56.546 E2.47733
G1 X137.841 Y56.77 E2.49417
G1 X138.412 Y57.073 E2.51567
G1 X139.655 Y57.78 E2.56323
G1 X139.857 Y57.898 E2.57101
G1 X142.074 Y59.222 E2.6569
G1 X142.364 Y59.398 E2.66818
G1 X142.578 Y59.531 E2.67656
G1 X143.018 Y59.812 E2.69393
G1 X143.26 Y59.971 E2.70356
G1 X143.467 Y60.111 E2.71187
G1 X143.766 Y60.321 E2.72402
G1 X146.518 Y62.32 E2.83715
G1 X146.976 Y62.661 E2.85614
G1 X147.356 Y62.954 E2.8721
G1 X147.596 Y63.144 E2.88228
G1 X147.754 Y63.273 E2.88907
G1 X147.968 Y63.453 E2.89837
G1 X148.253 Y63.699 E2.91089
G1 X150.654 Y65.795 E3.0169
G1 X150.87 Y65.987 E3.02651
G1 X151.398 Y66.472 E3.05036
G1 X151.64 Y66.702 E3.06146
G1 X151.963 Y67.021 E3.07656
G1 X152.241 Y67.308 E3.08985
G1 X154.532 Y69.705 E3.20013
G1 X154.711 Y69.896 E3.20884
G1 X155.101 Y70.324 E3.2281
G1 X155.311 Y70.561 E3.23863
G1 X155.584 Y70.885 E3.25272
G1 X155.979 Y71.37 E3.27352
G1 X157.967 Y73.864 E3.3796
G1 X158.128 Y74.071 E3.38833
G1 X158.474 Y74.527 E3.40736
G1 X158.68 Y74.807 E3.41893
G1 X158.893 Y75.11 E3.43124
G1 X159.25 Y75.639 E3.45247
G1 X161.013 Y78.311 E3.55894
G1 X161.145 Y78.516 E3.56705
G1 X161.446 Y78.995 E3.58587
G1 X161.65 Y79.334 E3.59903
G1 X161.831 Y79.651 E3.61117
G1 X162.105 Y80.147 E3.63002
G1 X163.634 Y82.987 E3.73729
G1 X163.745 Y83.2 E3.74528
G1 X164.013 Y83.725 E3.76489
G1 X164.215 Y84.139 E3.78021
G1 X164.315 Y84.36 E3.78828
G1 X164.593 Y84.991 E3.81121
G1 X165.835 Y87.899 E3.91638
G1 X165.919 Y88.101 E3.92366
G1 X166.154 Y88.683 E3.94454
G1 X166.369 Y89.263 E3.96511
G1 X166.627 Y90.024 E3.99184
G1 X167.579 Y92.954 E4.0943
G1 X167.822 Y93.748 E4.12192
G1 X167.987 Y94.352 E4.14275
G1 X168.193 Y95.201 E4.1718
G1 X168.878 Y98.201 E4.27415
G1 X169.047 Y99.008 E4.30157
G1 X169.151 Y99.587 E4.32114
G1 X169.279 Y100.439 E4.3498
G1 X169.712 Y103.642 E4.4573
G1 X169.791 Y104.307 E4.47957
G1 X169.849 Y104.955 E4.50121
G1 X169.898 Y105.801 E4.52939
G1 X170.038 Y108.916 E4.6331
G1 X170.059 Y109.591 E4.65557
G1 X170.06 Y110.24 E4.67715
G1 X170.035 Y111.136 E4.70696
G1 X169.897 Y114.233 E4.81007
G1 X169.856 Y114.961 E4.83433
G1 X169.797 Y115.626 E4.85653
G1 X169.672 Y116.666 E4.89137
G1 X169.279 Y119.574 E4.98897
G1 X169.169 Y120.31 E5.01372
G1 X169.057 Y120.934 E5.03481
G1 X168.862 Y121.862 E5.06635
G1 X168.196 Y124.791 E5.16625
G1 X167.999 Y125.602 E5.19401
G1 X167.837 Y126.193 E5.21439
G1 X167.521 Y127.224 E5.25026
G1 X166.631 Y129.966 E5.34614
G1 X166.363 Y130.756 E5.37389
G1 X166.14 Y131.355 E5.39515
G1 X165.886 Y131.98 E5.41758
G1 X164.638 Y134.906 E5.52339
G1 X164.245 Y135.789 E5.55553
G1 X163.991 Y136.321 E5.57514
G1 X163.62 Y137.041 E5.60208
G1 X162.177 Y139.725 E5.70343
G1 X161.749 Y140.496 E5.73276
G1 X161.449 Y141.003 E5.75236
G1 X161.16 Y141.463 E5.77043
G1 X161.027 Y141.669 E5.77858
G1 X159.193 Y144.448 E5.88932
G1 X158.834 Y144.976 E5.91056
G1 X158.569 Y145.348 E5.92575
G1 X158.412 Y145.559 E5.9345
G1 X158.095 Y145.973 E5.95184
G1 X157.963 Y146.142 E5.95897
G1 X156.004 Y148.6 E6.06352
G1 X155.505 Y149.21 E6.08973
G1 X155.117 Y149.66 E6.10949
G1 X154.737 Y150.076 E6.12823
G1 X154.572 Y150.252 E6.13626
G1 X152.261 Y152.672 E6.24755
G1 X151.809 Y153.132 E6.269
G1 X151.57 Y153.368 E6.28017
G1 X151.289 Y153.633 E6.29302
G1 X151.042 Y153.86 E6.30418
G1 X150.841 Y154.04 E6.31315
G1 X148.283 Y156.277 E6.42617
G1 X147.746 Y156.732 E6.44958
G1 X147.484 Y156.947 E6.46086
G1 X147.208 Y157.165 E6.47255
G1 X146.909 Y157.393 E6.48506
G1 X146.707 Y157.543 E6.49343
G1 X143.956 Y159.542 E6.60653
G1 X143.419 Y159.92 E6.62837
G1 X143.072 Y160.156 E6.64233
G1 X142.758 Y160.359 E6.65477
G1 X142.454 Y160.548 E6.66667
G1 X142.097 Y160.764 E6.68055
G1 X139.453 Y162.343 E6.78298
G1 X138.796 Y162.723 E6.80822
G1 X138.541 Y162.866 E6.81795
G1 X138.322 Y162.985 E6.82624
G1 X137.91 Y163.198 E6.84166
G1 X137.347 Y163.473 E6.8625
G1 X134.609 Y164.792 E6.96359
G1 X133.967 Y165.09 E6.98713
G1 X133.569 Y165.265 E7.00159
G1 X133.25 Y165.398 E7.01308
G1 X132.968 Y165.511 E7.02319
G1 X132.531 Y165.679 E7.03876
G1 X129.651 Y166.76 E7.14107
G1 X128.933 Y167.018 E7.16645
G1 X128.644 Y167.117 E7.17661
G1 X128.446 Y167.182 E7.18354
G1 X128.053 Y167.303 E7.19722
G1 X127.405 Y167.489 E7.21964
G1 X124.454 Y168.302 E7.32145
G1 X123.761 Y168.483 E7.34527
G1 X123.479 Y168.553 E7.35493
G1 X123.256 Y168.605 E7.36255
G1 X122.816 Y168.698 E7.37751
G1 X122.038 Y168.846 E7.40385
G1 X119.194 Y169.362 E7.49999
G1 X118.476 Y169.482 E7.5242
G1 X118.182 Y169.527 E7.53409
G1 X117.931 Y169.562 E7.54252
G1 X117.508 Y169.612 E7.55669
G1 X116.722 Y169.69 E7.58296
G1 X113.858 Y169.948 E7.6786
G1 X113.09 Y170.006 E7.70422
G1 X112.783 Y170.025 E7.71445
G1 X112.551 Y170.036 E7.72217
G1 X112.135 Y170.047 E7.73601
G1 X111.408 Y170.054 E7.76019
G1 X108.407 Y170.054 E7.86001
G1 X108.033 Y170.049 E7.87245
G1 X107.645 Y170.037 E7.88536
G1 X106.762 Y169.994 E7.91476
G1 X106.445 Y169.974 E7.92533
G1 X105.915 Y169.932 E7.94301
G1 X103.219 Y169.69 E8.03304
G1 X102.612 Y169.627 E8.05334
G1 X102.272 Y169.586 E8.06473
G1 X101.455 Y169.474 E8.09216
G1 X101.112 Y169.421 E8.1037
G1 X100.56 Y169.327 E8.12232
G1 X97.735 Y168.814 E8.21782
G1 X97.331 Y168.735 E8.23151
G1 X96.974 Y168.659 E8.24365
G1 X96.166 Y168.473 E8.27123
G1 X95.825 Y168.388 E8.28292
G1 X95.265 Y168.24 E8.30218
G1 X92.552 Y167.49 E8.3958
G1 X91.993 Y167.328 E8.41516
G1 X91.645 Y167.221 E8.42727
G1 X91.185 Y167.071 E8.44336
G1 X90.88 Y166.967 E8.45408
G1 X90.034 Y166.662 E8.48399
G1 X87.476 Y165.7 E8.57489
G1 X86.92 Y165.483 E8.59474
G1 X86.589 Y165.348 E8.60663
G1 X86.171 Y165.169 E8.62175
G1 X85.867 Y165.033 E8.63283
G1 X85.008 Y164.633 E8.66434
G1 X82.57 Y163.457 E8.75437
G1 X82.031 Y163.188 E8.77441
G1 X81.723 Y163.029 E8.78594
G1 X81.339 Y162.822 E8.80045
G1 X81.055 Y162.663 E8.81127
G1 X80.22 Y162.179 E8.84337
G1 X77.846 Y160.76 E8.93536
G1 X77.349 Y160.454 E8.95477
G1 X77.064 Y160.272 E8.96602
G1 X76.85 Y160.131 E8.97454
G1 X76.573 Y159.943 E8.98568
G1 X75.586 Y159.247 E9.02585
G1 X73.46 Y157.701 E9.11328
G1 X72.91 Y157.289 E9.13613
G1 X72.664 Y157.099 E9.14647
G1 X72.528 Y156.991 E9.15225
G1 X72.27 Y156.78 E9.16333
G1 X71.458 Y156.094 E9.19869
G1 X69.461 Y154.351 E9.28685
G1 X68.847 Y153.801 E9.31427
G1 X68.604 Y153.576 E9.32528
G1 X68.452 Y153.431 E9.33227
G1 X68.221 Y153.204 E9.34304
G1 X67.339 Y152.31 E9.38481
G1 X65.66 Y150.553 E9.46564
G1 X65.041 Y149.888 E9.49586
G1 X64.617 Y149.405 E9.51724
G1 X63.775 Y148.386 E9.5612
G1 X62.189 Y146.398 E9.64579
G1 X61.658 Y145.716 E9.67453
G1 X61.273 Y145.189 E9.69624
G1 X60.521 Y144.092 E9.74048
G1 X59.13 Y141.987 E9.8244
G1 X58.665 Y141.262 E9.85304
G1 X58.347 Y140.731 E9.87363
G1 X57.647 Y139.486 E9.92113
G1 X57.55 Y139.31 E9.92782
G1 X56.405 Y137.181 E10.00822
G1 X56.073 Y136.545 E10.03208
G1 X55.788 Y135.959 E10.05375
G1 X55.155 Y134.545 E10.10528
G1 X54.164 Y132.226 E10.18916
G1 X53.907 Y131.6 E10.21167
G1 X53.687 Y131.015 E10.23245
G1 X53.183 Y129.553 E10.28389
G1 X52.41 Y127.173 E10.36712
G1 X52.207 Y126.517 E10.38996
G1 X52.042 Y125.926 E10.41037
G1 X51.696 Y124.538 E10.45794
G1 X51.645 Y124.326 E10.4652
G1 X51.11 Y121.98 E10.54523
G1 X50.959 Y121.274 E10.56924
G1 X50.847 Y120.665 E10.58984
G1 X50.627 Y119.252 E10.6374
G1 X50.596 Y119.042 E10.64446
G1 X50.273 Y116.658 E10.72448
G1 X50.19 Y115.975 E10.74736
G1 X50.133 Y115.362 E10.76784
G1 X50.035 Y113.856 E10.81803
G1 X50.023 Y113.641 E10.82519
G1 X49.923 Y111.437 E10.89857
G1 X49.897 Y110.611 E10.92606
G1 X49.895 Y110.019 E10.94575
G1 X49.932 Y108.446 E10.99808
G1 X49.94 Y108.219 E11.00564
G1 X50.043 Y105.91 E11.08251
G1 X50.094 Y105.046 E11.1113
G1 X50.135 Y104.546 E11.12799
G1 X50.203 Y103.898 E11.14966
G1 X50.242 Y103.574 E11.16051
G1 X50.66 Y100.488 E11.26409
G1 X50.781 Y99.686 E11.29107
G1 X50.862 Y99.218 E11.30686
G1 X50.972 Y98.655 E11.32594
G1 X51.042 Y98.322 E11.33726
G1 X51.746 Y95.235 E11.44257
G1 X51.94 Y94.437 E11.46988
G1 X52.061 Y93.983 E11.48551
G1 X52.215 Y93.45 E11.50396
G1 X52.34 Y93.042 E11.51816
G1 X53.147 Y90.559 E11.60499
G1 X53.218 Y90.347 E11.61243
G1 X53.722 Y88.897 E11.66349
G1 X53.873 Y88.485 E11.67808
G1 X54.049 Y88.047 E11.69378
G1 X55.103 Y85.576 E11.78313
G1 X55.201 Y85.354 E11.7912
G1 X55.841 Y83.941 E11.8428
G1 X55.988 Y83.629 E11.85427
G1 X56.206 Y83.193 E11.87048
G1 X56.381 Y82.862 E11.88293
G1 X57.554 Y80.68 E11.96533
G1 X57.662 Y80.484 E11.97277
G1 X58.354 Y79.257 E12.01963
G1 X58.562 Y78.904 E12.03325
G1 X58.747 Y78.606 E12.04492
G1 X59.04 Y78.151 E12.06292
G1 X60.43 Y76.046 E12.14682
G1 X61.251 Y74.845 E12.19521
G1 X61.458 Y74.553 E12.20711
G1 X61.704 Y74.223 E12.2208
G1 X62.171 Y73.624 E12.24606
G1 X63.665 Y71.75 E12.32577
G1 X63.79 Y71.596 E12.33237
G1 X64.604 Y70.612 E12.37485
G1 X64.899 Y70.27 E12.38987
G1 X65.088 Y70.062 E12.39922
G1 X65.636 Y69.472 E12.426
G1 X67.338 Y67.691 E12.50793
G1 X68.32 Y66.698 E12.55438
G0 F6000 X68.604 Y66.979
G1 F1200 X69.042 Y66.562 E12.5745
G1 X69.748 Y65.928 E12.60606
G1 X71.714 Y64.214 E12.69281
G1 X72.534 Y63.521 E12.72852
G1 X72.813 Y63.293 E12.7405
G1 X73.115 Y63.058 E12.75323
G1 X73.697 Y62.621 E12.77744
G1 X75.821 Y61.077 E12.86477
G1 X76.84 Y60.359 E12.90623
G1 X77.089 Y60.188 E12.91628
G1 X77.428 Y59.97 E12.92969
G1 X78.277 Y59.447 E12.96285
G1 X80.55 Y58.092 E13.05087
G1 X81.324 Y57.644 E13.08061
G1 X81.657 Y57.458 E13.0933
G1 X81.984 Y57.287 E13.10557
G1 X82.856 Y56.85 E13.13801
G1 X85.178 Y55.73 E13.22376
G1 X86.115 Y55.294 E13.25813
G1 X86.413 Y55.16 E13.269
G1 X86.523 Y55.113 E13.27297
G1 X86.791 Y55.004 E13.2826
G1 X87.87 Y54.578 E13.32118
G1 X90.314 Y53.662 E13.40799
G1 X91.118 Y53.373 E13.43641
G1 X91.51 Y53.24 E13.45017
G1 X91.804 Y53.149 E13.46041
G1 X92.921 Y52.822 E13.49912
G1 X95.385 Y52.143 E13.58413
G1 X96.249 Y51.917 E13.61383
G1 X96.578 Y51.836 E13.6251
G1 X96.979 Y51.749 E13.63875
G1 X98.129 Y51.521 E13.67774
G1 X100.6 Y51.073 E13.76127
G1 X101.531 Y50.917 E13.79267
G1 X101.972 Y50.852 E13.80749
G1 X102.244 Y50.819 E13.81661
G1 X103.218 Y50.714 E13.84919
G1 X105.83 Y50.477 E13.93642
G1 X106.825 Y50.399 E13.96962
G1 X107.24 Y50.375 E13.98344
G1 X107.519 Y50.367 E13.99273
G1 X108.772 Y50.346 E14.03441
G1 X111.28 Y50.345 E14.11782
G1 X112.166 Y50.356 E14.14729
G1 X112.765 Y50.381 E14.16723
G1 X114.165 Y50.481 E14.21392
G1 X116.581 Y50.698 E14.2946
G1 X117.431 Y50.784 E14.32301
G1 X118.05 Y50.865 E14.34378
G1 X119.501 Y51.1 E14.39266
G1 X122.024 Y51.559 E14.47796
G1 X122.871 Y51.725 E14.50666
G1 X122.974 Y51.747 E14.51017
G1 X123.378 Y51.841 E14.52396
G1 X124.512 Y52.13 E14.56289
G1 X124.712 Y52.183 E14.56977
G1 X127.234 Y52.879 E14.65679
G1 X127.739 Y53.023 E14.67425
G1 X128.002 Y53.102 E14.68339
G1 X128.42 Y53.233 E14.69795
G1 X128.695 Y53.323 E14.70758
G1 X129.018 Y53.434 E14.71894
G1 X129.298 Y53.535 E14.72884
G1 X132.312 Y54.667 E14.83592
G1 X132.768 Y54.842 E14.85217
G1 X133.023 Y54.943 E14.86129
G1 X133.371 Y55.087 E14.87382
G1 X133.64 Y55.203 E14.88356
G1 X133.967 Y55.349 E14.89547
G1 X134.24 Y55.476 E14.90548
G1 X137.21 Y56.905 E15.01511
G1 X137.664 Y57.129 E15.03194
G1 X138.215 Y57.421 E15.05269
G1 X139.458 Y58.128 E15.10025
G1 X139.652 Y58.241 E15.10771
G1 X141.867 Y59.564 E15.19353
G1 X142.157 Y59.74 E15.20481
G1 X142.362 Y59.868 E15.21285
G1 X142.802 Y60.149 E15.23021
G1 X143.242 Y60.443 E15.24781
G1 X143.531 Y60.645 E15.25954
G1 X146.28 Y62.641 E15.37253
G1 X146.732 Y62.978 E15.39128
G1 X147.112 Y63.271 E15.40724
G1 X147.343 Y63.454 E15.41705
G1 X147.501 Y63.583 E15.42383
G1 X147.707 Y63.756 E15.43278
G1 X147.99 Y64 E15.4452
G1 X150.388 Y66.094 E15.55109
G1 X150.745 Y66.414 E15.56704
G1 X151.127 Y66.766 E15.58431
G1 X151.361 Y66.988 E15.59504
G1 X151.676 Y67.301 E15.60981
G1 X151.952 Y67.584 E15.62296
G1 X154.243 Y69.981 E15.73324
G1 X154.415 Y70.166 E15.74164
G1 X154.805 Y70.594 E15.7609
G1 X155.008 Y70.822 E15.77106
G1 X155.1 Y70.929 E15.77575
G1 X155.274 Y71.138 E15.7848
G1 X155.666 Y71.619 E15.80543
G1 X157.654 Y74.113 E15.91151
G1 X157.809 Y74.313 E15.91993
G1 X158.288 Y74.947 E15.94636
G1 X158.357 Y75.042 E15.95026
G1 X158.561 Y75.334 E15.96211
G1 X158.916 Y75.859 E15.98319
G1 X160.679 Y78.531 E16.08966
G1 X160.806 Y78.729 E16.09748
G1 X161.107 Y79.208 E16.1163
G1 X161.304 Y79.534 E16.12897
G1 X161.481 Y79.845 E16.14087
G1 X161.752 Y80.336 E16.15952
G1 X163.281 Y83.176 E16.2668
G1 X163.389 Y83.382 E16.27454
G1 X163.657 Y83.907 E16.29414
G1 X163.852 Y84.309 E16.309
G1 X163.949 Y84.521 E16.31676
G1 X164.225 Y85.149 E16.33957
G1 X165.467 Y88.057 E16.44475
G1 X165.548 Y88.251 E16.45174
G1 X165.783 Y88.833 E16.47262
G1 X165.99 Y89.392 E16.49244
G1 X166.246 Y90.147 E16.51896
G1 X167.198 Y93.077 E16.62142
G1 X167.258 Y93.267 E16.62805
G1 X167.44 Y93.865 E16.64884
G1 X167.599 Y94.446 E16.66888
G1 X167.803 Y95.29 E16.69776
G1 X168.488 Y98.29 E16.8001
G1 X168.534 Y98.5 E16.80726
G1 X168.656 Y99.089 E16.82726
G1 X168.756 Y99.647 E16.84612
