;FLAVOR:Marlin
;TIME:24737
;Filament used: 20.309m
;Layer height: 0.2
;MINX:32.736
;MINY:46.736
;MINZ:0.2
;MAXX:187.264
;MAXY:173.264
;MAXZ:17.4
;Generated with Creality Slicer 4.8.2-205
M140 S50
M105
M190 S50
M104 S200
M105
M109 S200
M82 ;absolute extrusion mode

G28 ;Home

G92 E0 ;Reset Extruder
G1 Z2.0 F3000 ;Move Z Axis up
G1 X10.1 Y20 Z0.28 F5000.0 ;Move to start position
G1 X10.1 Y200.0 Z0.28 F1500.0 E15 ;Draw the first line
G1 X10.4 Y200.0 Z0.28 F5000.0 ;Move to side a little
G1 X10.4 Y20 Z0.28 F1500.0 E30 ;Draw the second line
G92 E0 ;Reset Extruder
G1 Z2.0 F3000 ;Move Z Axis up

G92 E0
G92 E0
G1 F2100 E-5
;LAYER_COUNT:87
;LAYER:0
M107
G0 F6000 X36.895 Y49.013 Z0.2
;TYPE:SKIRT
G1 F2100 E0
G1 F1200 X37.235 Y48.759 E0.01412
G1 X38.19 Y48.149 E0.05181
G1 X38.565 Y47.946 E0.06599
G1 X39.564 Y47.492 E0.10249
G1 X39.952 Y47.348 E0.11625
G1 X40.997 Y47.042 E0.15247
G1 X41.417 Y46.95 E0.16677
G1 X42.533 Y46.789 E0.20427
G1 X42.941 Y46.76 E0.21787
G1 X43.483 Y46.74 E0.23591
G1 X46.41 Y46.736 E0.33327
G1 X51.339 Y46.744 E0.49721
G1 X168.661 Y46.744 E4.39935
G1 X173.612 Y46.737 E4.56402
G1 X176.524 Y46.74 E4.66088
G1 X177.133 Y46.764 E4.68115
G1 X177.549 Y46.797 E4.69503
G1 X178.606 Y46.955 E4.73057
G1 X179.011 Y47.044 E4.74436
G1 X180.06 Y47.353 E4.78074
G1 X180.46 Y47.502 E4.79493
G1 X181.512 Y47.986 E4.83345
G1 X181.879 Y48.189 E4.8474
G1 X182.799 Y48.785 E4.88386
G1 X183.14 Y49.042 E4.89806
G1 X183.96 Y49.756 E4.93422
G1 X184.253 Y50.049 E4.94801
G1 X184.943 Y50.838 E4.98287
G1 X185.189 Y51.161 E4.99637
G1 X185.635 Y51.813 E5.02264
G1 X185.885 Y52.255 E5.03953
G1 X186.03 Y52.519 E5.04955
G1 X186.5 Y53.545 E5.08709
G1 X186.646 Y53.936 E5.10097
G1 X186.957 Y54.989 E5.13749
G1 X187.045 Y55.389 E5.15111
G1 X187.203 Y56.448 E5.18672
G1 X187.236 Y56.864 E5.2006
G1 X187.26 Y57.47 E5.22077
G1 X187.264 Y60.284 E5.31437
G1 X187.256 Y65.015 E5.47172
G1 X187.256 Y155.002 E8.4647
G1 X187.263 Y159.726 E8.62182
G1 X187.26 Y162.521 E8.71478
G1 X187.238 Y163.104 E8.73419
G1 X187.208 Y163.499 E8.74736
G1 X187.056 Y164.546 E8.78255
G1 X186.963 Y164.979 E8.79728
G1 X186.647 Y166.063 E8.83484
G1 X186.504 Y166.447 E8.84847
G1 X186.025 Y167.491 E8.88667
G1 X185.81 Y167.881 E8.90148
G1 X185.23 Y168.781 E8.93709
G1 X185.021 Y169.061 E8.94871
G1 X184.424 Y169.768 E8.97949
G1 X184.193 Y170.01 E8.99062
G1 X183.995 Y170.211 E9
G1 X183.109 Y170.984 E9.03911
G1 X182.768 Y171.239 E9.05327
G1 X181.81 Y171.851 E9.09108
G1 X181.435 Y172.054 E9.10527
G1 X180.436 Y172.508 E9.14176
G1 X180.048 Y172.652 E9.15553
G1 X179.003 Y172.958 E9.19174
G1 X178.583 Y173.05 E9.20604
G1 X177.467 Y173.211 E9.24355
G1 X177.059 Y173.24 E9.25715
G1 X176.517 Y173.26 E9.27519
G1 X173.59 Y173.264 E9.37254
G1 X168.661 Y173.256 E9.53648
G1 X51.339 Y173.256 E13.43863
G1 X46.388 Y173.263 E13.6033
G1 X43.476 Y173.26 E13.70015
G1 X42.867 Y173.236 E13.72042
G1 X42.451 Y173.203 E13.7343
G1 X41.394 Y173.045 E13.76985
G1 X40.989 Y172.956 E13.78364
G1 X39.958 Y172.654 E13.81937
G1 X39.574 Y172.512 E13.83299
G1 X38.519 Y172.03 E13.87157
G1 X38.13 Y171.816 E13.88634
G1 X37.192 Y171.209 E13.9235
G1 X36.854 Y170.954 E13.93758
G1 X36.249 Y170.447 E13.96383
G1 X35.791 Y169.997 E13.98519
G1 X35.043 Y169.144 E14.02292
G1 X34.792 Y168.812 E14.03677
G1 X34.162 Y167.834 E14.07546
G1 X33.957 Y167.457 E14.08973
G1 X33.5 Y166.454 E14.12639
G1 X33.348 Y166.046 E14.14087
G1 X33.036 Y164.984 E14.17769
G1 X32.951 Y164.594 E14.19096
G1 X32.795 Y163.531 E14.2267
G1 X32.763 Y163.115 E14.24057
G1 X32.74 Y162.528 E14.26011
G1 X32.736 Y159.716 E14.35364
G1 X32.744 Y154.985 E14.511
G1 X32.744 Y64.998 E17.50397
G1 X32.737 Y60.274 E17.6611
G1 X32.74 Y57.479 E17.75406
G1 X32.762 Y56.896 E17.77346
G1 X32.792 Y56.501 E17.78664
G1 X32.944 Y55.454 E17.82183
G1 X33.037 Y55.021 E17.83656
G1 X33.353 Y53.937 E17.87411
G1 X33.496 Y53.553 E17.88774
G1 X33.976 Y52.508 E17.92599
G1 X34.19 Y52.12 E17.94073
G1 X34.782 Y51.204 E17.977
G1 X35.026 Y50.879 E17.99052
G1 X35.532 Y50.272 E18.0168
G1 X35.993 Y49.802 E18.0387
G1 X36.574 Y49.267 E18.06497
G1 X36.895 Y49.013 E18.07858
G0 F6000 X37.134 Y49.334
G1 F1200 X37.474 Y49.08 E18.0927
G1 X38.38 Y48.5 E18.12848
G1 X38.755 Y48.297 E18.14266
G1 X39.703 Y47.867 E18.17728
G1 X40.091 Y47.723 E18.19105
G1 X41.083 Y47.432 E18.22543
G1 X41.503 Y47.34 E18.23973
G1 X42.561 Y47.188 E18.27528
G1 X42.969 Y47.159 E18.28889
G1 X43.484 Y47.14 E18.30603
G1 X46.409 Y47.136 E18.40331
G1 X51.338 Y47.144 E18.56725
G1 X168.661 Y47.144 E22.46943
G1 X173.612 Y47.137 E22.6341
G1 X176.524 Y47.14 E22.73096
G1 X177.101 Y47.163 E22.75016
G1 X177.517 Y47.196 E22.76404
G1 X178.52 Y47.345 E22.79777
G1 X178.925 Y47.434 E22.81156
G1 X179.92 Y47.727 E22.84606
G1 X180.32 Y47.876 E22.86026
G1 X181.319 Y48.336 E22.89684
G1 X181.686 Y48.539 E22.91079
G1 X182.558 Y49.104 E22.94534
G1 X182.899 Y49.361 E22.95955
G1 X183.678 Y50.038 E22.99387
G1 X183.971 Y50.331 E23.00766
G1 X184.625 Y51.08 E23.04073
G1 X184.871 Y51.403 E23.05423
G1 X185.305 Y52.039 E23.07984
G1 X185.549 Y52.471 E23.09634
G1 X185.679 Y52.712 E23.10545
G1 X186.125 Y53.685 E23.14105
G1 X186.271 Y54.076 E23.15493
G1 X186.566 Y55.075 E23.18958
G1 X186.654 Y55.475 E23.2032
G1 X186.804 Y56.48 E23.237
G1 X186.837 Y56.896 E23.25088
G1 X186.86 Y57.47 E23.26998
G1 X186.864 Y60.284 E23.36358
G1 X186.856 Y65.015 E23.52093
G1 X186.856 Y155.002 E26.51391
G1 X186.863 Y159.726 E26.67103
G1 X186.86 Y162.521 E26.76399
G1 X186.839 Y163.073 E26.78237
G1 X186.809 Y163.468 E26.79554
G1 X186.665 Y164.462 E26.82895
G1 X186.572 Y164.895 E26.84368
G1 X186.272 Y165.923 E26.87929
G1 X186.129 Y166.307 E26.89292
G1 X185.674 Y167.298 E26.92919
G1 X185.459 Y167.688 E26.944
G1 X184.909 Y168.541 E26.97776
G1 X184.7 Y168.821 E26.98938
G1 X184.134 Y169.493 E27.01861
G1 X183.908 Y169.729 E27.02947
G1 X183.71 Y169.93 E27.03886
G1 X182.87 Y170.663 E27.07594
G1 X182.529 Y170.918 E27.0901
G1 X181.62 Y171.5 E27.126
G1 X181.245 Y171.703 E27.14018
G1 X180.297 Y172.133 E27.1748
G1 X179.909 Y172.277 E27.18857
G1 X178.917 Y172.568 E27.22295
G1 X178.497 Y172.66 E27.23725
G1 X177.439 Y172.812 E27.2728
G1 X177.031 Y172.841 E27.28641
G1 X176.516 Y172.86 E27.30355
G1 X173.591 Y172.864 E27.40084
G1 X168.662 Y172.856 E27.56478
G1 X51.339 Y172.856 E31.46695
G1 X46.388 Y172.863 E31.63163
G1 X43.476 Y172.86 E31.72848
G1 X42.899 Y172.837 E31.74768
G1 X42.483 Y172.804 E31.76156
G1 X41.48 Y172.655 E31.79529
G1 X41.075 Y172.566 E31.80908
G1 X40.096 Y172.279 E31.84301
G1 X39.712 Y172.137 E31.85663
G1 X38.712 Y171.68 E31.8932
G1 X38.323 Y171.466 E31.90797
G1 X37.433 Y170.889 E31.94325
G1 X37.095 Y170.634 E31.95733
G1 X36.506 Y170.14 E31.9829
G1 X36.072 Y169.712 E32.00317
G1 X35.362 Y168.903 E32.03897
G1 X35.111 Y168.571 E32.05281
G1 X34.513 Y167.643 E32.08953
G1 X34.308 Y167.266 E32.1038
G1 X33.875 Y166.314 E32.13859
G1 X33.723 Y165.906 E32.15307
G1 X33.427 Y164.899 E32.18798
G1 X33.342 Y164.509 E32.20126
G1 X33.194 Y163.501 E32.23514
G1 X33.162 Y163.085 E32.24902
G1 X33.14 Y162.528 E32.26756
G1 X33.136 Y159.716 E32.36109
G1 X33.144 Y154.985 E32.51844
G1 X33.144 Y64.998 E35.51142
G1 X33.137 Y60.274 E35.66854
G1 X33.14 Y57.479 E35.7615
G1 X33.161 Y56.927 E35.77988
G1 X33.191 Y56.532 E35.79305
G1 X33.335 Y55.538 E35.82646
G1 X33.428 Y55.105 E35.84119
G1 X33.728 Y54.077 E35.87681
G1 X33.871 Y53.693 E35.89043
G1 X34.326 Y52.701 E35.92673
G1 X34.54 Y52.313 E35.94147
G1 X35.102 Y51.444 E35.97589
G1 X35.346 Y51.119 E35.98941
G1 X35.839 Y50.529 E36.01498
G1 X36.279 Y50.082 E36.03584
G1 X37.134 Y49.334 E36.07363
G0 F6000 X37.374 Y49.654
G1 F1200 X37.714 Y49.4 E36.08774
G1 X38.571 Y48.852 E36.12158
G1 X38.946 Y48.649 E36.13576
G1 X39.842 Y48.242 E36.16849
G1 X40.23 Y48.098 E36.18226
G1 X41.168 Y47.823 E36.21477
G1 X41.588 Y47.731 E36.22907
G1 X42.59 Y47.587 E36.26274
G1 X42.998 Y47.558 E36.27634
G1 X43.484 Y47.54 E36.29252
G1 X46.408 Y47.536 E36.38977
G1 X51.337 Y47.544 E36.55371
G1 X168.662 Y47.544 E40.45595
G1 X173.611 Y47.537 E40.62056
G1 X176.523 Y47.54 E40.71741
G1 X177.07 Y47.562 E40.73562
G1 X177.486 Y47.595 E40.7495
G1 X178.434 Y47.736 E40.78138
G1 X178.839 Y47.825 E40.79517
G1 X179.78 Y48.102 E40.82779
G1 X180.18 Y48.251 E40.84199
G1 X181.125 Y48.686 E40.87659
G1 X181.492 Y48.889 E40.89054
G1 X182.317 Y49.424 E40.92325
G1 X182.658 Y49.681 E40.93745
G1 X183.395 Y50.321 E40.96991
G1 X183.688 Y50.614 E40.98369
G1 X184.307 Y51.323 E41.015
G1 X184.553 Y51.646 E41.0285
G1 X184.974 Y52.264 E41.05337
G1 X185.194 Y52.656 E41.06832
G1 X185.328 Y52.904 E41.0777
G1 X185.751 Y53.825 E41.11141
G1 X185.897 Y54.216 E41.12529
G1 X186.176 Y55.161 E41.15806
G1 X186.264 Y55.561 E41.17169
G1 X186.405 Y56.511 E41.20363
G1 X186.438 Y56.927 E41.21751
G1 X186.46 Y57.471 E41.23562
G1 X186.464 Y60.283 E41.32914
G1 X186.456 Y65.014 E41.4865
G1 X186.456 Y155.002 E44.47951
G1 X186.463 Y159.726 E44.63663
G1 X186.46 Y162.521 E44.72959
G1 X186.44 Y163.043 E44.74697
G1 X186.41 Y163.438 E44.76014
G1 X186.274 Y164.378 E44.79173
G1 X186.181 Y164.811 E44.80646
G1 X185.897 Y165.784 E44.84018
G1 X185.754 Y166.168 E44.85381
G1 X185.324 Y167.104 E44.88807
G1 X185.109 Y167.494 E44.90288
G1 X184.589 Y168.302 E44.93484
G1 X184.38 Y168.582 E44.94646
G1 X183.844 Y169.217 E44.9741
G1 X183.623 Y169.448 E44.98473
G1 X183.425 Y169.649 E44.99411
G1 X182.63 Y170.343 E45.02921
G1 X182.289 Y170.598 E45.04337
G1 X181.429 Y171.148 E45.07733
G1 X181.054 Y171.351 E45.09151
G1 X180.158 Y171.758 E45.12424
G1 X179.77 Y171.902 E45.13801
G1 X178.832 Y172.177 E45.17052
G1 X178.412 Y172.269 E45.18482
G1 X177.41 Y172.413 E45.21849
G1 X177.002 Y172.442 E45.23209
G1 X176.516 Y172.46 E45.24827
G1 X173.592 Y172.464 E45.34552
G1 X168.663 Y172.456 E45.50946
G1 X51.338 Y172.456 E49.4117
G1 X46.389 Y172.463 E49.57631
G1 X43.477 Y172.46 E49.67316
G1 X42.93 Y172.438 E49.69137
G1 X42.514 Y172.405 E49.70525
G1 X41.566 Y172.264 E49.73713
G1 X41.161 Y172.175 E49.75092
G1 X40.235 Y171.903 E49.78302
G1 X39.851 Y171.761 E49.79664
G1 X38.905 Y171.329 E49.83123
G1 X38.516 Y171.115 E49.84599
G1 X37.674 Y170.57 E49.87935
G1 X37.336 Y170.315 E49.89344
G1 X36.519 Y169.592 E49.92972
G1 X36.353 Y169.427 E49.93751
G1 X35.681 Y168.661 E49.9714
G1 X35.43 Y168.329 E49.98524
G1 X34.864 Y167.452 E50.01996
G1 X34.659 Y167.075 E50.03423
G1 X34.249 Y166.175 E50.06712
G1 X34.097 Y165.767 E50.0816
G1 X33.818 Y164.814 E50.11463
G1 X33.733 Y164.424 E50.12791
G1 X33.593 Y163.47 E50.15998
G1 X33.561 Y163.054 E50.17386
G1 X33.54 Y162.527 E50.1914
G1 X33.536 Y159.717 E50.28486
G1 X33.544 Y154.986 E50.44221
G1 X33.544 Y64.998 E53.43523
G1 X33.537 Y60.274 E53.59235
G1 X33.54 Y57.479 E53.68531
G1 X33.56 Y56.957 E53.70268
G1 X33.59 Y56.562 E53.71586
G1 X33.726 Y55.622 E53.74745
G1 X33.819 Y55.189 E53.76218
G1 X34.103 Y54.216 E53.79589
G1 X34.246 Y53.832 E53.80952
G1 X34.676 Y52.894 E53.84384
G1 X34.89 Y52.506 E53.85858
G1 X35.422 Y51.684 E53.89114
G1 X35.666 Y51.359 E53.90466
G1 X36.39 Y50.537 E53.94109
G1 X36.564 Y50.362 E53.9493
G1 X37.374 Y49.654 E53.98508
G0 F6000 X37.613 Y49.975
G1 F1200 X37.953 Y49.721 E53.9992
G1 X38.761 Y49.204 E54.0311
G1 X39.136 Y49.001 E54.04529
G1 X39.982 Y48.617 E54.07619
G1 X40.37 Y48.473 E54.08995
G1 X41.254 Y48.214 E54.12059
G1 X41.674 Y48.122 E54.13489
G1 X42.618 Y47.986 E54.16661
G1 X43.026 Y47.957 E54.18022
G1 X43.485 Y47.94 E54.19549
G1 X46.408 Y47.936 E54.29271
G1 X51.337 Y47.944 E54.45665
G1 X168.663 Y47.944 E58.35893
G1 X173.611 Y47.937 E58.5235
G1 X176.523 Y47.94 E58.62036
G1 X177.038 Y47.961 E58.6375
G1 X177.454 Y47.994 E58.65138
G1 X178.349 Y48.127 E58.68147
G1 X178.754 Y48.216 E58.69526
G1 X179.641 Y48.477 E58.72602
G1 X180.041 Y48.626 E58.74021
G1 X180.932 Y49.036 E58.77284
G1 X181.299 Y49.239 E58.78679
G1 X182.076 Y49.743 E58.81759
G1 X182.417 Y50 E58.83179
G1 X183.112 Y50.604 E58.86242
G1 X183.405 Y50.897 E58.8762
G1 X183.989 Y51.565 E58.90571
G1 X184.235 Y51.888 E58.91921
G1 X184.642 Y52.489 E58.94336
G1 X184.839 Y52.841 E58.95677
G1 X184.978 Y53.097 E58.96646
G1 X185.376 Y53.965 E58.99822
G1 X185.522 Y54.356 E59.0121
G1 X185.785 Y55.247 E59.043
G1 X185.873 Y55.647 E59.05662
G1 X186.006 Y56.543 E59.08675
G1 X186.039 Y56.959 E59.10063
G1 X186.06 Y57.472 E59.11771
G1 X186.064 Y60.282 E59.21117
G1 X186.056 Y65.013 E59.36852
G1 X186.056 Y155.002 E62.36157
G1 X186.063 Y159.725 E62.51866
G1 X186.06 Y162.52 E62.61162
G1 X186.041 Y163.013 E62.62803
G1 X186.011 Y163.408 E62.6412
G1 X185.883 Y164.294 E62.67098
G1 X185.79 Y164.727 E62.68571
G1 X185.522 Y165.644 E62.71748
G1 X185.379 Y166.028 E62.73111
G1 X184.974 Y166.911 E62.76342
G1 X184.759 Y167.301 E62.77823
G1 X184.268 Y168.063 E62.80838
G1 X184.059 Y168.343 E62.82001
G1 X183.554 Y168.942 E62.84606
G1 X183.338 Y169.168 E62.85646
G1 X183.14 Y169.369 E62.86585
G1 X182.391 Y170.023 E62.89892
G1 X182.05 Y170.278 E62.91308
G1 X181.239 Y170.796 E62.94509
G1 X180.864 Y170.999 E62.95927
G1 X180.018 Y171.383 E62.99017
G1 X179.63 Y171.527 E63.00394
G1 X178.746 Y171.786 E63.03457
G1 X178.326 Y171.878 E63.04887
G1 X177.382 Y172.014 E63.0806
G1 X176.974 Y172.043 E63.0942
G1 X176.515 Y172.06 E63.10948
G1 X173.592 Y172.064 E63.2067
G1 X168.663 Y172.056 E63.37064
G1 X51.337 Y172.056 E67.27291
G1 X46.389 Y172.063 E67.43749
G1 X43.477 Y172.06 E67.53434
G1 X42.962 Y172.039 E67.55148
G1 X42.546 Y172.006 E67.56536
G1 X41.651 Y171.873 E67.59546
G1 X41.246 Y171.784 E67.60925
G1 X40.374 Y171.528 E67.63948
G1 X39.99 Y171.386 E67.65309
G1 X39.098 Y170.979 E67.6857
G1 X38.709 Y170.765 E67.70047
G1 X37.915 Y170.251 E67.73193
G1 X37.577 Y169.996 E67.74601
G1 X36.807 Y169.314 E67.78022
G1 X36.633 Y169.142 E67.78836
G1 X36 Y168.42 E67.8203
G1 X35.749 Y168.088 E67.83414
G1 X35.216 Y167.261 E67.86686
G1 X35.011 Y166.884 E67.88114
G1 X34.624 Y166.035 E67.91217
G1 X34.472 Y165.627 E67.92665
G1 X34.208 Y164.728 E67.95781
G1 X34.123 Y164.338 E67.97109
G1 X33.991 Y163.439 E68.00131
G1 X33.959 Y163.023 E68.01519
G1 X33.94 Y162.526 E68.03173
G1 X33.936 Y159.718 E68.12513
G1 X33.944 Y154.987 E68.28248
G1 X33.944 Y64.998 E71.27553
G1 X33.937 Y60.275 E71.43261
G1 X33.94 Y57.48 E71.52558
G1 X33.959 Y56.987 E71.54199
G1 X33.989 Y56.592 E71.55516
G1 X34.117 Y55.706 E71.58494
G1 X34.21 Y55.273 E71.59967
G1 X34.478 Y54.356 E71.63144
G1 X34.621 Y53.972 E71.64507
G1 X35.027 Y53.087 E71.67745
G1 X35.241 Y52.699 E71.69219
G1 X35.742 Y51.924 E71.72289
G1 X35.986 Y51.599 E71.7364
G1 X36.669 Y50.825 E71.77074
G1 X36.85 Y50.642 E71.7793
G1 X37.613 Y49.975 E71.813
G0 F6000 X37.852 Y50.295
G1 F1200 X38.192 Y50.041 E71.82712
G1 X38.951 Y49.556 E71.85708
G1 X39.326 Y49.353 E71.87126
G1 X40.121 Y48.992 E71.9003
G1 X40.509 Y48.848 E71.91407
G1 X41.339 Y48.605 E71.94283
G1 X41.759 Y48.513 E71.95713
G1 X42.646 Y48.385 E71.98694
G1 X43.054 Y48.356 E72.00054
G1 X43.485 Y48.34 E72.01489
G1 X46.407 Y48.336 E72.11207
G1 X51.336 Y48.344 E72.27601
G1 X168.663 Y48.344 E76.17833
G1 X173.61 Y48.337 E76.34286
G1 X176.522 Y48.34 E76.43972
G1 X177.006 Y48.359 E76.45583
G1 X177.422 Y48.392 E76.46971
G1 X178.263 Y48.517 E76.49799
G1 X178.668 Y48.606 E76.51178
G1 X179.501 Y48.852 E76.54067
G1 X179.901 Y49.001 E76.55486
G1 X180.738 Y49.386 E76.58551
G1 X181.105 Y49.589 E76.59946
G1 X181.836 Y50.063 E76.62843
G1 X182.177 Y50.32 E76.64263
G1 X182.829 Y50.887 E76.67137
G1 X183.122 Y51.18 E76.68516
G1 X183.67 Y51.807 E76.71285
G1 X183.916 Y52.13 E76.72636
G1 X184.31 Y52.714 E76.74979
G1 X184.484 Y53.025 E76.76164
G1 X184.627 Y53.289 E76.77163
G1 X185.001 Y54.105 E76.80148
G1 X185.147 Y54.496 E76.81536
G1 X185.394 Y55.333 E76.84439
G1 X185.482 Y55.733 E76.85801
G1 X185.608 Y56.575 E76.88633
G1 X185.641 Y56.991 E76.90021
G1 X185.66 Y57.472 E76.91622
