;FLAVOR:Marlin
;TIME:7992
;Filament used: 4.22498m
;Layer height: 0.2
;MINX:14.876
;MINY:15.523
;MINZ:0.2
;MAXX:207.79
;MAXY:207.179
;MAXZ:1.6
;Generated with Creality Slicer 4.8.2-205
M140 S50
M105
M190 S50
M104 S200
M105
M109 S200
M82 ;absolute extrusion mode

G28 ;Home

G92 E0 ;Reset Extruder
G1 Z2.0 F3000 ;Move Z Axis up
G1 X10.1 Y20 Z0.28 F5000.0 ;Move to start position
G1 X10.1 Y200.0 Z0.28 F1500.0 E15 ;Draw the first line
G1 X10.4 Y200.0 Z0.28 F5000.0 ;Move to side a little
G1 X10.4 Y20 Z0.28 F1500.0 E30 ;Draw the second line
G92 E0 ;Reset Extruder
G1 Z2.0 F3000 ;Move Z Axis up

G92 E0
G92 E0
G1 F2100 E-5
;LAYER_COUNT:8
;LAYER:0
M107
G0 F6000 X100.629 Y45.818 Z0.2
;TYPE:SKIRT
G1 F2100 E0
G1 F1200 X101.009 Y45.126 E0.02626
G1 X101.457 Y44.476 E0.05251
G1 X101.968 Y43.874 E0.07878
G1 X102.538 Y43.327 E0.10505
G1 X103.16 Y42.841 E0.13131
G1 X103.828 Y42.419 E0.15759
G1 X104.535 Y42.068 E0.18384
G1 X105.274 Y41.79 E0.2101
G1 X106.038 Y41.588 E0.23639
G1 X106.692 Y41.479 E0.25844
G1 X106.943 Y41.448 E0.26685
G1 X107.519 Y41.398 E0.28608
G1 X108.141 Y41.369 E0.30679
G1 X108.921 Y41.347 E0.33274
G1 X109.926 Y41.326 E0.36618
G1 X111.836 Y41.298 E0.42971
G1 X113.416 Y41.281 E0.48226
G1 X116.217 Y41.259 E0.57543
G1 X119.557 Y41.239 E0.68652
G1 X123.437 Y41.222 E0.81557
G1 X131.097 Y41.198 E1.07034
G1 X133.914 Y41.192 E1.16404
G1 X138.397 Y33.775 E1.45229
G1 X142.241 Y27.426 E1.69915
G1 X144.642 Y23.471 E1.85303
G1 X145.987 Y21.267 E1.93891
G1 X146.721 Y20.075 E1.98547
G1 X147.08 Y19.501 E2.00799
G1 X147.269 Y19.206 E2.01964
G1 X147.549 Y18.798 E2.0361
G1 X147.618 Y18.704 E2.03998
G1 X148.117 Y18.092 E2.06624
G1 X148.675 Y17.534 E2.09249
G1 X149.287 Y17.035 E2.11875
G1 X149.946 Y16.6 E2.14501
G1 X150.646 Y16.234 E2.17129
G1 X151.379 Y15.941 E2.19754
G1 X152.138 Y15.723 E2.22381
G1 X152.916 Y15.583 E2.2501
G1 X153.703 Y15.523 E2.27635
G1 X154.492 Y15.542 E2.3026
G1 X155.276 Y15.641 E2.32888
G1 X156.045 Y15.819 E2.35514
G1 X156.793 Y16.074 E2.38142
G1 X157.511 Y16.403 E2.40769
G1 X158.192 Y16.803 E2.43396
G1 X158.829 Y17.27 E2.46023
G1 X159.415 Y17.798 E2.48646
G1 X159.945 Y18.384 E2.51274
G1 X160.417 Y19.026 E2.53925
G1 X160.716 Y19.483 E2.55741
G1 X160.973 Y19.897 E2.57362
G1 X161.625 Y20.968 E2.61532
G1 X163.025 Y23.284 E2.70533
G1 X164.819 Y26.266 E2.82108
G1 X168.276 Y32.027 E3.04454
G1 X173.694 Y41.066 E3.39505
G1 X176.479 Y41.094 E3.48768
G1 X181.837 Y41.141 E3.6659
G1 X192.858 Y41.232 E4.03247
G1 X196.304 Y41.264 E4.14709
G1 X198.755 Y41.292 E4.22862
G1 X199.932 Y41.313 E4.26777
G1 X200.26 Y41.325 E4.27869
G1 X201.047 Y41.394 E4.30496
G1 X201.823 Y41.542 E4.33124
G1 X202.579 Y41.768 E4.35748
G1 X203.309 Y42.069 E4.38374
G1 X204.005 Y42.442 E4.41001
G1 X204.66 Y42.884 E4.43629
G1 X205.266 Y43.389 E4.46253
G1 X205.819 Y43.954 E4.48882
G1 X206.311 Y44.571 E4.51507
G1 X206.739 Y45.235 E4.54134
G1 X207.168 Y46.104 E4.57358
G1 X207.181 Y46.135 E4.5747
G1 X207.449 Y46.877 E4.60093
G1 X207.641 Y47.643 E4.6272
G1 X207.754 Y48.425 E4.65348
G1 X207.788 Y49.214 E4.67975
G1 X207.741 Y50.002 E4.706
G1 X207.616 Y50.782 E4.73228
G1 X207.412 Y51.545 E4.75854
G1 X207.132 Y52.283 E4.7848
G1 X206.809 Y52.934 E4.80897
G1 X206.532 Y53.431 E4.82789
G1 X206.019 Y54.318 E4.86197
G1 X204.621 Y56.704 E4.95395
G1 X200.825 Y63.135 E5.20233
G1 X193.862 Y74.889 E5.65672
G1 X195.899 Y78.321 E5.78946
G1 X200.193 Y85.566 E6.06957
G1 X202.948 Y90.23 E6.24974
G1 X204.962 Y93.653 E6.38183
G1 X206.049 Y95.512 E6.45346
G1 X206.569 Y96.416 E6.48814
G1 X206.742 Y96.723 E6.49986
G1 X206.949 Y97.116 E6.51464
G1 X207.002 Y97.224 E6.51864
G1 X207.314 Y97.949 E6.54489
G1 X207.55 Y98.703 E6.57117
G1 X207.71 Y99.476 E6.59742
G1 X207.79 Y100.262 E6.6237
G1 X207.79 Y101.051 E6.64994
G1 X207.711 Y101.837 E6.67622
G1 X207.552 Y102.611 E6.7025
G1 X207.316 Y103.364 E6.72874
G1 X207.005 Y104.09 E6.75501
G1 X206.622 Y104.781 E6.78129
G1 X206.172 Y105.429 E6.80753
G1 X205.658 Y106.029 E6.83381
G1 X205.086 Y106.574 E6.86009
G1 X204.462 Y107.058 E6.88635
G1 X203.792 Y107.476 E6.91262
G1 X203.084 Y107.825 E6.93887
G1 X202.344 Y108.1 E6.96513
G1 X201.579 Y108.298 E6.99141
G1 X200.799 Y108.419 E7.01766
G1 X200.13 Y108.459 E7.03995
G1 X199.577 Y108.468 E7.05835
G1 X197.619 Y108.482 E7.12347
G1 X193.302 Y108.505 E7.26706
G1 X182.8 Y108.55 E7.61636
G1 X173.805 Y108.582 E7.91554
G1 X172.427 Y110.884 E8.00477
G1 X169.264 Y116.151 E8.20912
G1 X166.615 Y120.543 E8.37971
G1 X164.872 Y123.42 E8.49159
G1 X163.433 Y125.779 E8.58349
G1 X162.278 Y127.657 E8.65682
G1 X161.607 Y128.735 E8.69906
G1 X161.056 Y129.606 E8.73334
G1 X160.625 Y130.271 E8.75969
G1 X160.48 Y130.489 E8.7684
G1 X160.331 Y130.705 E8.77713
G1 X160.133 Y130.982 E8.78845
G1 X159.641 Y131.6 E8.81473
G1 X159.27 Y131.993 E8.8327
G1 X159.183 Y132.079 E8.83677
G1 X158.594 Y132.605 E8.86304
G1 X157.955 Y133.069 E8.8893
G1 X157.273 Y133.466 E8.91555
G1 X156.553 Y133.791 E8.94182
G1 X155.805 Y134.043 E8.96808
G1 X155.034 Y134.217 E8.99436
G1 X154.25 Y134.313 E9.02063
G1 X153.461 Y134.328 E9.04688
G1 X152.674 Y134.264 E9.07314
G1 X151.897 Y134.121 E9.09942
G1 X151.139 Y133.9 E9.12568
G1 X150.407 Y133.603 E9.15196
G1 X149.709 Y133.234 E9.17822
G1 X149.052 Y132.796 E9.20448
G1 X148.443 Y132.294 E9.23073
G1 X147.887 Y131.733 E9.257
G1 X147.391 Y131.118 E9.28328
G1 X147.034 Y130.582 E9.3047
G1 X146.618 Y129.897 E9.33135
G1 X143.596 Y124.85 E9.52701
G1 X133.886 Y108.591 E10.15688
G1 X122.168 Y108.562 E10.54662
G1 X116.225 Y108.54 E10.74429
G1 X111.897 Y108.518 E10.88824
G1 X109.446 Y108.498 E10.96977
G1 X108.179 Y108.482 E11.01191
G1 X107.699 Y108.472 E11.02788
G1 X107.244 Y108.454 E11.04302
G1 X106.458 Y108.379 E11.06928
G1 X105.684 Y108.225 E11.09553
G1 X104.929 Y107.993 E11.1218
G1 X104.201 Y107.686 E11.14808
G1 X103.508 Y107.307 E11.17435
G1 X102.857 Y106.86 E11.20062
G1 X102.255 Y106.349 E11.22688
G1 X101.707 Y105.78 E11.25316
G1 X101.22 Y105.159 E11.2794
G1 X100.798 Y104.492 E11.30566
G1 X100.445 Y103.785 E11.33194
G1 X100.166 Y103.046 E11.35821
G1 X99.963 Y102.283 E11.38447
G1 X99.838 Y101.503 E11.41075
G1 X99.793 Y100.715 E11.437
G1 X99.828 Y99.926 E11.46327
G1 X99.942 Y99.145 E11.48952
G1 X100.135 Y98.379 E11.51579
G1 X100.404 Y97.636 E11.54207
G1 X100.738 Y96.941 E11.56772
G1 X100.865 Y96.707 E11.57657
G1 X100.986 Y96.492 E11.58478
G1 X101.415 Y95.758 E11.61306
G1 X103.036 Y93.018 E11.71894
G1 X105.731 Y88.482 E11.89443
G1 X109.502 Y82.15 E12.13955
G1 X113.824 Y74.902 E12.42023
G1 X107.529 Y64.319 E12.82978
G1 X103.101 Y56.866 E13.11812
G1 X100.997 Y53.317 E13.25535
G1 X100.719 Y52.804 E13.27475
G1 X100.66 Y52.685 E13.27917
G1 X100.345 Y51.96 E13.30546
G1 X100.106 Y51.208 E13.33171
G1 X99.943 Y50.435 E13.35798
G1 X99.86 Y49.65 E13.38424
G1 X99.856 Y48.86 E13.41051
G1 X99.933 Y48.074 E13.43678
G1 X100.088 Y47.3 E13.46303
G1 X100.321 Y46.545 E13.48931
G1 X100.629 Y45.818 E13.51557
G0 F6000 X101.069 Y45.832
G1 F1200 X101.457 Y45.167 E13.54118
G1 X101.911 Y44.546 E13.56677
G1 X102.427 Y43.976 E13.59234
G1 X102.999 Y43.462 E13.61792
G1 X103.622 Y43.011 E13.6435
G1 X104.288 Y42.627 E13.66907
G1 X104.991 Y42.314 E13.69466
G1 X105.722 Y42.075 E13.72024
G1 X106.741 Y41.876 E13.75477
G1 X106.992 Y41.845 E13.76319
G1 X107.539 Y41.798 E13.78145
G1 X108.153 Y41.769 E13.80189
G1 X108.929 Y41.747 E13.82771
G1 X109.932 Y41.726 E13.86108
G1 X111.84 Y41.698 E13.92455
G1 X113.42 Y41.681 E13.9771
G1 X116.22 Y41.659 E14.07023
G1 X119.558 Y41.639 E14.18125
G1 X123.438 Y41.622 E14.31031
G1 X131.098 Y41.598 E14.56508
G1 X134.141 Y41.592 E14.66629
G1 X138.74 Y33.982 E14.96203
G1 X142.583 Y27.633 E15.20887
G1 X144.983 Y23.68 E15.36268
G1 X146.327 Y21.476 E15.44854
G1 X147.06 Y20.287 E15.495
G1 X147.417 Y19.717 E15.51737
G1 X147.606 Y19.422 E15.52902
G1 X147.872 Y19.035 E15.54464
G1 X147.941 Y18.941 E15.54852
G1 X148.427 Y18.346 E15.57407
G1 X148.973 Y17.804 E15.59966
G1 X149.573 Y17.322 E15.62526
G1 X150.219 Y16.904 E15.65085
G1 X150.904 Y16.556 E15.6764
G1 X151.623 Y16.281 E15.70201
G1 X152.366 Y16.082 E15.72759
G1 X153.125 Y15.961 E15.75315
G1 X153.893 Y15.92 E15.77873
G1 X154.662 Y15.959 E15.80434
G1 X155.422 Y16.077 E15.82992
G1 X156.165 Y16.273 E15.85548
G1 X156.884 Y16.546 E15.88106
G1 X157.572 Y16.892 E15.90668
G1 X158.219 Y17.307 E15.93224
G1 X158.82 Y17.787 E15.95782
G1 X159.368 Y18.327 E15.98341
G1 X159.856 Y18.921 E16.00898
G1 X160.084 Y19.246 E16.02219
G1 X160.268 Y19.525 E16.0333
G1 X160.376 Y19.694 E16.03997
G1 X160.631 Y20.105 E16.05606
G1 X161.283 Y21.175 E16.09773
G1 X162.682 Y23.491 E16.18773
G1 X164.476 Y26.472 E16.30345
G1 X167.933 Y32.233 E16.52691
G1 X173.465 Y41.464 E16.88484
G1 X176.475 Y41.494 E16.98496
G1 X181.834 Y41.541 E17.16321
G1 X192.854 Y41.632 E17.52975
G1 X196.3 Y41.664 E17.64437
G1 X198.748 Y41.692 E17.7258
G1 X199.918 Y41.713 E17.76472
G1 X200.246 Y41.725 E17.77563
G1 X201.012 Y41.793 E17.80121
G1 X201.767 Y41.94 E17.82679
G1 X202.502 Y42.165 E17.85236
G1 X203.211 Y42.465 E17.87796
G1 X203.884 Y42.837 E17.90354
G1 X204.515 Y43.276 E17.92911
G1 X205.097 Y43.779 E17.95469
G1 X205.624 Y44.34 E17.98029
G1 X206.089 Y44.952 E18.00586
G1 X206.489 Y45.609 E18.03144
G1 X206.799 Y46.258 E18.05536
G1 X206.812 Y46.289 E18.05648
G1 X207.072 Y47.013 E18.08207
G1 X207.256 Y47.76 E18.10765
G1 X207.361 Y48.522 E18.13324
G1 X207.387 Y49.291 E18.15883
G1 X207.332 Y50.058 E18.18441
G1 X207.198 Y50.815 E18.20998
G1 X206.987 Y51.555 E18.23557
G1 X206.699 Y52.268 E18.26114
G1 X206.459 Y52.74 E18.27876
G1 X206.186 Y53.231 E18.29744
G1 X205.674 Y54.116 E18.33145
G1 X204.277 Y56.5 E18.42335
G1 X200.481 Y62.931 E18.67173
G1 X193.397 Y74.889 E19.13401
G1 X195.555 Y78.524 E19.27461
G1 X199.849 Y85.77 E19.55475
G1 X202.603 Y90.433 E19.73487
G1 X204.617 Y93.854 E19.86691
G1 X205.702 Y95.712 E19.93847
G1 X206.221 Y96.612 E19.97302
G1 X206.394 Y96.919 E19.98474
G1 X206.59 Y97.292 E19.99876
G1 X206.643 Y97.4 E20.00276
G1 X206.946 Y98.107 E20.02834
G1 X207.173 Y98.842 E20.05393
G1 X207.323 Y99.596 E20.0795
G1 X207.394 Y100.362 E20.10509
G1 X207.385 Y101.131 E20.13066
G1 X207.296 Y101.895 E20.15625
G1 X207.129 Y102.646 E20.18184
G1 X206.884 Y103.375 E20.20741
G1 X206.565 Y104.075 E20.233
G1 X206.175 Y104.738 E20.25858
G1 X205.718 Y105.357 E20.28418
G1 X205.2 Y105.925 E20.30974
G1 X204.625 Y106.436 E20.33533
G1 X204.001 Y106.885 E20.3609
G1 X203.333 Y107.267 E20.38649
G1 X202.629 Y107.577 E20.41208
G1 X201.897 Y107.813 E20.43766
G1 X201.144 Y107.971 E20.46325
G1 X200.124 Y108.059 E20.4973
G1 X199.574 Y108.068 E20.51559
G1 X197.617 Y108.082 E20.58069
G1 X193.301 Y108.105 E20.72424
G1 X182.799 Y108.15 E21.07354
G1 X173.578 Y108.183 E21.38023
G1 X172.084 Y110.678 E21.47696
G1 X168.921 Y115.944 E21.68127
G1 X166.273 Y120.336 E21.85185
G1 X164.53 Y123.212 E21.9637
G1 X163.092 Y125.569 E22.05553
G1 X161.938 Y127.446 E22.12881
G1 X161.269 Y128.521 E22.17093
G1 X160.721 Y129.389 E22.20507
G1 X160.292 Y130.049 E22.23125
G1 X160.147 Y130.267 E22.23996
G1 X160.005 Y130.472 E22.24825
G1 X159.807 Y130.749 E22.25958
G1 X159.328 Y131.351 E22.28517
G1 X158.989 Y131.709 E22.30156
G1 X158.902 Y131.795 E22.30563
G1 X158.328 Y132.306 E22.33119
G1 X157.704 Y132.755 E22.35676
G1 X157.036 Y133.137 E22.38236
G1 X156.332 Y133.448 E22.40795
G1 X155.6 Y133.684 E22.43354
G1 X154.848 Y133.842 E22.45909
G1 X154.082 Y133.922 E22.48471
G1 X153.313 Y133.922 E22.51029
G1 X152.548 Y133.842 E22.53587
G1 X151.796 Y133.683 E22.56143
G1 X151.064 Y133.447 E22.58701
G1 X150.36 Y133.136 E22.61261
G1 X149.693 Y132.753 E22.63819
G1 X149.069 Y132.304 E22.66376
G1 X148.495 Y131.792 E22.68934
G1 X147.977 Y131.223 E22.71494
G1 X147.376 Y130.374 E22.74953
G1 X146.961 Y129.692 E22.77609
G1 X143.939 Y124.645 E22.97174
G1 X135.555 Y110.608 E23.51555
G1 X134.113 Y108.191 E23.60916
G1 X122.17 Y108.162 E24.00639
G1 X116.227 Y108.14 E24.20406
G1 X111.9 Y108.118 E24.34797
G1 X109.451 Y108.098 E24.42943
G1 X108.187 Y108.082 E24.47147
G1 X107.53 Y108.067 E24.49333
G1 X107.262 Y108.055 E24.50226
G1 X106.496 Y107.98 E24.52785
G1 X105.743 Y107.827 E24.55341
G1 X105.009 Y107.596 E24.579
G1 X104.303 Y107.291 E24.60458
G1 X103.633 Y106.913 E24.63017
G1 X103.005 Y106.468 E24.65577
G1 X102.428 Y105.961 E24.68132
G1 X101.905 Y105.396 E24.70692
G1 X101.445 Y104.78 E24.73249
G1 X101.05 Y104.12 E24.75808
G1 X100.727 Y103.422 E24.78366
G1 X100.478 Y102.694 E24.80925
G1 X100.305 Y101.945 E24.83482
G1 X100.211 Y101.181 E24.86042
G1 X100.197 Y100.412 E24.886
G1 X100.263 Y99.646 E24.91157
G1 X100.408 Y98.891 E24.93714
G1 X100.631 Y98.154 E24.96275
G1 X101.089 Y97.132 E25
G1 X101.216 Y96.898 E25.00886
G1 X101.331 Y96.694 E25.01664
G1 X101.759 Y95.962 E25.04485
G1 X103.38 Y93.222 E25.15073
G1 X106.075 Y88.687 E25.32619
G1 X109.845 Y82.355 E25.5713
G1 X114.289 Y74.902 E25.85991
G1 X107.873 Y64.115 E26.27735
G1 X103.446 Y56.662 E26.56567
G1 X101.342 Y53.113 E26.7029
G1 X101.077 Y52.626 E26.72134
G1 X101.018 Y52.507 E26.72575
G1 X100.713 Y51.801 E26.75133
G1 X100.482 Y51.067 E26.77693
G1 X100.329 Y50.314 E26.80248
G1 X100.255 Y49.548 E26.82808
G1 X100.261 Y48.779 E26.85366
G1 X100.347 Y48.014 E26.87926
G1 X100.511 Y47.263 E26.90483
G1 X100.753 Y46.533 E26.93041
G1 X101.069 Y45.832 E26.95598
G0 F6000 X101.512 Y45.852
G1 F1200 X101.906 Y45.216 E26.98087
G1 X102.366 Y44.626 E27.00575
G1 X102.886 Y44.089 E27.03061
G1 X103.461 Y43.61 E27.0555
G1 X104.084 Y43.195 E27.0804
G1 X104.747 Y42.849 E27.10527
G1 X105.443 Y42.576 E27.13014
G1 X106.165 Y42.379 E27.15503
G1 X106.79 Y42.273 E27.17612
G1 X107.041 Y42.242 E27.18453
G1 X107.558 Y42.197 E27.20179
G1 X108.165 Y42.169 E27.222
G1 X108.937 Y42.147 E27.24769
G1 X109.938 Y42.126 E27.28099
G1 X111.845 Y42.098 E27.34442
G1 X113.423 Y42.081 E27.39691
G1 X116.222 Y42.059 E27.49001
G1 X119.56 Y42.039 E27.60103
G1 X123.439 Y42.022 E27.73005
G1 X131.098 Y41.998 E27.98479
G1 X134.366 Y41.991 E28.09348
G1 X139.082 Y34.189 E28.3967
G1 X142.925 Y27.841 E28.64351
G1 X145.325 Y23.888 E28.79732
G1 X146.668 Y21.686 E28.88311
G1 X147.4 Y20.499 E28.92949
G1 X147.754 Y19.933 E28.9517
G1 X147.943 Y19.638 E28.96335
G1 X148.194 Y19.272 E28.97811
G1 X148.263 Y19.178 E28.98199
G1 X148.737 Y18.599 E29.00688
G1 X149.271 Y18.075 E29.03176
G1 X149.857 Y17.61 E29.05664
G1 X150.489 Y17.211 E29.0815
G1 X151.161 Y16.881 E29.1064
G1 X151.864 Y16.625 E29.13129
G1 X152.59 Y16.445 E29.15616
G1 X153.331 Y16.344 E29.18104
G1 X154.079 Y16.322 E29.20593
G1 X154.824 Y16.381 E29.23078
G1 X155.56 Y16.518 E29.25568
G1 X156.276 Y16.733 E29.28055
G1 X156.965 Y17.024 E29.30542
G1 X157.62 Y17.386 E29.33031
G1 X158.232 Y17.817 E29.35521
G1 X158.794 Y18.31 E29.38008
G1 X159.301 Y18.86 E29.40496
G1 X159.75 Y19.466 E29.43004
G1 X159.934 Y19.745 E29.44116
G1 X160.036 Y19.905 E29.44747
G1 X160.29 Y20.314 E29.46348
G1 X160.941 Y21.382 E29.50508
G1 X162.339 Y23.697 E29.59503
G1 X164.133 Y26.677 E29.71072
G1 X167.59 Y32.438 E29.93418
G1 X173.238 Y41.861 E30.29958
G1 X176.471 Y41.894 E30.40711
G1 X181.83 Y41.941 E30.58536
G1 X192.85 Y42.032 E30.9519
G1 X196.295 Y42.064 E31.06649
G1 X198.741 Y42.092 E31.14785
G1 X199.763 Y42.109 E31.18184
G1 X200.231 Y42.125 E31.19742
G1 X200.976 Y42.192 E31.2223
G1 X201.71 Y42.338 E31.24719
G1 X202.423 Y42.562 E31.27205
G1 X203.109 Y42.861 E31.29694
G1 X203.759 Y43.231 E31.32181
G1 X204.366 Y43.669 E31.34671
G1 X204.923 Y44.168 E31.37158
G1 X205.423 Y44.724 E31.39645
G1 X205.861 Y45.331 E31.42135
G1 X206.232 Y45.981 E31.44624
G1 X206.443 Y46.444 E31.46316
G1 X206.695 Y47.148 E31.48803
G1 X206.871 Y47.875 E31.51291
G1 X206.968 Y48.617 E31.5378
G1 X206.985 Y49.365 E31.56269
G1 X206.922 Y50.111 E31.58759
G1 X206.78 Y50.845 E31.61245
G1 X206.56 Y51.56 E31.63733
