;FLAVOR:Marlin
;TIME:6316
;Filament used: 4.11866m
;Layer height: 0.2
;MINX:49.9
;MINY:54.4
;MINZ:0.2
;MAXX:170.1
;MAXY:167.5
;MAXZ:12.6
;Generated with Creality Slicer 4.8.2-205
M140 S50
M105
M190 S50
M104 S200
M105
M109 S200
M82 ;absolute extrusion mode

G28 ;Home

G92 E0 ;Reset Extruder
G1 Z2.0 F3000 ;Move Z Axis up
G1 X10.1 Y20 Z0.28 F5000.0 ;Move to start position
G1 X10.1 Y200.0 Z0.28 F1500.0 E15 ;Draw the first line
G1 X10.4 Y200.0 Z0.28 F5000.0 ;Move to side a little
G1 X10.4 Y20 Z0.28 F1500.0 E30 ;Draw the second line
G92 E0 ;Reset Extruder
G1 Z2.0 F3000 ;Move Z Axis up

G92 E0
G92 E0
G1 F2100 E-5
;LAYER_COUNT:63
;LAYER:0
M107
G0 F6000 X53.792 Y57.504 Z0.2
;TYPE:SKIRT
G1 F2100 E0
G1 F1200 X54.021 Y57.301 E0.01018
G1 X54.749 Y56.709 E0.04139
G1 X55.524 Y56.181 E0.07258
G1 X56.342 Y55.722 E0.10377
G1 X57.317 Y55.286 E0.1393
G1 X57.591 Y55.179 E0.14908
G1 X58.478 Y54.875 E0.18027
G1 X59.388 Y54.648 E0.21146
G1 X60.575 Y54.472 E0.25137
G1 X60.715 Y54.459 E0.25605
G1 X61.559 Y54.413 E0.28416
G1 X62.497 Y54.4 E0.31536
G1 X157.543 Y54.4 E3.47661
G1 X158.43 Y54.412 E3.50611
G1 X159.757 Y54.513 E3.55038
G1 X160.326 Y54.604 E3.56954
G1 X160.53 Y54.642 E3.57644
G1 X161.444 Y54.853 E3.60764
G1 X162.337 Y55.141 E3.63885
G1 X163.202 Y55.504 E3.67005
G1 X163.699 Y55.753 E3.68854
G1 X163.948 Y55.886 E3.69793
G1 X164.755 Y56.363 E3.72911
G1 X165.519 Y56.907 E3.7603
G1 X166.234 Y57.514 E3.7915
G1 X166.992 Y58.288 E3.82753
G1 X167.197 Y58.519 E3.8378
G1 X167.789 Y59.246 E3.86898
G1 X168.317 Y60.021 E3.90017
G1 X168.777 Y60.838 E3.93136
G1 X169.21 Y61.801 E3.96648
G1 X169.314 Y62.066 E3.97595
G1 X169.619 Y62.953 E4.00714
G1 X169.847 Y63.863 E4.03835
G1 X170.023 Y65.028 E4.07753
G1 X170.037 Y65.173 E4.08238
G1 X170.087 Y66.052 E4.11166
G1 X170.099 Y66.795 E4.13638
G1 X170.1 Y153.02 E7.00423
G1 X170.088 Y153.925 E7.03433
G1 X169.987 Y155.258 E7.0788
G1 X169.894 Y155.837 E7.0983
G1 X169.856 Y156.04 E7.10517
G1 X169.644 Y156.954 E7.13638
G1 X169.356 Y157.846 E7.16755
G1 X168.992 Y158.71 E7.19874
G1 X168.747 Y159.199 E7.21693
G1 X168.614 Y159.448 E7.22632
G1 X168.137 Y160.255 E7.2575
G1 X167.593 Y161.019 E7.28869
G1 X166.986 Y161.734 E7.31989
G1 X166.212 Y162.492 E7.35592
G1 X165.981 Y162.697 E7.36619
G1 X165.254 Y163.289 E7.39737
G1 X164.479 Y163.817 E7.42856
G1 X163.662 Y164.277 E7.45975
G1 X162.68 Y164.717 E7.49554
G1 X162.411 Y164.822 E7.50514
G1 X161.523 Y165.126 E7.53636
G1 X160.613 Y165.352 E7.56755
G1 X159.858 Y165.479 E7.59301
G1 X159.645 Y165.507 E7.60016
G1 X157.069 Y165.881 E7.68673
G1 X154.545 Y166.319 E7.77194
G1 X152.083 Y166.82 E7.8555
G1 X150.342 Y167.216 E7.91489
G1 X149.419 Y167.385 E7.94609
G1 X148.3 Y167.483 E7.98346
G1 X148.134 Y167.489 E7.98898
G1 X147.858 Y167.495 E7.99816
G1 X147.374 Y167.5 E8.01426
G1 X74.144 Y167.499 E10.4499
G1 X73.442 Y167.489 E10.47325
G1 X72.506 Y167.436 E10.50443
G1 X71.295 Y167.246 E10.5452
G1 X70.643 Y167.106 E10.56738
G1 X68.104 Y166.597 E10.65351
G1 X65.647 Y166.177 E10.73642
G1 X63.139 Y165.82 E10.82067
G1 X60.57 Y165.528 E10.90667
G1 X60.072 Y165.46 E10.92339
G1 X59.747 Y165.408 E10.93433
G1 X58.828 Y165.22 E10.96553
G1 X57.929 Y164.955 E10.99671
G1 X57.055 Y164.614 E11.02791
G1 X56.245 Y164.218 E11.0579
G1 X55.994 Y164.082 E11.06739
G1 X55.189 Y163.6 E11.0986
G1 X54.428 Y163.052 E11.12979
G1 X53.717 Y162.44 E11.16099
G1 X53.001 Y161.705 E11.19512
G1 X52.799 Y161.477 E11.20525
G1 X52.207 Y160.749 E11.23646
G1 X51.68 Y159.973 E11.26766
G1 X51.22 Y159.155 E11.29887
G1 X50.781 Y158.171 E11.33471
G1 X50.674 Y157.896 E11.34452
G1 X50.371 Y157.008 E11.37573
G1 X50.145 Y156.098 E11.40692
G1 X49.974 Y154.946 E11.44565
G1 X49.961 Y154.809 E11.45023
G1 X49.913 Y153.937 E11.47928
G1 X49.9 Y152.982 E11.51104
G1 X49.901 Y66.757 E14.3789
G1 X49.912 Y66.064 E14.40195
G1 X49.967 Y65.128 E14.43314
G1 X50.08 Y64.32 E14.46027
G1 X50.125 Y64.066 E14.46885
G1 X50.328 Y63.15 E14.50006
G1 X50.608 Y62.255 E14.53125
G1 X50.963 Y61.387 E14.56244
G1 X51.245 Y60.819 E14.58353
G1 X51.378 Y60.569 E14.59295
G1 X51.853 Y59.76 E14.62415
G1 X52.396 Y58.995 E14.65535
G1 X53.001 Y58.279 E14.68653
G1 X53.792 Y57.504 E14.72336
G0 F6000 X54.057 Y57.803
G1 F1200 X54.286 Y57.6 E14.73354
G1 X55.001 Y57.02 E14.76416
G1 X55.764 Y56.504 E14.7948
G1 X56.568 Y56.056 E14.82541
G1 X57.462 Y55.658 E14.85796
G1 X57.736 Y55.551 E14.86774
G1 X58.607 Y55.254 E14.89835
G1 X59.501 Y55.033 E14.92898
G1 X60.612 Y54.87 E14.96633
G1 X60.752 Y54.857 E14.971
G1 X61.566 Y54.813 E14.99812
G1 X62.497 Y54.8 E15.02908
G1 X157.543 Y54.8 E18.19033
G1 X158.423 Y54.812 E18.2196
G1 X159.702 Y54.909 E18.26226
G1 X160.253 Y54.997 E18.28082
G1 X160.457 Y55.035 E18.28772
G1 X161.354 Y55.243 E18.31835
G1 X162.23 Y55.528 E18.34899
G1 X163.077 Y55.887 E18.37958
G1 X163.51 Y56.106 E18.39572
G1 X163.759 Y56.239 E18.40511
G1 X164.552 Y56.708 E18.43575
G1 X165.3 Y57.243 E18.46634
G1 X166 Y57.842 E18.49698
G1 X166.693 Y58.553 E18.53001
G1 X166.898 Y58.784 E18.54028
G1 X167.479 Y59.499 E18.57092
G1 X167.995 Y60.261 E18.60153
G1 X168.444 Y61.065 E18.63216
G1 X168.837 Y61.948 E18.66431
G1 X168.941 Y62.213 E18.67377
G1 X169.24 Y63.083 E18.70437
G1 X169.462 Y63.977 E18.73501
G1 X169.625 Y65.066 E18.77163
G1 X169.639 Y65.211 E18.77648
G1 X169.687 Y66.059 E18.80473
G1 X169.699 Y66.802 E18.82944
G1 X169.7 Y153.02 E21.69707
G1 X169.688 Y153.919 E21.72697
G1 X169.591 Y155.203 E21.7698
G1 X169.501 Y155.763 E21.78866
G1 X169.463 Y155.966 E21.79553
G1 X169.254 Y156.863 E21.82616
G1 X168.969 Y157.738 E21.85677
G1 X168.609 Y158.585 E21.88738
G1 X168.394 Y159.01 E21.90322
G1 X168.261 Y159.259 E21.91261
G1 X167.792 Y160.052 E21.94325
G1 X167.257 Y160.8 E21.97384
G1 X166.658 Y161.5 E22.00448
G1 X165.947 Y162.193 E22.03751
G1 X165.716 Y162.398 E22.04778
G1 X165.001 Y162.979 E22.07842
G1 X164.239 Y163.495 E22.10903
G1 X163.435 Y163.944 E22.13966
G1 X162.534 Y164.344 E22.17245
G1 X162.265 Y164.449 E22.18205
G1 X161.394 Y164.747 E22.21267
G1 X160.5 Y164.967 E22.24329
G1 X159.805 Y165.083 E22.26673
G1 X159.545 Y165.118 E22.27545
G1 X156.98 Y165.489 E22.36165
G1 X154.503 Y165.92 E22.44528
G1 X151.992 Y166.431 E22.5305
G1 X150.253 Y166.826 E22.58982
G1 X149.347 Y166.991 E22.62045
G1 X148.286 Y167.083 E22.65587
G1 X147.854 Y167.095 E22.67024
G1 X147.374 Y167.1 E22.68621
G1 X74.15 Y167.099 E25.12165
G1 X73.448 Y167.089 E25.145
G1 X72.529 Y167.036 E25.17561
G1 X71.379 Y166.855 E25.21433
G1 X70.727 Y166.715 E25.23651
G1 X68.185 Y166.206 E25.32274
G1 X65.694 Y165.779 E25.4068
G1 X63.174 Y165.42 E25.49146
G1 X60.615 Y165.13 E25.57712
G1 X60.135 Y165.065 E25.59323
G1 X59.81 Y165.013 E25.60418
G1 X58.908 Y164.828 E25.6348
G1 X58.026 Y164.566 E25.6654
G1 X57.17 Y164.228 E25.69601
G1 X56.435 Y163.866 E25.72326
G1 X56.184 Y163.73 E25.73276
G1 X55.395 Y163.257 E25.76336
G1 X54.649 Y162.716 E25.79401
G1 X53.953 Y162.114 E25.82461
G1 X53.3 Y161.439 E25.85585
G1 X53.098 Y161.211 E25.86598
G1 X52.518 Y160.496 E25.8966
G1 X52.002 Y159.734 E25.92721
G1 X51.554 Y158.929 E25.95785
G1 X51.153 Y158.026 E25.99071
G1 X51.046 Y157.751 E26.00053
G1 X50.75 Y156.879 E26.03116
G1 X50.531 Y155.985 E26.06177
G1 X50.372 Y154.908 E26.09798
G1 X50.359 Y154.771 E26.10256
G1 X50.313 Y153.931 E26.13054
G1 X50.3 Y152.982 E26.1621
G1 X50.301 Y66.764 E29.02973
G1 X50.312 Y66.071 E29.05278
G1 X50.367 Y65.152 E29.0834
G1 X50.474 Y64.39 E29.10899
G1 X50.519 Y64.136 E29.11757
G1 X50.718 Y63.237 E29.1482
G1 X50.995 Y62.359 E29.17882
G1 X51.348 Y61.509 E29.20943
G1 X51.598 Y61.006 E29.22811
G1 X51.731 Y60.756 E29.23753
G1 X52.198 Y59.963 E29.26814
G1 X52.733 Y59.214 E29.29875
G1 X53.33 Y58.513 E29.32938
G1 X54.057 Y57.803 E29.36318
G0 F6000 X54.323 Y58.102
G1 F1200 X54.552 Y57.899 E29.37336
G1 X55.254 Y57.331 E29.40339
G1 X56.003 Y56.826 E29.43344
G1 X56.794 Y56.39 E29.46348
G1 X57.608 Y56.031 E29.49307
G1 X57.882 Y55.924 E29.50285
G1 X58.737 Y55.633 E29.53289
G1 X59.614 Y55.419 E29.56291
G1 X60.649 Y55.269 E29.5977
G1 X60.789 Y55.256 E29.60237
G1 X61.572 Y55.213 E29.62846
G1 X62.497 Y55.2 E29.65922
G1 X157.543 Y55.2 E32.82047
G1 X158.417 Y55.212 E32.84954
G1 X159.648 Y55.306 E32.8906
G1 X160.18 Y55.39 E32.90852
G1 X160.384 Y55.428 E32.91542
G1 X161.264 Y55.633 E32.94547
G1 X162.122 Y55.915 E32.97551
G1 X163.322 Y56.459 E33.01933
G1 X163.571 Y56.592 E33.02872
G1 X164.348 Y57.052 E33.05875
G1 X165.081 Y57.58 E33.0888
G1 X165.765 Y58.17 E33.11884
G1 X166.394 Y58.819 E33.1489
G1 X166.599 Y59.05 E33.15917
G1 X167.168 Y59.751 E33.1892
G1 X167.673 Y60.5 E33.21925
G1 X168.109 Y61.291 E33.24929
G1 X168.465 Y62.094 E33.27851
G1 X168.569 Y62.359 E33.28797
G1 X168.861 Y63.213 E33.31799
G1 X169.077 Y64.09 E33.34803
G1 X169.227 Y65.105 E33.38216
G1 X169.241 Y65.25 E33.387
G1 X169.287 Y66.065 E33.41415
G1 X169.3 Y66.973 E33.44436
G1 X169.299 Y153.171 E36.31131
G1 X169.288 Y153.913 E36.336
G1 X169.194 Y155.149 E36.37722
G1 X169.108 Y155.69 E36.39544
G1 X169.07 Y155.893 E36.40231
G1 X168.865 Y156.772 E36.43233
G1 X168.582 Y157.63 E36.46238
G1 X168.041 Y158.822 E36.50592
G1 X167.908 Y159.071 E36.51531
G1 X167.448 Y159.848 E36.54534
G1 X166.92 Y160.581 E36.57539
G1 X166.33 Y161.265 E36.60543
G1 X165.681 Y161.894 E36.63549
G1 X165.45 Y162.099 E36.64577
G1 X164.749 Y162.668 E36.67579
G1 X164 Y163.173 E36.70584
G1 X163.209 Y163.609 E36.73588
G1 X162.389 Y163.972 E36.76571
G1 X162.12 Y164.077 E36.77531
G1 X161.265 Y164.368 E36.80535
G1 X160.388 Y164.582 E36.83538
G1 X159.752 Y164.686 E36.85681
G1 X159.526 Y164.716 E36.86439
G1 X156.92 Y165.094 E36.95198
G1 X154.426 Y165.527 E37.03617
G1 X151.91 Y166.039 E37.12156
G1 X150.164 Y166.436 E37.18112
G1 X149.276 Y166.597 E37.21114
G1 X148.271 Y166.683 E37.24468
G1 X147.849 Y166.695 E37.25873
G1 X147.374 Y166.7 E37.27453
G1 X74.156 Y166.699 E39.70977
G1 X73.454 Y166.689 E39.73312
G1 X72.552 Y166.636 E39.76317
G1 X71.463 Y166.464 E39.79984
G1 X70.812 Y166.324 E39.82199
G1 X68.26 Y165.813 E39.90855
G1 X65.751 Y165.384 E39.99321
G1 X63.239 Y165.026 E40.07761
G1 X60.66 Y164.733 E40.16393
G1 X60.198 Y164.67 E40.17944
G1 X59.873 Y164.618 E40.19039
G1 X58.989 Y164.436 E40.22041
G1 X58.124 Y164.176 E40.25045
G1 X57.285 Y163.841 E40.2805
G1 X56.626 Y163.514 E40.30497
G1 X56.375 Y163.378 E40.31446
G1 X55.601 Y162.913 E40.34449
G1 X54.87 Y162.382 E40.37454
G1 X54.19 Y161.787 E40.4046
G1 X53.599 Y161.174 E40.43292
G1 X53.397 Y160.946 E40.44305
G1 X52.829 Y160.244 E40.47308
G1 X52.325 Y159.495 E40.50311
G1 X51.889 Y158.704 E40.53315
G1 X51.526 Y157.881 E40.56307
G1 X51.419 Y157.606 E40.57288
G1 X51.129 Y156.75 E40.60294
G1 X50.916 Y155.873 E40.63296
G1 X50.771 Y154.871 E40.66663
G1 X50.758 Y154.734 E40.67121
G1 X50.713 Y153.925 E40.69816
G1 X50.7 Y152.982 E40.72953
G1 X50.701 Y66.77 E43.59695
G1 X50.712 Y66.077 E43.62
G1 X50.767 Y65.176 E43.65003
G1 X50.867 Y64.46 E43.67407
G1 X50.912 Y64.206 E43.68265
G1 X51.109 Y63.324 E43.71271
G1 X51.383 Y62.464 E43.74273
G1 X51.732 Y61.631 E43.77277
G1 X51.951 Y61.194 E43.78903
G1 X52.084 Y60.944 E43.79844
G1 X52.543 Y60.167 E43.82846
G1 X53.069 Y59.433 E43.85849
G1 X53.658 Y58.748 E43.88854
G1 X54.323 Y58.102 E43.91938
G1 F2100 E38.91938
;MESH:TZ_LCD_Back_Cover_v02.stl
G0 F6000 X62.51 Y64.735
G0 X62.51 Y67.01
G0 X62.482 Y153.017
G0 X63.411 Y153.008
G0 X64.534 Y146.822
G0 X70.639 Y147.428
G0 X71.091 Y153.009
G0 X74.408 Y154.925
G0 X75.668 Y154.918
G0 X75.668 Y143.118
G0 X145.832 Y143.118
G0 X145.832 Y154.918
G0 X147.092 Y154.925
G0 X152.936 Y152.907
G0 X153.643 Y153.429
G0 X154.486 Y153.751
G0 X155.19 Y153.821
G0 X157.775 Y153.6
;TYPE:WALL-INNER
G1 F2100 E43.91938
G1 F1200 X157.843 Y153.55 E43.92218
G1 X157.949 Y153.447 E43.9271
G1 X158.1 Y153.298 E43.93416
G1 X158.1 Y153.55 E43.93704
G1 X158.1 Y153.6
G1 X157.843 Y153.6 E43.9414
G1 X157.775 Y153.6 E43.94141
G0 F6000 X157.583 Y153.244
G1 F1200 X157.927 Y152.908 E43.95741
G1 X158.115 Y152.67 E43.96749
G1 X158.223 Y152.532 E43.97332
G1 X158.462 Y152.13 E43.98888
G1 X158.5 Y152.04 E43.99213
G1 X158.5 Y152.13 E43.99222
G1 X158.5 Y152.532 E43.99716
G1 X158.5 Y152.708 E44.00217
G1 X158.5 Y153.698 E44.03509
G1 X158.436 Y153.905 E44.0423
G1 X158.189 Y154 E44.0511
G1 X157.087 Y154 E44.08776
G1 X156.775 Y154 E44.09813
G1 X156.313 Y154 E44.1135
G1 X156.064 Y154 E44.12178
G1 X156.313 Y153.941 E44.12255
G1 X156.775 Y153.762 E44.12919
G1 X157.048 Y153.611 E44.13754
G1 X157.195 Y153.53 E44.14312
G1 X157.583 Y153.244 E44.15915
G0 F6000 X155.99 Y153.737
G0 X154.411 Y154
G1 F1200 X153.967 Y154 E44.17392
G1 X153.517 Y154 E44.18889
G1 X153.421 Y154 E44.19208
G1 X148.939 Y154 E44.34115
G1 X147.596 Y155.9 E44.41854
G1 X144.85 Y155.9 E44.50987
G1 X144.85 Y144.1 E44.90234
G1 X76.65 Y144.1 E47.17068
G1 X76.65 Y155.9 E47.56315
G1 X73.904 Y155.9 E47.65448
G1 X72.56 Y154.001 E47.73186
G1 X69.085 Y154.001 E47.84744
G1 X68.775 Y154.001 E47.85775
G1 X68.313 Y154.001 E47.87312
G1 X68.063 Y154 E47.88143
G1 X68.313 Y153.941 E47.88222
G1 X68.775 Y153.762 E47.8889
G1 X69.046 Y153.612 E47.8972
G1 X69.195 Y153.53 E47.90285
G1 X69.583 Y153.244 E47.91889
G1 X69.927 Y152.908 E47.93488
G1 X70.223 Y152.532 E47.9508
G1 X70.462 Y152.13 E47.96635
G1 X70.654 Y151.673 E47.98284
G1 X70.781 Y151.209 E47.99884
G1 X70.843 Y150.733 E48.0148
G1 X70.843 Y150.253 E48.03077
G1 X70.778 Y149.775 E48.04681
G1 X70.65 Y149.313 E48.06276
G1 X70.463 Y148.87 E48.07875
G1 X70.215 Y148.456 E48.0948
G1 X69.918 Y148.081 E48.11071
G1 X69.571 Y147.746 E48.12675
G1 X69.182 Y147.462 E48.14277
G1 X68.763 Y147.232 E48.15867
G1 X68.313 Y147.059 E48.17471
G1 X67.845 Y146.949 E48.1907
G1 X67.367 Y146.901 E48.20668
G1 X66.887 Y146.917 E48.22265
G1 X66.413 Y146.997 E48.23864
G1 X65.954 Y147.14 E48.25463
G1 X65.516 Y147.343 E48.27068
G1 X65.112 Y147.603 E48.28666
G1 X64.745 Y147.913 E48.30264
G1 X64.423 Y148.27 E48.31863
G1 X64.151 Y148.666 E48.33461
G1 X63.934 Y149.096 E48.35063
G1 X63.777 Y149.548 E48.36654
G1 X63.68 Y150.021 E48.3826
G1 X63.65 Y150.513 E48.399
G1 X63.68 Y150.979 E48.41453
G1 X63.777 Y151.452 E48.43059
G1 X63.94 Y151.919 E48.44704
G1 X64.159 Y152.347 E48.46303
G1 X64.423 Y152.731 E48.47853
G1 X64.755 Y153.096 E48.49494
G1 X65.111 Y153.396 E48.51043
G1 X65.437 Y153.606 E48.52332
G1 X65.517 Y153.658 E48.5265
G1 X65.967 Y153.865 E48.54297
G1 X66.41 Y154 E48.55837
G1 X65.967 Y154 E48.56073
G1 X65.517 Y154 E48.56952
G1 X65.421 Y154 E48.5725
G1 X61.783 Y153.999 E48.6935
G1 X61.595 Y153.936 E48.70009
G1 X61.5 Y153.692 E48.7088
G1 X61.5 Y66.301 E51.61544
G1 X61.564 Y66.095 E51.62261
G1 X61.811 Y66 E51.63141
G1 X105.8 Y66 E53.09449
G1 X106.024 Y66 E53.10194
G1 X106.668 Y66 E53.12336
G1 X107.277 Y66 E53.14362
G1 X106.668 Y66.123 E53.14706
G1 X106.024 Y66.314 E53.15959
G1 X105.816 Y66.396 E53.16625
G1 X105.398 Y66.56 E53.18119
G1 X104.797 Y66.862 E53.20356
G1 X104.225 Y67.215 E53.22591
G1 X103.686 Y67.618 E53.2483
G1 X103.185 Y68.067 E53.27067
G1 X102.726 Y68.558 E53.29303
G1 X102.312 Y69.087 E53.31537
G1 X101.946 Y69.651 E53.33773
G1 X101.631 Y70.246 E53.36012
G1 X101.37 Y70.866 E53.3825
G1 X101.166 Y71.505 E53.40481
G1 X101.018 Y72.163 E53.42724
G1 X100.929 Y72.828 E53.44956
G1 X100.9 Y73.5 E53.47193
G1 X100.929 Y74.172 E53.4943
G1 X101.018 Y74.837 E53.51661
G1 X101.166 Y75.495 E53.53905
G1 X101.37 Y76.134 E53.56136
G1 X101.631 Y76.754 E53.58373
G1 X101.946 Y77.349 E53.60612
G1 X102.312 Y77.913 E53.62848
G1 X102.726 Y78.442 E53.65083
G1 X103.185 Y78.933 E53.67318
G1 X103.686 Y79.382 E53.69556
G1 X104.225 Y79.785 E53.71794
G1 X104.797 Y80.138 E53.7403
G1 X105.398 Y80.44 E53.76267
G1 X106.024 Y80.686 E53.78504
G1 X106.668 Y80.877 E53.80738
G1 X107.327 Y81.01 E53.82974
G1 X107.997 Y81.085 E53.85217
G1 X108.669 Y81.098 E53.87452
