;FLAVOR:Marlin
;TIME:21840
;Filament used: 17.8492m
;Layer height: 0.2
;MINX:82.2
;MINY:42.2
;MINZ:0.2
;MAXX:137.8
;MAXY:177.8
;MAXZ:20
;Generated with Creality Slicer 4.8.2-205
M140 S50
M105
M190 S50
M104 S200
M105
M109 S200
M82 ;absolute extrusion mode

G28 ;Home

G92 E0 ;Reset Extruder
G1 Z2.0 F3000 ;Move Z Axis up
G1 X10.1 Y20 Z0.28 F5000.0 ;Move to start position
G1 X10.1 Y200.0 Z0.28 F1500.0 E15 ;Draw the first line
G1 X10.4 Y200.0 Z0.28 F5000.0 ;Move to side a little
G1 X10.4 Y20 Z0.28 F1500.0 E30 ;Draw the second line
G92 E0 ;Reset Extruder
G1 Z2.0 F3000 ;Move Z Axis up

G92 E0
G92 E0
G1 F2100 E-5
;LAYER_COUNT:100
;LAYER:0
M107
G0 F6000 X83.179 Y46.217 Z0.2
;TYPE:SKIRT
G1 F2100 E0
G1 F1200 X83.597 Y45.546 E0.02629
G1 X84.08 Y44.922 E0.05254
G1 X84.623 Y44.349 E0.0788
G1 X85.222 Y43.834 E0.10507
G1 X85.87 Y43.383 E0.13133
G1 X86.561 Y42.999 E0.15762
G1 X87.286 Y42.687 E0.18387
G1 X88.039 Y42.45 E0.21013
G1 X88.813 Y42.291 E0.23641
G1 X89.598 Y42.21 E0.26266
G1 X90 Y42.2 E0.27603
G1 X130 Y42.2 E1.60644
G1 X130.789 Y42.24 E1.63271
G1 X131.569 Y42.359 E1.65896
G1 X132.334 Y42.557 E1.68524
G1 X133.074 Y42.831 E1.71148
G1 X133.783 Y43.179 E1.73775
G1 X134.454 Y43.597 E1.76405
G1 X135.078 Y44.08 E1.79029
G1 X135.651 Y44.623 E1.81655
G1 X136.166 Y45.222 E1.84282
G1 X136.617 Y45.87 E1.86908
G1 X137.001 Y46.561 E1.89537
G1 X137.313 Y47.286 E1.92163
G1 X137.55 Y48.039 E1.94788
G1 X137.709 Y48.813 E1.97416
G1 X137.79 Y49.598 E2.00041
G1 X137.8 Y50 E2.01379
G1 X137.8 Y170 E6.005
G1 X137.76 Y170.789 E6.03128
G1 X137.641 Y171.569 E6.05752
G1 X137.443 Y172.334 E6.0838
G1 X137.169 Y173.074 E6.11005
G1 X136.821 Y173.783 E6.13632
G1 X136.403 Y174.454 E6.16261
G1 X135.92 Y175.078 E6.18886
G1 X135.377 Y175.651 E6.21511
G1 X134.778 Y176.166 E6.24139
G1 X134.13 Y176.617 E6.26765
G1 X133.439 Y177.001 E6.29394
G1 X132.714 Y177.313 E6.32019
G1 X131.961 Y177.55 E6.34645
G1 X131.187 Y177.709 E6.37273
G1 X130.402 Y177.79 E6.39898
G1 X130 Y177.8 E6.41235
G1 X90 Y177.8 E7.74276
G1 X89.211 Y177.76 E7.76903
G1 X88.431 Y177.641 E7.79527
G1 X87.666 Y177.443 E7.82156
G1 X86.926 Y177.169 E7.8478
G1 X86.217 Y176.821 E7.87407
G1 X85.546 Y176.403 E7.90036
G1 X84.922 Y175.92 E7.92661
G1 X84.349 Y175.377 E7.95287
G1 X83.834 Y174.778 E7.97914
G1 X83.383 Y174.13 E8.0054
G1 X82.999 Y173.439 E8.03169
G1 X82.687 Y172.714 E8.05794
G1 X82.45 Y171.961 E8.0842
G1 X82.291 Y171.187 E8.11048
G1 X82.21 Y170.402 E8.13673
G1 X82.2 Y170 E8.1501
G1 X82.2 Y50 E12.14132
G1 X82.24 Y49.211 E12.1676
G1 X82.359 Y48.431 E12.19384
G1 X82.557 Y47.666 E12.22012
G1 X82.831 Y46.926 E12.24637
G1 X83.179 Y46.217 E12.27264
G0 F6000 X83.578 Y46.324
G1 F1200 X83.994 Y45.677 E12.29822
G1 X84.475 Y45.077 E12.3238
G1 X85.016 Y44.53 E12.34938
G1 X85.611 Y44.042 E12.37498
G1 X86.253 Y43.619 E12.40055
G1 X86.936 Y43.264 E12.42615
G1 X87.651 Y42.983 E12.4517
G1 X88.393 Y42.777 E12.47732
G1 X89.151 Y42.649 E12.50288
G1 X90 Y42.6 E12.53117
G1 X130 Y42.6 E13.86157
G1 X130.768 Y42.64 E13.88715
G1 X131.528 Y42.759 E13.91274
G1 X132.271 Y42.957 E13.93831
G1 X132.99 Y43.231 E13.96391
G1 X133.676 Y43.578 E13.98947
G1 X134.323 Y43.994 E14.01506
G1 X134.923 Y44.475 E14.04064
G1 X135.47 Y45.016 E14.06622
G1 X135.958 Y45.611 E14.09182
G1 X136.381 Y46.253 E14.11739
G1 X136.736 Y46.936 E14.14299
G1 X137.017 Y47.651 E14.16854
G1 X137.223 Y48.393 E14.19416
G1 X137.351 Y49.151 E14.21972
G1 X137.4 Y50 E14.24801
G1 X137.4 Y170 E18.23922
G1 X137.36 Y170.768 E18.2648
G1 X137.241 Y171.528 E18.29039
G1 X137.043 Y172.271 E18.31596
G1 X136.769 Y172.99 E18.34155
G1 X136.422 Y173.676 E18.36712
G1 X136.006 Y174.323 E18.39271
G1 X135.525 Y174.923 E18.41828
G1 X134.984 Y175.47 E18.44387
G1 X134.389 Y175.958 E18.46947
G1 X133.747 Y176.381 E18.49504
G1 X133.064 Y176.736 E18.52064
G1 X132.349 Y177.017 E18.54619
G1 X131.607 Y177.223 E18.57181
G1 X130.849 Y177.351 E18.59737
G1 X130 Y177.4 E18.62566
G1 X90 Y177.4 E19.95606
G1 X89.232 Y177.36 E19.98164
G1 X88.472 Y177.241 E20.00723
G1 X87.729 Y177.043 E20.0328
G1 X87.01 Y176.769 E20.05839
G1 X86.324 Y176.422 E20.08396
G1 X85.677 Y176.006 E20.10955
G1 X85.077 Y175.525 E20.13512
G1 X84.53 Y174.984 E20.16071
G1 X84.042 Y174.389 E20.18631
G1 X83.619 Y173.747 E20.21188
G1 X83.264 Y173.064 E20.23748
G1 X82.983 Y172.349 E20.26303
G1 X82.777 Y171.607 E20.28864
G1 X82.649 Y170.849 E20.31421
G1 X82.6 Y170 E20.3425
G1 X82.6 Y50 E24.33371
G1 X82.64 Y49.232 E24.35929
G1 X82.759 Y48.472 E24.38488
G1 X82.957 Y47.729 E24.41045
G1 X83.231 Y47.01 E24.43604
G1 X83.578 Y46.324 E24.46161
G0 F6000 X83.977 Y46.434
G1 F1200 X84.392 Y45.811 E24.48651
G1 X84.871 Y45.237 E24.51138
G1 X85.408 Y44.716 E24.53626
G1 X85.998 Y44.257 E24.56112
G1 X86.634 Y43.862 E24.58603
G1 X87.308 Y43.538 E24.6109
G1 X88.013 Y43.288 E24.63578
G1 X88.741 Y43.114 E24.66067
G1 X89.483 Y43.019 E24.68555
G1 X90 Y43 E24.70276
G1 X130 Y43 E26.03317
G1 X130.747 Y43.04 E26.05805
G1 X131.485 Y43.159 E26.08291
G1 X132.207 Y43.357 E26.10781
G1 X132.903 Y43.63 E26.13268
G1 X133.566 Y43.977 E26.15757
G1 X134.189 Y44.392 E26.18246
G1 X134.763 Y44.871 E26.20733
G1 X135.284 Y45.408 E26.23221
G1 X135.743 Y45.998 E26.25708
G1 X136.138 Y46.634 E26.28198
G1 X136.462 Y47.308 E26.30685
G1 X136.712 Y48.013 E26.33173
G1 X136.886 Y48.741 E26.35662
G1 X136.981 Y49.483 E26.38151
G1 X137 Y50 E26.39871
G1 X137 Y170 E30.38993
G1 X136.96 Y170.747 E30.41481
G1 X136.841 Y171.485 E30.43967
G1 X136.643 Y172.207 E30.46457
G1 X136.37 Y172.903 E30.48944
G1 X136.023 Y173.566 E30.51433
G1 X135.608 Y174.189 E30.53923
G1 X135.129 Y174.763 E30.56409
G1 X134.592 Y175.284 E30.58898
G1 X134.002 Y175.743 E30.61384
G1 X133.366 Y176.138 E30.63874
G1 X132.692 Y176.462 E30.66361
G1 X131.987 Y176.712 E30.68849
G1 X131.259 Y176.886 E30.71339
G1 X130.517 Y176.981 E30.73827
G1 X130 Y177 E30.75548
G1 X90 Y177 E32.08588
G1 X89.253 Y176.96 E32.11076
G1 X88.515 Y176.841 E32.13562
G1 X87.793 Y176.643 E32.16053
G1 X87.097 Y176.37 E32.18539
G1 X86.434 Y176.023 E32.21028
G1 X85.811 Y175.608 E32.23518
G1 X85.237 Y175.129 E32.26004
G1 X84.716 Y174.592 E32.28493
G1 X84.257 Y174.002 E32.30979
G1 X83.862 Y173.366 E32.33469
G1 X83.538 Y172.692 E32.35957
G1 X83.288 Y171.987 E32.38444
G1 X83.114 Y171.259 E32.40934
G1 X83.019 Y170.517 E32.43422
G1 X83 Y170 E32.45143
G1 X83 Y50 E36.44264
G1 X83.04 Y49.253 E36.46752
G1 X83.159 Y48.515 E36.49239
G1 X83.357 Y47.793 E36.51729
G1 X83.63 Y47.097 E36.54215
G1 X83.977 Y46.434 E36.56704
G0 F6000 X84.375 Y46.547
G1 F1200 X84.789 Y45.95 E36.59121
G1 X85.265 Y45.402 E36.61535
G1 X85.799 Y44.909 E36.63952
G1 X86.384 Y44.479 E36.66367
G1 X87.013 Y44.115 E36.68784
G1 X87.678 Y43.822 E36.71201
G1 X88.371 Y43.604 E36.73617
G1 X89.083 Y43.464 E36.76031
G1 X90 Y43.4 E36.79088
G1 X130 Y43.4 E38.12129
G1 X130.725 Y43.44 E38.14544
G1 X131.442 Y43.559 E38.16961
G1 X132.141 Y43.757 E38.19378
G1 X132.814 Y44.03 E38.21793
G1 X133.453 Y44.375 E38.24208
G1 X134.05 Y44.789 E38.26625
G1 X134.598 Y45.265 E38.29039
G1 X135.091 Y45.799 E38.31456
G1 X135.521 Y46.384 E38.33871
G1 X135.885 Y47.013 E38.36288
G1 X136.178 Y47.678 E38.38705
G1 X136.396 Y48.371 E38.41121
G1 X136.536 Y49.083 E38.43535
G1 X136.6 Y50 E38.46592
G1 X136.6 Y170 E42.45714
G1 X136.56 Y170.725 E42.48129
G1 X136.441 Y171.442 E42.50546
G1 X136.243 Y172.141 E42.52963
G1 X135.97 Y172.814 E42.55378
G1 X135.625 Y173.453 E42.57793
G1 X135.211 Y174.05 E42.6021
G1 X134.735 Y174.598 E42.62624
G1 X134.201 Y175.091 E42.65041
G1 X133.616 Y175.521 E42.67456
G1 X132.987 Y175.885 E42.69873
G1 X132.322 Y176.178 E42.7229
G1 X131.629 Y176.396 E42.74707
G1 X130.917 Y176.536 E42.7712
G1 X130 Y176.6 E42.80177
G1 X90 Y176.6 E44.13218
G1 X89.275 Y176.56 E44.15633
G1 X88.558 Y176.441 E44.1805
G1 X87.859 Y176.243 E44.20467
G1 X87.186 Y175.97 E44.22882
G1 X86.547 Y175.625 E44.25298
G1 X85.95 Y175.211 E44.27714
G1 X85.402 Y174.735 E44.30128
G1 X84.909 Y174.201 E44.32545
G1 X84.479 Y173.616 E44.3496
G1 X84.115 Y172.987 E44.37377
G1 X83.822 Y172.322 E44.39794
G1 X83.604 Y171.629 E44.42211
G1 X83.464 Y170.917 E44.44624
G1 X83.4 Y170 E44.47681
G1 X83.4 Y50 E48.46803
G1 X83.44 Y49.275 E48.49218
G1 X83.559 Y48.558 E48.51635
G1 X83.757 Y47.859 E48.54052
G1 X84.03 Y47.186 E48.56467
G1 X84.375 Y46.547 E48.58883
G0 F6000 X84.429 Y47.279
G1 F1200 X84.774 Y46.665 E48.61225
G1 X85.185 Y46.094 E48.63565
G1 X85.659 Y45.573 E48.65908
G1 X86.189 Y45.109 E48.68251
G1 X86.768 Y44.709 E48.70591
G1 X87.389 Y44.377 E48.72933
G1 X88.043 Y44.117 E48.75274
G1 X88.723 Y43.933 E48.77617
G1 X89.419 Y43.827 E48.79959
G1 X90 Y43.8 E48.81893
G1 X130 Y43.8 E50.14934
G1 X130.703 Y43.84 E50.17276
G1 X131.397 Y43.959 E50.19618
G1 X132.072 Y44.157 E50.21957
G1 X132.721 Y44.429 E50.24298
G1 X133.335 Y44.774 E50.2664
G1 X133.906 Y45.185 E50.2898
G1 X134.427 Y45.659 E50.31323
G1 X134.891 Y46.189 E50.33666
G1 X135.291 Y46.768 E50.36007
G1 X135.623 Y47.389 E50.38349
G1 X135.883 Y48.043 E50.40689
G1 X136.067 Y48.723 E50.43032
G1 X136.173 Y49.419 E50.45374
G1 X136.2 Y50 E50.47309
G1 X136.2 Y170 E54.4643
G1 X136.16 Y170.703 E54.48772
G1 X136.041 Y171.397 E54.51114
G1 X135.843 Y172.072 E54.53454
G1 X135.571 Y172.721 E54.55794
G1 X135.226 Y173.335 E54.58137
G1 X134.815 Y173.906 E54.60477
G1 X134.341 Y174.427 E54.62819
G1 X133.811 Y174.891 E54.65162
G1 X133.232 Y175.291 E54.67503
G1 X132.611 Y175.623 E54.69845
G1 X131.957 Y175.883 E54.72186
G1 X131.277 Y176.067 E54.74529
G1 X130.581 Y176.173 E54.7687
G1 X130 Y176.2 E54.78805
G1 X90 Y176.2 E56.11845
G1 X89.297 Y176.16 E56.14187
G1 X88.603 Y176.041 E56.16529
G1 X87.928 Y175.843 E56.18869
G1 X87.279 Y175.571 E56.2121
G1 X86.665 Y175.226 E56.23552
G1 X86.094 Y174.815 E56.25892
G1 X85.573 Y174.341 E56.28235
G1 X85.109 Y173.811 E56.30578
G1 X84.709 Y173.232 E56.32918
G1 X84.377 Y172.611 E56.3526
G1 X84.117 Y171.957 E56.37601
G1 X83.933 Y171.277 E56.39944
G1 X83.827 Y170.581 E56.42286
G1 X83.8 Y170 E56.4422
G1 X83.8 Y50 E60.43342
G1 X83.84 Y49.297 E60.45684
G1 X83.959 Y48.603 E60.48026
G1 X84.157 Y47.928 E60.50365
G1 X84.429 Y47.279 E60.52706
G0 F6000 X84.828 Y47.374
G1 F1200 X85.172 Y46.786 E60.54972
G1 X85.582 Y46.242 E60.57237
G1 X86.053 Y45.751 E60.595
G1 X86.578 Y45.317 E60.61766
G1 X87.15 Y44.948 E60.6403
G1 X87.762 Y44.649 E60.66295
G1 X88.404 Y44.424 E60.68558
G1 X89.069 Y44.275 E60.70825
G1 X90 Y44.2 E60.73931
G1 X130 Y44.2 E62.06972
G1 X130.68 Y44.24 E62.09237
G1 X131.35 Y44.359 E62.11501
G1 X132.002 Y44.556 E62.13766
G1 X132.626 Y44.828 E62.1603
G1 X133.214 Y45.172 E62.18296
G1 X133.758 Y45.582 E62.20562
G1 X134.249 Y46.053 E62.22824
G1 X134.683 Y46.578 E62.2509
G1 X135.052 Y47.15 E62.27354
G1 X135.351 Y47.762 E62.29619
G1 X135.576 Y48.404 E62.31882
G1 X135.725 Y49.069 E62.34149
G1 X135.8 Y50 E62.37255
G1 X135.8 Y170 E66.36377
G1 X135.76 Y170.68 E66.38643
G1 X135.641 Y171.35 E66.40906
G1 X135.444 Y172.002 E66.43171
G1 X135.172 Y172.626 E66.45435
G1 X134.828 Y173.214 E66.47701
G1 X134.418 Y173.758 E66.49967
G1 X133.947 Y174.249 E66.5223
G1 X133.422 Y174.683 E66.54495
G1 X132.85 Y175.052 E66.56759
G1 X132.238 Y175.351 E66.59025
G1 X131.596 Y175.576 E66.61287
G1 X130.931 Y175.725 E66.63554
G1 X130 Y175.8 E66.66661
G1 X90 Y175.8 E67.99701
G1 X89.32 Y175.76 E68.01967
G1 X88.65 Y175.641 E68.0423
G1 X87.998 Y175.444 E68.06495
G1 X87.374 Y175.172 E68.08759
G1 X86.786 Y174.828 E68.11025
G1 X86.242 Y174.418 E68.13291
G1 X85.751 Y173.947 E68.15554
G1 X85.317 Y173.422 E68.17819
G1 X84.948 Y172.85 E68.20083
G1 X84.649 Y172.238 E68.22349
G1 X84.424 Y171.596 E68.24612
G1 X84.275 Y170.931 E68.26878
G1 X84.2 Y170 E68.29985
G1 X84.2 Y50 E72.29106
G1 X84.24 Y49.32 E72.31372
G1 X84.359 Y48.65 E72.33635
G1 X84.556 Y47.998 E72.35901
G1 X84.828 Y47.374 E72.38165
G0 F6000 X85.228 Y47.473
G1 F1200 X85.57 Y46.912 E72.4035
G1 X85.978 Y46.397 E72.42535
G1 X86.445 Y45.935 E72.4472
G1 X86.965 Y45.534 E72.46904
G1 X87.529 Y45.198 E72.49088
G1 X88.131 Y44.934 E72.51274
G1 X88.76 Y44.744 E72.53459
G1 X89.407 Y44.633 E72.55643
G1 X90 Y44.6 E72.57618
G1 X130 Y44.6 E73.90659
G1 X130.656 Y44.64 E73.92845
G1 X131.302 Y44.759 E73.95029
G1 X131.929 Y44.956 E73.97215
G1 X132.527 Y45.228 E73.994
G1 X133.088 Y45.57 E74.01586
G1 X133.603 Y45.978 E74.03771
G1 X134.065 Y46.445 E74.05956
G1 X134.466 Y46.965 E74.0814
G1 X134.802 Y47.529 E74.10323
G1 X135.066 Y48.131 E74.1251
G1 X135.256 Y48.76 E74.14695
G1 X135.367 Y49.407 E74.16879
G1 X135.4 Y50 E74.18854
G1 X135.4 Y170 E78.17976
G1 X135.36 Y170.656 E78.20161
G1 X135.241 Y171.302 E78.22346
G1 X135.044 Y171.929 E78.24532
G1 X134.772 Y172.527 E78.26717
G1 X134.43 Y173.088 E78.28902
G1 X134.022 Y173.603 E78.31088
G1 X133.555 Y174.065 E78.33273
G1 X133.035 Y174.466 E78.35457
G1 X132.471 Y174.802 E78.3764
G1 X131.869 Y175.066 E78.39827
G1 X131.24 Y175.256 E78.42012
G1 X130.593 Y175.367 E78.44195
G1 X130 Y175.4 E78.46171
G1 X90 Y175.4 E79.79211
G1 X89.344 Y175.36 E79.81397
G1 X88.698 Y175.241 E79.83582
G1 X88.071 Y175.044 E79.85768
G1 X87.473 Y174.772 E79.87953
G1 X86.912 Y174.43 E79.90138
G1 X86.397 Y174.022 E79.92324
G1 X85.935 Y173.555 E79.94508
G1 X85.534 Y173.035 E79.96692
G1 X85.198 Y172.471 E79.98876
G1 X84.934 Y171.869 E80.01062
G1 X84.744 Y171.24 E80.03248
G1 X84.633 Y170.593 E80.05431
G1 X84.6 Y170 E80.07406
G1 X84.6 Y50 E84.06528
G1 X84.64 Y49.344 E84.08714
G1 X84.759 Y48.698 E84.10899
G1 X84.956 Y48.071 E84.13085
G1 X85.228 Y47.473 E84.1527
G0 F6000 X85.627 Y47.576
G1 F1200 X85.967 Y47.044 E84.1737
G1 X86.373 Y46.559 E84.19473
G1 X86.836 Y46.129 E84.21575
G1 X87.35 Y45.76 E84.2368
G1 X87.906 Y45.46 E84.25781
G1 X88.495 Y45.232 E84.27881
G1 X89.109 Y45.08 E84.29985
G1 X90 Y45 E84.32961
G1 X130 Y45 E85.66001
G1 X130.631 Y45.04 E85.68104
G1 X131.252 Y45.159 E85.70207
G1 X131.852 Y45.356 E85.72308
G1 X132.424 Y45.627 E85.74413
G1 X132.956 Y45.967 E85.76513
G1 X133.441 Y46.373 E85.78616
G1 X133.871 Y46.836 E85.80718
G1 X134.24 Y47.35 E85.82823
G1 X134.54 Y47.906 E85.84924
G1 X134.768 Y48.495 E85.87025
G1 X134.92 Y49.109 E85.89128
G1 X135 Y50 E85.92104
G1 X135 Y170 E89.91225
G1 X134.96 Y170.631 E89.93328
G1 X134.841 Y171.252 E89.95431
G1 X134.644 Y171.852 E89.97532
G1 X134.373 Y172.424 E89.99637
G1 X134.033 Y172.956 E90.01737
G1 X133.627 Y173.441 E90.03841
G1 X133.164 Y173.871 E90.05942
G1 X132.65 Y174.24 E90.08047
G1 X132.094 Y174.54 E90.10148
G1 X131.505 Y174.768 E90.12249
G1 X130.891 Y174.92 E90.14353
G1 X130 Y175 E90.17328
G1 X90 Y175 E91.50368
G1 X89.369 Y174.96 E91.52471
G1 X88.748 Y174.841 E91.54574
G1 X88.148 Y174.644 E91.56675
G1 X87.576 Y174.373 E91.5878
G1 X87.044 Y174.033 E91.6088
G1 X86.559 Y173.627 E91.62984
G1 X86.129 Y173.164 E91.65085
G1 X85.76 Y172.65 E91.6719
G1 X85.46 Y172.094 E91.69291
G1 X85.232 Y171.505 E91.71392
G1 X85.08 Y170.891 E91.73496
G1 X85 Y170 E91.76471
G1 X85 Y50 E95.75593
G1 X85.04 Y49.369 E95.77696
G1 X85.159 Y48.748 E95.79799
G1 X85.356 Y48.148 E95.81899
G1 X85.627 Y47.576 E95.84004
G0 F6000 X86.026 Y47.684
G1 F1200 X86.365 Y47.181 E95.86022
G1 X86.767 Y46.728 E95.88036
G1 X87.225 Y46.331 E95.90052
G1 X87.732 Y45.998 E95.9207
G1 X88.278 Y45.734 E95.94087
G1 X88.854 Y45.545 E95.96103
G1 X89.45 Y45.433 E95.9812
G1 X90 Y45.4 E95.99953
G1 X130 Y45.4 E97.32993
G1 X130.605 Y45.44 E97.3501
G1 X131.199 Y45.559 E97.37025
G1 X131.773 Y45.755 E97.39042
G1 X132.316 Y46.026 E97.4106
G1 X132.819 Y46.365 E97.43078
G1 X133.272 Y46.767 E97.45092
G1 X133.669 Y47.225 E97.47108
G1 X134.002 Y47.732 E97.49126
G1 X134.266 Y48.278 E97.51143
G1 X134.455 Y48.854 E97.53159
G1 X134.567 Y49.45 E97.55176
G1 X134.6 Y50 E97.57009
G1 X134.6 Y170 E101.5613
G1 X134.56 Y170.605 E101.58147
G1 X134.441 Y171.199 E101.60162
G1 X134.245 Y171.773 E101.62179
