;FLAVOR:Marlin
;TIME:3184
;Filament used: 2.12838m
;Layer height: 0.2
;MINX:27.5
;MINY:61.5
;MINZ:0.2
;MAXX:143.433
;MAXY:162.5
;MAXZ:6
;Generated with Creality Slicer 4.8.2-205
M140 S50
M105
M190 S50
M104 S200
M105
M109 S200
M82 ;absolute extrusion mode

G28 ;Home

G92 E0 ;Reset Extruder
G1 Z2.0 F3000 ;Move Z Axis up
G1 X10.1 Y20 Z0.28 F5000.0 ;Move to start position
G1 X10.1 Y200.0 Z0.28 F1500.0 E15 ;Draw the first line
G1 X10.4 Y200.0 Z0.28 F5000.0 ;Move to side a little
G1 X10.4 Y20 Z0.28 F1500.0 E30 ;Draw the second line
G92 E0 ;Reset Extruder
G1 Z2.0 F3000 ;Move Z Axis up

G92 E0
G92 E0
G1 F2100 E-5
;LAYER_COUNT:30
;LAYER:0
M107
G0 F6000 X50.879 Y64.364 Z0.2
;TYPE:SKIRT
G1 F2100 E0
G1 F1200 X51.631 Y63.803 E0.0312
G1 X52.671 Y63.176 E0.0716
G1 X53.022 Y62.99 E0.08481
G1 X53.297 Y62.85 E0.09507
G1 X53.479 Y62.76 E0.10182
G1 X53.884 Y62.569 E0.11672
G1 X54.756 Y62.223 E0.14792
G1 X55.654 Y61.951 E0.17913
G1 X56.515 Y61.767 E0.20841
G1 X56.863 Y61.707 E0.22016
G1 X57.182 Y61.657 E0.2309
G1 X57.435 Y61.621 E0.2394
G1 X58.62 Y61.517 E0.27896
G1 X58.951 Y61.506 E0.28998
G1 X59.316 Y61.5 E0.30212
G1 X64.304 Y61.5 E0.46802
G1 X65.19 Y61.512 E0.49749
G1 X66.417 Y61.6 E0.5384
G1 X66.589 Y61.622 E0.54417
G1 X67.06 Y61.693 E0.56001
G1 X67.478 Y61.765 E0.57412
G1 X68.395 Y61.963 E0.60532
G1 X69.291 Y62.239 E0.63651
G1 X70.445 Y62.724 E0.67814
G1 X70.768 Y62.882 E0.6901
G1 X71.041 Y63.021 E0.70029
G1 X71.268 Y63.14 E0.70881
G1 X72.08 Y63.61 E0.74002
G1 X72.848 Y64.148 E0.77121
G1 X73.82 Y64.986 E0.81389
G1 X76.19 Y67.284 E0.92369
G1 X78.005 Y68.953 E1.0057
G1 X79.943 Y70.633 E1.09101
G1 X81.876 Y72.218 E1.17415
G1 X83.872 Y73.761 E1.25806
G1 X85.9 Y75.238 E1.3415
G1 X88.003 Y76.681 E1.42633
G1 X90.097 Y78.034 E1.50925
G1 X92.239 Y79.332 E1.59256
G1 X94.421 Y80.572 E1.67603
G1 X96.668 Y81.766 E1.76066
G1 X98.906 Y82.875 E1.84373
G1 X101.202 Y83.933 E1.92782
G1 X103.546 Y84.933 E2.01258
G1 X105.85 Y85.842 E2.09496
G1 X108.224 Y86.701 E2.17893
G1 X110.608 Y87.487 E2.26242
G1 X113.03 Y88.211 E2.3465
G1 X115.452 Y88.861 E2.4299
G1 X117.937 Y89.454 E2.51487
G1 X120.377 Y89.96 E2.59776
G1 X122.84 Y90.402 E2.68098
G1 X125.328 Y90.775 E2.76466
G1 X127.846 Y91.081 E2.84903
G1 X130.325 Y91.311 E2.93183
G1 X131.822 Y91.402 E2.98171
G1 X133.187 Y91.497 E3.02722
G1 X134.119 Y91.601 E3.05841
G1 X135.038 Y91.785 E3.08959
G1 X135.939 Y92.047 E3.1208
G1 X136.814 Y92.384 E3.15198
G1 X137.657 Y92.795 E3.18318
G1 X138.462 Y93.276 E3.21437
G1 X139.224 Y93.824 E3.24558
G1 X139.935 Y94.435 E3.27676
G1 X140.592 Y95.104 E3.30795
G1 X141.19 Y95.827 E3.33916
G1 X141.724 Y96.598 E3.37035
G1 X142.191 Y97.411 E3.40153
G1 X142.586 Y98.262 E3.43274
G1 X142.908 Y99.143 E3.46394
G1 X143.153 Y100.048 E3.49512
G1 X143.32 Y100.971 E3.52632
G1 X143.418 Y102.135 E3.56517
G1 X143.428 Y102.463 E3.57608
G1 X143.433 Y102.797 E3.58719
G1 X143.433 Y117.069 E4.06188
G1 X143.423 Y117.786 E4.08573
G1 X143.37 Y118.723 E4.11695
G1 X143.237 Y119.651 E4.14813
G1 X143.026 Y120.565 E4.17933
G1 X142.738 Y121.457 E4.2105
G1 X142.374 Y122.322 E4.24172
G1 X141.939 Y123.153 E4.27291
G1 X141.434 Y123.943 E4.3041
G1 X140.864 Y124.688 E4.3353
G1 X140.232 Y125.381 E4.36649
G1 X139.544 Y126.018 E4.39768
G1 X138.804 Y126.594 E4.42887
G1 X138.017 Y127.105 E4.46008
G1 X137.19 Y127.547 E4.49127
G1 X136.101 Y128 E4.5305
G1 X135.397 Y128.25 E4.55534
G1 X132.903 Y129.173 E4.64379
G1 X130.561 Y130.116 E4.72777
G1 X128.267 Y131.115 E4.81098
G1 X125.97 Y132.195 E4.89541
G1 X123.745 Y133.319 E4.97832
G1 X121.541 Y134.511 E5.06166
G1 X119.327 Y135.79 E5.1467
G1 X117.208 Y137.098 E5.22952
G1 X115.105 Y138.477 E5.31317
G1 X113.015 Y139.935 E5.39792
G1 X111.022 Y141.41 E5.48039
G1 X109.025 Y142.978 E5.56484
G1 X107.108 Y144.572 E5.64776
G1 X105.201 Y146.253 E5.73231
G1 X103.36 Y147.969 E5.81602
G1 X101.586 Y149.718 E5.89888
G1 X99.824 Y151.559 E5.98363
G1 X98.134 Y153.425 E6.06737
G1 X96.519 Y155.316 E6.15008
G1 X94.859 Y157.374 E6.23802
G1 X94.154 Y158.274 E6.27604
G1 X93.544 Y158.987 E6.30725
G1 X92.876 Y159.646 E6.33846
G1 X92.155 Y160.245 E6.36964
G1 X91.385 Y160.78 E6.40082
G1 X90.572 Y161.248 E6.43203
G1 X89.722 Y161.645 E6.46323
G1 X88.842 Y161.969 E6.49442
G1 X87.937 Y162.216 E6.52562
G1 X87.015 Y162.385 E6.5568
G1 X85.833 Y162.485 E6.59625
G1 X85.508 Y162.495 E6.60706
G1 X85.17 Y162.5 E6.61831
G1 X39.065 Y162.499 E8.15177
G1 X38.367 Y162.49 E8.17498
G1 X37.431 Y162.438 E8.20616
G1 X36.502 Y162.306 E8.23737
G1 X35.588 Y162.096 E8.26856
G1 X34.695 Y161.809 E8.29976
G1 X33.83 Y161.446 E8.33096
G1 X32.999 Y161.012 E8.36214
G1 X32.208 Y160.508 E8.39334
G1 X31.463 Y159.938 E8.42454
G1 X30.769 Y159.307 E8.45574
G1 X30.132 Y158.62 E8.4869
G1 X29.555 Y157.88 E8.51811
G1 X29.043 Y157.094 E8.54931
G1 X28.6 Y156.267 E8.58051
G1 X28.229 Y155.406 E8.61169
G1 X27.933 Y154.516 E8.64289
G1 X27.714 Y153.604 E8.67408
G1 X27.573 Y152.677 E8.70527
G1 X27.513 Y151.788 E8.73491
G1 X27.504 Y151.455 E8.74599
G1 X27.5 Y151.158 E8.75587
G1 X27.501 Y137.985 E9.194
G1 X27.512 Y137.297 E9.21689
G1 X27.603 Y136.056 E9.25827
G1 X27.626 Y135.879 E9.26421
G1 X27.706 Y135.36 E9.28168
G1 X27.78 Y134.946 E9.29566
G1 X27.984 Y134.031 E9.32684
G1 X28.265 Y133.136 E9.35804
G1 X28.721 Y132.061 E9.39688
G1 X28.859 Y131.778 E9.40735
G1 X29.004 Y131.49 E9.41808
G1 X29.133 Y131.244 E9.42732
G1 X29.436 Y130.705 E9.44788
G1 X29.8 Y130.133 E9.47043
G1 X30.493 Y129.114 E9.51142
G1 X31.924 Y126.946 E9.59782
G1 X33.254 Y124.8 E9.68179
G1 X34.517 Y122.628 E9.76536
G1 X35.727 Y120.407 E9.84948
G1 X36.859 Y118.176 E9.93269
G1 X37.935 Y115.904 E10.0163
G1 X38.95 Y113.59 E10.10035
G1 X39.915 Y111.213 E10.18567
G1 X40.761 Y108.939 E10.26637
G1 X41.594 Y106.496 E10.35222
G1 X42.328 Y104.127 E10.43471
G1 X43.014 Y101.668 E10.51962
G1 X43.616 Y99.25 E10.60249
G1 X44.161 Y96.77 E10.68695
G1 X44.624 Y94.31 E10.7702
G1 X45.018 Y91.852 E10.853
G1 X45.401 Y88.903 E10.95191
G1 X45.423 Y88.706 E10.9585
G1 X45.683 Y86.078 E11.04634
G1 X45.858 Y83.599 E11.12899
G1 X45.964 Y81.09 E11.21252
G1 X46 Y78.505 E11.2985
G1 X46.001 Y74.983 E11.41565
G1 X46.012 Y74.297 E11.43847
G1 X46.103 Y73.056 E11.47985
G1 X46.126 Y72.879 E11.48579
G1 X46.198 Y72.406 E11.5017
G1 X46.269 Y71.999 E11.51544
G1 X46.469 Y71.082 E11.54666
G1 X46.747 Y70.187 E11.57783
G1 X47.215 Y69.073 E11.61802
G1 X47.365 Y68.765 E11.62941
G1 X47.515 Y68.469 E11.64045
G1 X47.642 Y68.227 E11.64954
G1 X48.113 Y67.416 E11.68073
G1 X48.651 Y66.648 E11.71192
G1 X49.499 Y65.667 E11.75505
G1 X49.79 Y65.368 E11.76893
G1 X50.029 Y65.13 E11.78015
G1 X50.178 Y64.986 E11.78704
G1 X50.879 Y64.364 E11.81821
G0 F6000 X51.145 Y64.663
G1 F1200 X51.884 Y64.115 E11.84881
G1 X52.859 Y63.53 E11.88663
G1 X53.21 Y63.344 E11.89984
G1 X53.474 Y63.208 E11.90972
G1 X53.656 Y63.118 E11.91647
G1 X54.048 Y62.934 E11.93087
G1 X54.904 Y62.595 E11.96149
G1 X55.786 Y62.33 E11.99212
G1 X56.583 Y62.161 E12.01922
G1 X56.931 Y62.101 E12.03097
G1 X57.239 Y62.053 E12.04133
G1 X57.492 Y62.017 E12.04983
G1 X58.633 Y61.917 E12.08793
G1 X58.964 Y61.906 E12.09894
G1 X59.316 Y61.9 E12.11065
G1 X64.304 Y61.9 E12.27656
G1 X65.184 Y61.912 E12.30583
G1 X66.366 Y61.997 E12.34524
G1 X66.538 Y62.019 E12.35101
G1 X66.992 Y62.087 E12.36628
G1 X67.41 Y62.159 E12.38039
G1 X68.31 Y62.354 E12.41101
G1 X69.189 Y62.627 E12.44163
G1 X70.269 Y63.083 E12.48062
G1 X70.592 Y63.241 E12.49258
G1 X70.856 Y63.375 E12.50243
G1 X71.083 Y63.494 E12.51095
G1 X71.879 Y63.956 E12.54156
G1 X72.632 Y64.486 E12.57219
G1 X73.541 Y65.273 E12.61218
G1 X75.905 Y67.566 E12.72172
G1 X77.756 Y69.267 E12.80533
G1 X79.669 Y70.925 E12.88953
G1 X81.645 Y72.545 E12.97451
G1 X83.621 Y74.073 E13.05759
G1 X85.677 Y75.57 E13.14218
G1 X87.764 Y77.004 E13.2264
G1 X89.878 Y78.369 E13.3101
G1 X92.055 Y79.688 E13.39476
G1 X94.215 Y80.915 E13.47738
G1 X96.509 Y82.135 E13.5638
G1 X98.726 Y83.233 E13.64609
G1 X101.027 Y84.293 E13.73035
G1 X103.378 Y85.297 E13.81537
G1 X105.716 Y86.219 E13.89896
G1 X108.1 Y87.081 E13.98328
G1 X110.473 Y87.864 E14.06639
G1 X112.926 Y88.597 E14.15154
G1 X115.36 Y89.25 E14.23536
G1 X117.861 Y89.847 E14.32088
G1 X120.268 Y90.346 E14.40264
G1 X122.81 Y90.802 E14.48854
G1 X125.261 Y91.17 E14.57097
G1 X127.793 Y91.478 E14.65581
G1 X130.294 Y91.709 E14.73935
G1 X131.794 Y91.801 E14.78933
G1 X133.159 Y91.896 E14.83484
G1 X134.074 Y91.999 E14.86547
G1 X134.976 Y92.182 E14.89608
G1 X135.859 Y92.442 E14.92669
G1 X136.716 Y92.778 E14.95731
G1 X137.541 Y93.187 E14.98794
G1 X138.327 Y93.667 E15.01857
G1 X139.069 Y94.212 E15.04919
G1 X139.76 Y94.82 E15.0798
G1 X140.396 Y95.485 E15.11041
G1 X140.972 Y96.204 E15.14105
G1 X141.484 Y96.969 E15.17166
G1 X141.927 Y97.776 E15.20228
G1 X142.299 Y98.619 E15.23293
G1 X142.595 Y99.49 E15.26353
G1 X142.816 Y100.384 E15.29416
G1 X142.958 Y101.294 E15.32479
G1 X143.018 Y102.147 E15.35323
G1 X143.028 Y102.475 E15.36415
G1 X143.033 Y102.797 E15.37486
G1 X143.033 Y117.064 E15.84938
G1 X143.023 Y117.781 E15.87323
G1 X142.97 Y118.7 E15.90385
G1 X142.838 Y119.611 E15.93446
G1 X142.627 Y120.507 E15.96508
G1 X142.339 Y121.382 E15.99572
G1 X141.976 Y122.228 E16.02634
G1 X141.542 Y123.039 E16.05693
G1 X141.038 Y123.81 E16.08757
G1 X140.47 Y124.534 E16.11817
G1 X139.84 Y125.206 E16.14881
G1 X139.155 Y125.821 E16.17943
G1 X138.419 Y126.375 E16.21007
G1 X137.638 Y126.862 E16.24068
G1 X136.818 Y127.28 E16.27129
G1 X135.967 Y127.623 E16.30181
G1 X135.208 Y127.892 E16.32859
G1 X132.782 Y128.791 E16.41464
G1 X130.4 Y129.749 E16.50004
G1 X128.116 Y130.744 E16.5829
G1 X125.785 Y131.84 E16.66857
G1 X123.568 Y132.96 E16.75118
G1 X121.33 Y134.17 E16.8358
G1 X119.148 Y135.431 E16.91962
G1 X116.975 Y136.772 E17.00455
G1 X114.887 Y138.141 E17.08759
G1 X112.794 Y139.602 E17.17249
G1 X110.761 Y141.106 E17.2566
G1 X108.789 Y142.655 E17.34
G1 X106.834 Y144.281 E17.42458
G1 X104.927 Y145.961 E17.50911
G1 X103.108 Y147.657 E17.59183
G1 X101.283 Y149.456 E17.67706
G1 X99.539 Y151.277 E17.76092
G1 X97.833 Y153.162 E17.84548
G1 X96.227 Y155.042 E17.92772
G1 X94.545 Y157.126 E18.01679
G1 X93.839 Y158.028 E18.05489
G1 X93.24 Y158.727 E18.08551
G1 X92.583 Y159.372 E18.11613
G1 X91.872 Y159.957 E18.14675
G1 X91.113 Y160.479 E18.17739
G1 X90.312 Y160.932 E18.208
G1 X89.475 Y161.315 E18.23861
G1 X88.607 Y161.623 E18.26925
G1 X87.716 Y161.855 E18.29987
G1 X86.808 Y162.008 E18.3305
G1 X85.821 Y162.085 E18.36342
G1 X85.496 Y162.095 E18.37424
G1 X85.17 Y162.1 E18.38508
G1 X39.07 Y162.099 E19.91838
G1 X38.372 Y162.09 E19.94159
G1 X37.453 Y162.038 E19.97221
G1 X36.542 Y161.907 E20.00282
G1 X35.646 Y161.697 E20.03343
G1 X34.771 Y161.41 E20.06406
G1 X33.924 Y161.048 E20.09469
G1 X33.112 Y160.614 E20.12532
G1 X32.341 Y160.112 E20.15592
G1 X31.616 Y159.544 E20.18655
G1 X30.943 Y158.915 E20.21719
G1 X30.328 Y158.231 E20.24778
G1 X29.774 Y157.496 E20.27839
G1 X29.286 Y156.715 E20.30902
G1 X28.867 Y155.895 E20.33965
G1 X28.521 Y155.042 E20.37027
G1 X28.251 Y154.162 E20.40088
G1 X28.058 Y153.261 E20.43153
G1 X27.944 Y152.348 E20.46213
G1 X27.913 Y151.777 E20.48115
G1 X27.904 Y151.444 E20.49223
G1 X27.9 Y151.158 E20.50174
G1 X27.901 Y137.992 E20.93965
G1 X27.912 Y137.304 E20.96253
G1 X27.999 Y136.107 E21.00245
G1 X28.022 Y135.93 E21.00839
G1 X28.099 Y135.431 E21.02518
G1 X28.173 Y135.017 E21.03917
G1 X28.375 Y134.118 E21.06981
G1 X28.653 Y133.241 E21.10041
G1 X29.08 Y132.236 E21.13673
G1 X29.218 Y131.953 E21.1472
G1 X29.358 Y131.676 E21.15753
G1 X29.487 Y131.43 E21.16677
G1 X29.78 Y130.909 E21.18665
G1 X30.13 Y130.358 E21.20836
G1 X30.854 Y129.294 E21.25116
G1 X32.254 Y127.172 E21.33572
G1 X33.597 Y125.006 E21.42048
G1 X34.864 Y122.826 E21.50435
G1 X36.084 Y120.588 E21.58912
G1 X37.212 Y118.365 E21.67204
G1 X38.306 Y116.055 E21.75705
G1 X39.321 Y113.739 E21.84115
G1 X40.269 Y111.406 E21.92491
G1 X41.158 Y109.016 E22.00972
G1 X41.965 Y106.65 E22.09287
G1 X42.72 Y104.215 E22.17766
G1 X43.396 Y101.791 E22.26136
G1 X44.009 Y99.327 E22.34581
G1 X44.55 Y96.864 E22.42968
G1 X45.019 Y94.376 E22.51389
G1 X45.416 Y91.896 E22.59742
G1 X45.792 Y88.996 E22.69469
G1 X45.824 Y88.716 E22.70406
G1 X46.081 Y86.113 E22.79106
G1 X46.256 Y83.643 E22.87342
G1 X46.364 Y81.078 E22.9588
G1 X46.4 Y78.51 E23.04422
G1 X46.401 Y74.989 E23.16133
G1 X46.412 Y74.303 E23.18415
G1 X46.499 Y73.107 E23.22404
G1 X46.522 Y72.93 E23.22997
G1 X46.592 Y72.474 E23.24532
G1 X46.663 Y72.067 E23.25906
G1 X46.86 Y71.168 E23.28967
G1 X47.135 Y70.289 E23.3203
G1 X47.575 Y69.248 E23.35789
G1 X47.725 Y68.94 E23.36929
G1 X47.869 Y68.655 E23.37991
G1 X47.996 Y68.413 E23.389
G1 X48.459 Y67.617 E23.41962
G1 X48.989 Y66.865 E23.45022
G1 X49.786 Y65.946 E23.49068
G1 X50.077 Y65.647 E23.50456
G1 X50.307 Y65.418 E23.51536
G1 X50.456 Y65.274 E23.52225
G1 X51.145 Y64.663 E23.55288
G0 F6000 X51.41 Y64.963
G1 F1200 X52.137 Y64.427 E23.58292
G1 X53.046 Y63.883 E23.61815
G1 X53.397 Y63.697 E23.63136
G1 X53.652 Y63.567 E23.64088
G1 X53.834 Y63.477 E23.64764
G1 X54.212 Y63.299 E23.66153
G1 X55.051 Y62.967 E23.69154
G1 X55.917 Y62.71 E23.72159
G1 X56.651 Y62.555 E23.74654
G1 X56.999 Y62.495 E23.75829
G1 X57.295 Y62.449 E23.76825
G1 X57.548 Y62.413 E23.77675
G1 X58.646 Y62.317 E23.81341
G1 X58.977 Y62.306 E23.82442
G1 X59.316 Y62.3 E23.8357
G1 X64.304 Y62.3 E24.0016
G1 X65.177 Y62.312 E24.03064
G1 X66.315 Y62.393 E24.06859
G1 X66.487 Y62.415 E24.07435
G1 X66.924 Y62.481 E24.08905
G1 X67.342 Y62.553 E24.10316
G1 X68.225 Y62.746 E24.13322
G1 X69.087 Y63.015 E24.16326
G1 X70.093 Y63.442 E24.1996
G1 X70.416 Y63.6 E24.21156
G1 X70.67 Y63.729 E24.22104
G1 X70.897 Y63.848 E24.22956
G1 X71.677 Y64.302 E24.25958
G1 X72.415 Y64.824 E24.28965
G1 X73.263 Y65.56 E24.32699
G1 X75.639 Y67.864 E24.43707
G1 X77.505 Y69.579 E24.52137
G1 X79.419 Y71.239 E24.60563
G1 X81.354 Y72.825 E24.68885
G1 X83.403 Y74.409 E24.77499
G1 X85.444 Y75.896 E24.85898
G1 X87.543 Y77.337 E24.94366
G1 X89.66 Y78.704 E25.02747
G1 X91.845 Y80.028 E25.11245
G1 X94.063 Y81.288 E25.19729
G1 X96.281 Y82.467 E25.28084
G1 X98.573 Y83.604 E25.36593
G1 X100.868 Y84.66 E25.44996
G1 X103.223 Y85.666 E25.53513
G1 X105.57 Y86.591 E25.61904
G1 X107.955 Y87.453 E25.70339
G1 X110.37 Y88.25 E25.78797
G1 X112.813 Y88.981 E25.87279
G1 X115.269 Y89.64 E25.95736
G1 X117.752 Y90.232 E26.04226
G1 X120.223 Y90.745 E26.1262
G1 X122.717 Y91.192 E26.21047
G1 X125.225 Y91.569 E26.29483
G1 X127.779 Y91.879 E26.3804
G1 X130.264 Y92.109 E26.4634
G1 X131.766 Y92.2 E26.51345
G1 X133.131 Y92.295 E26.55896
G1 X134.028 Y92.397 E26.58899
G1 X134.913 Y92.579 E26.61904
G1 X135.778 Y92.838 E26.64907
G1 X136.617 Y93.172 E26.6791
G1 X137.423 Y93.58 E26.70915
G1 X138.19 Y94.057 E26.73919
G1 X138.911 Y94.6 E26.76921
G1 X139.582 Y95.205 E26.79926
G1 X140.197 Y95.866 E26.82929
G1 X140.75 Y96.58 E26.85933
G1 X141.239 Y97.339 E26.88936
G1 X141.658 Y98.139 E26.9194
G1 X142.005 Y98.973 E26.94944
G1 X142.277 Y99.834 E26.97947
G1 X142.471 Y100.716 E27.00951
G1 X142.587 Y101.612 E27.03956
G1 X142.618 Y102.159 E27.05778
G1 X142.628 Y102.487 E27.0687
G1 X142.633 Y102.797 E27.07901
G1 X142.633 Y117.058 E27.55333
G1 X142.623 Y117.775 E27.57718
G1 X142.57 Y118.677 E27.60723
G1 X142.438 Y119.57 E27.63726
G1 X142.228 Y120.448 E27.66728
G1 X141.94 Y121.305 E27.69735
G1 X141.578 Y122.132 E27.72738
G1 X141.144 Y122.924 E27.75742
G1 X140.642 Y123.675 E27.78746
G1 X140.076 Y124.378 E27.81748
G1 X139.449 Y125.028 E27.84752
G1 X138.767 Y125.621 E27.87758
G1 X138.036 Y126.15 E27.90759
G1 X137.261 Y126.613 E27.93761
G1 X136.447 Y127.006 E27.96768
G1 X135.833 Y127.246 E27.98961
G1 X135.084 Y127.512 E28.01604
G1 X132.611 Y128.427 E28.10374
G1 X130.288 Y129.362 E28.18703
G1 X127.935 Y130.387 E28.27239
