;FLAVOR:Marlin
;TIME:9271
;Filament used: 6.56523m
;Layer height: 0.2
;MINX:67.717
;MINY:62.405
;MINZ:0.2
;MAXX:167.554
;MAXY:157.594
;MAXZ:6
;Generated with Creality Slicer 4.8.2-205
M140 S50
M105
M190 S50
M104 S200
M105
M109 S200
M82 ;absolute extrusion mode

G28 ;Home

G92 E0 ;Reset Extruder
G1 Z2.0 F3000 ;Move Z Axis up
G1 X10.1 Y20 Z0.28 F5000.0 ;Move to start position
G1 X10.1 Y200.0 Z0.28 F1500.0 E15 ;Draw the first line
G1 X10.4 Y200.0 Z0.28 F5000.0 ;Move to side a little
G1 X10.4 Y20 Z0.28 F1500.0 E30 ;Draw the second line
G92 E0 ;Reset Extruder
G1 Z2.0 F3000 ;Move Z Axis up

G92 E0
G92 E0
G1 F2100 E-5
;LAYER_COUNT:30
;LAYER:0
M107
G0 F6000 X69.76 Y65.204 Z0.2
;TYPE:SKIRT
G1 F2100 E0
G1 F1200 X70.299 Y64.627 E0.02626
G1 X70.894 Y64.108 E0.05252
G1 X71.538 Y63.651 E0.07879
G1 X72.225 Y63.262 E0.10505
G1 X72.842 Y62.985 E0.12754
G1 X72.915 Y62.956 E0.13015
G1 X73.663 Y62.702 E0.15643
G1 X74.433 Y62.525 E0.1827
G1 X75.216 Y62.427 E0.20895
G1 X75.8 Y62.405 E0.22839
G1 X78.639 Y62.407 E0.32281
G1 X154.797 Y62.407 E2.85584
G1 X155.586 Y62.447 E2.88212
G1 X156.366 Y62.566 E2.90836
G1 X157.005 Y62.726 E2.93027
G1 X157.171 Y62.775 E2.93602
G1 X157.916 Y63.037 E2.96229
G1 X158.631 Y63.372 E2.98855
G1 X159.308 Y63.779 E3.01483
G1 X159.941 Y64.251 E3.04109
G1 X160.523 Y64.785 E3.06736
G1 X161.047 Y65.375 E3.0936
G1 X161.369 Y65.806 E3.1115
G1 X161.501 Y65.996 E3.11919
G1 X161.918 Y66.666 E3.14544
G1 X162.265 Y67.375 E3.1717
G1 X162.539 Y68.116 E3.19797
G1 X162.701 Y68.717 E3.21867
G1 X162.711 Y68.761 E3.22018
G1 X162.847 Y69.539 E3.24644
G1 X162.905 Y70.49 E3.27813
G1 X162.905 Y89.483 E3.90984
G1 X162.865 Y90.272 E3.93612
G1 X162.746 Y91.052 E3.96236
G1 X162.548 Y91.817 E3.98864
G1 X162.34 Y92.397 E4.00914
G1 X162.251 Y92.618 E4.01706
G1 X161.92 Y93.334 E4.0433
G1 X161.517 Y94.014 E4.06959
G1 X161.048 Y94.649 E4.09585
G1 X160.837 Y94.882 E4.1063
G1 X160.966 Y95.008 E4.1123
G1 X161.473 Y95.614 E4.13858
G1 X161.915 Y96.268 E4.16483
G1 X162.368 Y97.133 E4.19731
G1 X162.45 Y97.317 E4.20401
G1 X162.734 Y98.054 E4.23028
G1 X162.943 Y98.815 E4.25653
G1 X163.073 Y99.594 E4.28279
G1 X163.125 Y100.492 E4.31271
G1 X163.125 Y119.48 E4.94425
G1 X163.085 Y120.269 E4.97053
G1 X162.966 Y121.049 E4.99677
G1 X162.768 Y121.814 E5.02306
G1 X162.551 Y122.416 E5.04434
G1 X162.46 Y122.64 E5.05238
G1 X162.314 Y122.954 E5.0639
G1 X162.522 Y123.036 E5.07134
G1 X163.24 Y123.365 E5.0976
G1 X163.922 Y123.764 E5.12388
G1 X164.559 Y124.23 E5.15013
G1 X165.146 Y124.758 E5.17639
G1 X165.677 Y125.342 E5.20265
G1 X166.146 Y125.978 E5.22893
G1 X166.454 Y126.483 E5.2486
G1 X166.564 Y126.68 E5.25611
G1 X166.914 Y127.388 E5.28238
G1 X167.19 Y128.128 E5.30865
G1 X167.39 Y128.892 E5.33491
G1 X167.512 Y129.672 E5.36117
G1 X167.554 Y130.483 E5.38818
G1 X167.553 Y149.497 E6.02059
G1 X167.513 Y150.286 E6.04687
G1 X167.393 Y151.067 E6.07315
G1 X167.196 Y151.831 E6.09939
G1 X166.921 Y152.572 E6.12568
G1 X166.441 Y153.51 E6.16072
G1 X166.297 Y153.75 E6.17003
G1 X165.857 Y154.406 E6.1963
G1 X165.353 Y155.014 E6.22257
G1 X164.79 Y155.567 E6.24882
G1 X164.174 Y156.061 E6.27508
G1 X163.511 Y156.491 E6.30136
G1 X162.809 Y156.851 E6.3276
G1 X162.2 Y157.094 E6.34941
G1 X162.041 Y157.15 E6.35502
G1 X161.284 Y157.374 E6.38128
G1 X160.508 Y157.521 E6.40754
G1 X159.45 Y157.593 E6.44281
G1 X156.477 Y157.593 E6.5417
G1 X155.688 Y157.553 E6.56797
G1 X154.908 Y157.434 E6.59422
G1 X154.143 Y157.236 E6.6205
G1 X153.986 Y157.186 E6.62598
G1 X153.226 Y157.399 E6.65223
G1 X152.448 Y157.535 E6.6785
G1 X151.499 Y157.593 E6.71012
G1 X148.392 Y157.593 E6.81346
G1 X147.603 Y157.553 E6.83974
G1 X146.823 Y157.434 E6.86598
G1 X146.058 Y157.236 E6.89226
G1 X145.883 Y157.18 E6.89837
G1 X145.123 Y157.394 E6.92463
G1 X144.506 Y157.509 E6.94551
G1 X143.363 Y157.593 E6.98363
G1 X140.48 Y157.593 E7.07952
G1 X139.691 Y157.553 E7.10579
G1 X138.911 Y157.434 E7.13204
G1 X138.146 Y157.236 E7.15832
G1 X137.942 Y157.19 E7.16527
G1 X137.181 Y157.401 E7.19154
G1 X136.594 Y157.509 E7.21139
G1 X135.451 Y157.593 E7.24951
G1 X132.528 Y157.593 E7.34673
G1 X131.739 Y157.553 E7.37301
G1 X130.959 Y157.434 E7.39925
G1 X130.194 Y157.236 E7.42553
G1 X129.99 Y157.19 E7.43249
G1 X129.229 Y157.401 E7.45875
G1 X128.642 Y157.509 E7.4786
G1 X127.499 Y157.593 E7.51672
G1 X124.413 Y157.593 E7.61936
G1 X123.624 Y157.553 E7.64564
G1 X122.844 Y157.434 E7.67188
G1 X122.079 Y157.236 E7.69817
G1 X121.904 Y157.18 E7.70428
G1 X121.144 Y157.394 E7.73054
G1 X120.527 Y157.509 E7.75141
G1 X119.384 Y157.593 E7.78953
G1 X116.458 Y157.593 E7.88685
G1 X115.669 Y157.553 E7.91313
G1 X114.889 Y157.434 E7.93937
G1 X114.124 Y157.236 E7.96565
G1 X113.952 Y157.18 E7.97167
G1 X113.192 Y157.394 E7.99793
G1 X112.575 Y157.509 E8.0188
G1 X111.432 Y157.593 E8.05692
G1 X108.509 Y157.593 E8.15414
G1 X107.72 Y157.553 E8.18042
G1 X106.94 Y157.434 E8.20666
G1 X106.175 Y157.236 E8.23294
G1 X106 Y157.18 E8.23905
G1 X105.24 Y157.394 E8.26532
G1 X104.623 Y157.509 E8.28619
G1 X103.48 Y157.593 E8.32431
G1 X100.516 Y157.593 E8.42289
G1 X99.727 Y157.553 E8.44917
G1 X98.947 Y157.434 E8.47541
G1 X98.182 Y157.236 E8.50169
G1 X98.018 Y157.174 E8.50752
G1 X97.85 Y157.236 E8.51348
G1 X97.085 Y157.434 E8.53976
G1 X96.305 Y157.554 E8.56601
G1 X95.511 Y157.594 E8.59245
G1 X92.476 Y157.593 E8.6934
G1 X91.688 Y157.553 E8.71964
G1 X90.907 Y157.433 E8.74592
G1 X90.143 Y157.235 E8.77217
G1 X89.977 Y157.176 E8.77803
G1 X89.816 Y157.236 E8.78375
G1 X89.051 Y157.434 E8.81003
G1 X88.271 Y157.554 E8.83628
G1 X87.477 Y157.594 E8.86272
G1 X84.402 Y157.593 E8.96499
G1 X83.614 Y157.553 E8.99124
G1 X82.833 Y157.433 E9.01752
G1 X82.069 Y157.235 E9.04377
G1 X81.906 Y157.177 E9.04952
G1 X81.779 Y157.225 E9.05404
G1 X81.015 Y157.427 E9.08032
G1 X80.235 Y157.55 E9.10659
G1 X79.405 Y157.594 E9.13423
G1 X76.473 Y157.593 E9.23175
G1 X75.685 Y157.553 E9.25799
G1 X74.904 Y157.433 E9.28427
G1 X74.268 Y157.274 E9.30608
G1 X74.102 Y157.225 E9.31183
G1 X73.357 Y156.963 E9.3381
G1 X72.642 Y156.628 E9.36436
G1 X71.965 Y156.221 E9.39063
G1 X71.332 Y155.749 E9.4169
G1 X70.75 Y155.215 E9.44317
G1 X70.226 Y154.625 E9.46941
G1 X69.938 Y154.242 E9.48535
G1 X69.806 Y154.055 E9.49296
G1 X69.383 Y153.388 E9.51923
G1 X69.031 Y152.681 E9.5455
G1 X68.752 Y151.942 E9.57177
G1 X68.56 Y151.233 E9.59621
G1 X68.549 Y151.183 E9.59791
G1 X68.419 Y150.404 E9.62418
G1 X68.367 Y149.507 E9.65406
G1 X68.367 Y130.514 E10.28577
G1 X68.407 Y129.725 E10.31205
G1 X68.526 Y128.945 E10.33829
G1 X68.724 Y128.18 E10.36457
G1 X68.917 Y127.636 E10.38377
G1 X68.996 Y127.437 E10.39089
G1 X69.325 Y126.719 E10.41716
G1 X69.724 Y126.037 E10.44344
G1 X70.19 Y125.4 E10.46969
G1 X70.343 Y125.23 E10.4773
G1 X70.013 Y124.893 E10.49299
G1 X69.52 Y124.276 E10.51925
G1 X68.93 Y123.316 E10.55673
G1 X68.822 Y123.108 E10.56453
G1 X68.494 Y122.39 E10.59078
G1 X68.24 Y121.642 E10.61706
G1 X68.038 Y120.718 E10.64851
G1 X68.033 Y120.686 E10.64959
G1 X67.95 Y119.901 E10.67585
G1 X67.939 Y119.482 E10.68979
G1 X67.939 Y100.514 E11.32066
G1 X67.979 Y99.725 E11.34694
G1 X68.098 Y98.945 E11.37318
G1 X68.296 Y98.18 E11.39947
G1 X68.487 Y97.643 E11.41842
G1 X68.565 Y97.446 E11.42547
G1 X68.892 Y96.727 E11.45174
G1 X69.291 Y96.045 E11.47802
G1 X69.756 Y95.407 E11.50428
G1 X70.015 Y95.119 E11.51716
G1 X69.786 Y94.884 E11.52808
G1 X69.294 Y94.267 E11.55432
G1 X68.724 Y93.342 E11.59046
G1 X68.615 Y93.134 E11.59827
G1 X68.284 Y92.417 E11.62454
G1 X68.028 Y91.67 E11.6508
G1 X67.83 Y90.796 E11.68061
G1 X67.825 Y90.766 E11.68162
G1 X67.735 Y89.982 E11.70787
G1 X67.719 Y89.485 E11.7244
G1 X67.717 Y70.478 E12.35658
G1 X67.757 Y69.689 E12.38286
G1 X67.876 Y68.909 E12.4091
G1 X68.074 Y68.144 E12.43538
G1 X68.348 Y67.403 E12.46166
G1 X68.696 Y66.694 E12.48793
G1 X69.113 Y66.024 E12.51417
G1 X69.555 Y65.447 E12.53835
G1 X69.76 Y65.204 E12.54892
G0 F6000 X70.066 Y65.462
G1 F1200 X70.592 Y64.901 E12.5745
G1 X71.173 Y64.397 E12.60008
G1 X71.803 Y63.957 E12.62564
G1 X72.476 Y63.584 E12.65123
G1 X72.99 Y63.357 E12.66992
G1 X73.063 Y63.328 E12.67253
G1 X73.792 Y63.081 E12.69814
G1 X74.542 Y62.912 E12.72371
G1 X75.306 Y62.821 E12.7493
G1 X75.8 Y62.805 E12.76574
G1 X78.639 Y62.807 E12.86016
G1 X154.797 Y62.807 E15.39319
G1 X155.565 Y62.847 E15.41876
G1 X156.325 Y62.966 E15.44435
G1 X156.892 Y63.11 E15.46381
G1 X157.058 Y63.159 E15.46956
G1 X157.783 Y63.415 E15.49514
G1 X158.478 Y63.744 E15.52071
G1 X159.135 Y64.144 E15.5463
G1 X159.747 Y64.61 E15.57188
G1 X160.307 Y65.137 E15.59746
G1 X160.81 Y65.72 E15.62307
G1 X161.04 Y66.034 E15.63601
G1 X161.172 Y66.224 E15.64371
G1 X161.578 Y66.878 E15.66931
G1 X161.913 Y67.57 E15.69488
G1 X162.175 Y68.293 E15.72046
G1 X162.311 Y68.806 E15.73811
G1 X162.321 Y68.85 E15.73961
G1 X162.452 Y69.608 E15.7652
G1 X162.505 Y70.49 E15.79458
G1 X162.505 Y89.483 E16.42629
G1 X162.465 Y90.251 E16.45187
G1 X162.346 Y91.011 E16.47746
G1 X162.148 Y91.754 E16.50303
G1 X161.969 Y92.247 E16.52048
G1 X161.88 Y92.468 E16.5284
G1 X161.556 Y93.166 E16.554
G1 X161.162 Y93.826 E16.57956
G1 X160.701 Y94.442 E16.60515
G1 X160.28 Y94.896 E16.62575
G1 X160.727 Y95.339 E16.64668
G1 X161.213 Y95.935 E16.67225
G1 X161.634 Y96.578 E16.69782
G1 X162.002 Y97.296 E16.72465
G1 X162.084 Y97.48 E16.73135
G1 X162.36 Y98.198 E16.75694
G1 X162.56 Y98.94 E16.7825
G1 X162.682 Y99.7 E16.8081
G1 X162.725 Y100.492 E16.83448
G1 X162.725 Y119.48 E17.46602
G1 X162.685 Y120.248 E17.4916
G1 X162.566 Y121.008 E17.51719
G1 X162.368 Y121.751 E17.54276
G1 X162.181 Y122.265 E17.56095
G1 X162.09 Y122.489 E17.56899
G1 X161.766 Y123.182 E17.59444
G1 X162.175 Y123.329 E17.60889
G1 X162.374 Y123.408 E17.61602
G1 X163.074 Y123.729 E17.64163
G1 X163.736 Y124.12 E17.6672
G1 X164.354 Y124.578 E17.69278
G1 X164.921 Y125.098 E17.71837
G1 X165.431 Y125.674 E17.74396
G1 X165.878 Y126.299 E17.76952
G1 X166.105 Y126.678 E17.78421
G1 X166.215 Y126.875 E17.79172
G1 X166.555 Y127.565 E17.8173
G1 X166.821 Y128.287 E17.84289
G1 X167.01 Y129.033 E17.86849
G1 X167.122 Y129.794 E17.89407
G1 X167.154 Y130.483 E17.91701
G1 X167.153 Y149.497 E18.54942
G1 X167.113 Y150.266 E18.57503
G1 X166.993 Y151.025 E18.60059
G1 X166.796 Y151.769 E18.62619
G1 X166.522 Y152.487 E18.65175
G1 X166.098 Y153.304 E18.68236
G1 X165.954 Y153.544 E18.69167
G1 X165.525 Y154.182 E18.71724
G1 X165.032 Y154.772 E18.74282
G1 X164.48 Y155.308 E18.76841
G1 X163.875 Y155.784 E18.79401
G1 X163.224 Y156.194 E18.8196
G1 X162.535 Y156.534 E18.84516
G1 X162.067 Y156.717 E18.86187
G1 X161.908 Y156.773 E18.86748
G1 X161.171 Y156.99 E18.89303
G1 X160.414 Y157.13 E18.91863
G1 X159.45 Y157.193 E18.95076
G1 X156.477 Y157.193 E19.04965
G1 X155.709 Y157.153 E19.07523
G1 X154.949 Y157.034 E19.10081
G1 X154.206 Y156.836 E19.12639
G1 X153.985 Y156.756 E19.1342
G1 X153.84 Y156.813 E19.13938
G1 X153.098 Y157.018 E19.16499
G1 X152.34 Y157.145 E19.19055
G1 X151.499 Y157.193 E19.21857
G1 X148.392 Y157.193 E19.32191
G1 X147.624 Y157.153 E19.34749
G1 X146.864 Y157.034 E19.37307
G1 X146.121 Y156.836 E19.39865
G1 X145.889 Y156.747 E19.40691
G1 X145.736 Y156.807 E19.41238
G1 X144.995 Y157.013 E19.43796
G1 X144.447 Y157.113 E19.45649
G1 X143.363 Y157.193 E19.49264
G1 X140.48 Y157.193 E19.58853
G1 X139.712 Y157.153 E19.6141
G1 X138.952 Y157.034 E19.63969
G1 X138.209 Y156.836 E19.66526
G1 X137.975 Y156.747 E19.67359
G1 X137.796 Y156.816 E19.67997
G1 X137.054 Y157.019 E19.70556
G1 X136.535 Y157.113 E19.7231
G1 X135.451 Y157.193 E19.75925
G1 X132.528 Y157.193 E19.85647
G1 X131.76 Y157.153 E19.88205
G1 X131 Y157.034 E19.90764
G1 X130.257 Y156.836 E19.93321
G1 X130.023 Y156.747 E19.94154
G1 X129.844 Y156.816 E19.94792
G1 X129.102 Y157.019 E19.9735
G1 X128.583 Y157.113 E19.99105
G1 X127.499 Y157.193 E20.0272
G1 X124.413 Y157.193 E20.12984
G1 X123.645 Y157.153 E20.15542
G1 X122.885 Y157.034 E20.181
G1 X122.142 Y156.836 E20.20658
G1 X121.91 Y156.747 E20.21484
G1 X121.757 Y156.807 E20.22031
G1 X121.016 Y157.013 E20.24589
G1 X120.468 Y157.113 E20.26442
G1 X119.384 Y157.193 E20.30057
G1 X116.458 Y157.193 E20.39789
G1 X115.69 Y157.153 E20.42347
G1 X114.93 Y157.034 E20.44905
G1 X114.187 Y156.836 E20.47463
G1 X113.949 Y156.75 E20.48304
G1 X113.805 Y156.807 E20.4882
G1 X113.064 Y157.013 E20.51378
G1 X112.516 Y157.113 E20.5323
G1 X111.432 Y157.193 E20.56846
G1 X108.509 Y157.193 E20.66568
G1 X107.741 Y157.153 E20.69125
G1 X106.981 Y157.034 E20.71684
G1 X106.238 Y156.836 E20.74241
G1 X106.006 Y156.747 E20.75068
G1 X105.853 Y156.807 E20.75614
G1 X105.112 Y157.013 E20.78173
G1 X104.564 Y157.113 E20.80025
G1 X103.48 Y157.193 E20.8364
G1 X100.516 Y157.193 E20.93499
G1 X99.748 Y157.153 E20.96057
G1 X98.988 Y157.034 E20.98615
G1 X98.245 Y156.836 E21.01173
G1 X98.015 Y156.748 E21.01992
G1 X97.692 Y156.866 E21.03135
G1 X96.946 Y157.054 E21.05694
G1 X96.184 Y157.164 E21.08255
G1 X95.512 Y157.194 E21.10492
G1 X92.477 Y157.193 E21.20587
G1 X91.708 Y157.153 E21.23148
G1 X90.949 Y157.033 E21.25704
G1 X90.205 Y156.835 E21.28264
G1 X89.972 Y156.751 E21.29088
G1 X89.658 Y156.866 E21.302
G1 X88.912 Y157.054 E21.32759
G1 X88.15 Y157.164 E21.3532
G1 X87.478 Y157.194 E21.37557
G1 X84.403 Y157.193 E21.47785
G1 X83.634 Y157.153 E21.50346
G1 X82.875 Y157.033 E21.52902
G1 X82.131 Y156.835 E21.55462
G1 X81.9 Y156.752 E21.56279
G1 X81.619 Y156.856 E21.57275
G1 X80.874 Y157.047 E21.59833
G1 X80.113 Y157.16 E21.62392
G1 X79.405 Y157.194 E21.6475
G1 X76.473 Y157.193 E21.74502
G1 X75.705 Y157.153 E21.77059
G1 X74.946 Y157.033 E21.79615
G1 X74.381 Y156.89 E21.81554
G1 X74.215 Y156.841 E21.82129
G1 X73.49 Y156.585 E21.84687
G1 X72.795 Y156.256 E21.87244
G1 X72.138 Y155.856 E21.89802
G1 X71.526 Y155.39 E21.92361
G1 X70.966 Y154.863 E21.94918
G1 X70.264 Y154.011 E21.9859
G1 X70.132 Y153.824 E21.99352
G1 X69.722 Y153.174 E22.01908
G1 X69.382 Y152.484 E22.04466
G1 X69.114 Y151.763 E22.07024
G1 X68.951 Y151.147 E22.09144
G1 X68.94 Y151.097 E22.09314
G1 X68.814 Y150.338 E22.11873
G1 X68.767 Y149.507 E22.14641
G1 X68.767 Y130.514 E22.77812
G1 X68.807 Y129.746 E22.8037
G1 X68.926 Y128.986 E22.82929
G1 X69.124 Y128.243 E22.85486
G1 X69.289 Y127.784 E22.87108
G1 X69.368 Y127.585 E22.87821
G1 X69.689 Y126.885 E22.90382
G1 X70.08 Y126.223 E22.92939
G1 X70.538 Y125.605 E22.95498
G1 X70.899 Y125.211 E22.97275
G1 X70.778 Y125.109 E22.97801
G1 X70.246 Y124.553 E23.00361
G1 X69.775 Y123.945 E23.02919
G1 X69.285 Y123.132 E23.06076
G1 X69.177 Y122.924 E23.06855
G1 X68.858 Y122.224 E23.09414
G1 X68.614 Y121.495 E23.11971
G1 X68.433 Y120.656 E23.14826
G1 X68.428 Y120.624 E23.14933
G1 X68.339 Y119.482 E23.18743
G1 X68.339 Y100.514 E23.81831
G1 X68.379 Y99.746 E23.84389
G1 X68.498 Y98.986 E23.86947
G1 X68.696 Y98.243 E23.89505
G1 X68.859 Y97.79 E23.91106
G1 X68.937 Y97.593 E23.91811
G1 X69.257 Y96.893 E23.94371
G1 X69.647 Y96.231 E23.96926
G1 X70.105 Y95.613 E23.99485
G1 X70.563 Y95.111 E24.01745
G1 X70.551 Y95.101 E24.01797
G1 X70.02 Y94.544 E24.04356
G1 X69.55 Y93.935 E24.06915
G1 X69.078 Y93.157 E24.09941
G1 X68.969 Y92.949 E24.10723
G1 X68.648 Y92.25 E24.13281
G1 X68.401 Y91.521 E24.15841
G1 X68.225 Y90.731 E24.18533
G1 X68.22 Y90.701 E24.18634
G1 X68.133 Y89.936 E24.21195
G1 X68.119 Y89.485 E24.22696
G1 X68.117 Y70.478 E24.85913
G1 X68.157 Y69.71 E24.88471
G1 X68.276 Y68.95 E24.9103
G1 X68.474 Y68.206 E24.9359
G1 X68.748 Y67.488 E24.96146
G1 X69.095 Y66.801 E24.98706
G1 X69.511 Y66.154 E25.01265
G1 X69.861 Y65.705 E25.03158
G1 X70.066 Y65.462 E25.04215
G0 F6000 X70.372 Y65.72
G1 F1200 X70.884 Y65.175 E25.06703
G1 X71.451 Y64.688 E25.09189
G1 X72.068 Y64.264 E25.11679
G1 X72.726 Y63.908 E25.14167
G1 X73.138 Y63.729 E25.15661
G1 X73.211 Y63.7 E25.15922
G1 X73.92 Y63.461 E25.18411
G1 X74.65 Y63.299 E25.20898
