;FLAVOR:Marlin
;TIME:5655
;Filament used: 4.17048m
;Layer height: 0.2
;MINX:62.407
;MINY:71.406
;MINZ:0.2
;MAXX:157.593
;MAXY:127.594
;MAXZ:5.4
;Generated with Creality Slicer 4.8.2-205
M140 S50
M105
M190 S50
M104 S200
M105
M109 S200
M82 ;absolute extrusion mode

G28 ;Home

G92 E0 ;Reset Extruder
G1 Z2.0 F3000 ;Move Z Axis up
G1 X10.1 Y20 Z0.28 F5000.0 ;Move to start position
G1 X10.1 Y200.0 Z0.28 F1500.0 E15 ;Draw the first line
G1 X10.4 Y200.0 Z0.28 F5000.0 ;Move to side a little
G1 X10.4 Y20 Z0.28 F1500.0 E30 ;Draw the second line
G92 E0 ;Reset Extruder
G1 Z2.0 F3000 ;Move Z Axis up

G92 E0
G92 E0
G1 F2100 E-5
;LAYER_COUNT:27
;LAYER:0
M107
G0 F6000 X65.139 Y73.446 Z0.2
;TYPE:SKIRT
G1 F2100 E0
G1 F1200 X65.752 Y72.948 E0.02627
G1 X66.411 Y72.514 E0.05251
G1 X67.112 Y72.149 E0.0788
G1 X67.846 Y71.857 E0.10507
G1 X68.507 Y71.664 E0.12798
G1 X68.646 Y71.63 E0.13274
G1 X69.421 Y71.482 E0.15898
G1 X70.499 Y71.407 E0.19492
G1 X80.51 Y71.407 E0.52789
G1 X81.299 Y71.447 E0.55416
G1 X82.079 Y71.566 E0.58041
G1 X82.844 Y71.764 E0.60669
G1 X83.012 Y71.826 E0.61264
G1 X83.562 Y71.654 E0.63181
G1 X84.335 Y71.496 E0.65805
G1 X85.51 Y71.407 E0.69725
G1 X120.855 Y71.407 E1.87282
G1 X121.644 Y71.447 E1.8991
G1 X122.424 Y71.566 E1.92534
G1 X123.505 Y71.871 E1.9627
G1 X123.696 Y71.94 E1.96946
G1 X124.424 Y72.246 E1.99572
G1 X125.118 Y72.623 E2.02199
G1 X125.77 Y73.069 E2.04826
G1 X126.373 Y73.578 E2.07451
G1 X127.09 Y74.345 E2.10943
G1 X127.152 Y74.421 E2.11269
G1 X127.62 Y75.058 E2.13898
G1 X127.863 Y75.452 E2.15438
G1 X128.408 Y76.396 E2.19063
G1 X128.597 Y75.98 E2.20583
G1 X128.689 Y75.796 E2.21267
G1 X129.078 Y75.108 E2.23896
G1 X129.534 Y74.463 E2.26523
G1 X130.053 Y73.868 E2.29149
G1 X130.629 Y73.328 E2.31775
G1 X131.257 Y72.85 E2.344
G1 X131.93 Y72.437 E2.37027
G1 X132.622 Y72.103 E2.39582
G1 X132.806 Y72.025 E2.40247
G1 X133.547 Y71.754 E2.42871
G1 X134.313 Y71.559 E2.455
G1 X135.094 Y71.443 E2.48126
G1 X135.851 Y71.406 E2.50647
G1 X149.501 Y71.407 E2.96047
G1 X150.289 Y71.447 E2.98672
G1 X151.07 Y71.567 E3.013
G1 X151.834 Y71.764 E3.03924
G1 X152.916 Y72.195 E3.07798
G1 X153.15 Y72.309 E3.08663
G1 X153.842 Y72.69 E3.11291
G1 X154.491 Y73.14 E3.13917
G1 X155.092 Y73.652 E3.16543
G1 X155.637 Y74.223 E3.19169
G1 X156.123 Y74.846 E3.21797
G1 X156.542 Y75.515 E3.24422
G1 X156.892 Y76.223 E3.27049
G1 X157.142 Y76.879 E3.29384
G1 X157.201 Y77.058 E3.30011
G1 X157.41 Y77.82 E3.32639
G1 X157.541 Y78.599 E3.35266
G1 X157.593 Y79.5 E3.38268
G1 X157.593 Y98.5 E4.01462
G1 X157.553 Y99.289 E4.0409
G1 X157.519 Y99.512 E4.0484
G1 X157.593 Y100.5 E4.08135
G1 X157.593 Y119.5 E4.7133
G1 X157.553 Y120.289 E4.73957
G1 X157.434 Y121.069 E4.76582
G1 X157.236 Y121.834 E4.7921
G1 X156.962 Y122.574 E4.81834
G1 X156.509 Y123.467 E4.85165
G1 X156.356 Y123.726 E4.86165
G1 X155.92 Y124.385 E4.88793
G1 X155.42 Y124.996 E4.91419
G1 X154.861 Y125.554 E4.94046
G1 X154.248 Y126.052 E4.96673
G1 X153.589 Y126.486 E4.99298
G1 X152.888 Y126.851 E5.01926
G1 X152.154 Y127.143 E5.04554
G1 X151.493 Y127.336 E5.06844
G1 X151.354 Y127.37 E5.0732
G1 X150.579 Y127.518 E5.09944
G1 X149.501 Y127.593 E5.13538
G1 X139.49 Y127.593 E5.46835
G1 X138.701 Y127.553 E5.49463
G1 X137.921 Y127.434 E5.52087
G1 X137.156 Y127.236 E5.54715
G1 X136.988 Y127.174 E5.55311
G1 X136.438 Y127.346 E5.57227
G1 X135.665 Y127.504 E5.59852
G1 X134.49 Y127.593 E5.63771
G1 X99.145 Y127.593 E6.81329
G1 X98.356 Y127.553 E6.83956
G1 X97.576 Y127.434 E6.86581
G1 X96.495 Y127.129 E6.90317
G1 X96.304 Y127.06 E6.90992
G1 X95.576 Y126.754 E6.93619
G1 X94.882 Y126.377 E6.96245
G1 X94.23 Y125.931 E6.98873
G1 X93.627 Y125.422 E7.01497
G1 X92.893 Y124.634 E7.05079
G1 X92.829 Y124.555 E7.05417
G1 X92.364 Y123.917 E7.08043
G1 X92.135 Y123.545 E7.09496
G1 X91.592 Y122.604 E7.13109
G1 X91.403 Y123.02 E7.14629
G1 X91.311 Y123.204 E7.15313
G1 X90.922 Y123.892 E7.17942
G1 X90.466 Y124.537 E7.20569
G1 X89.947 Y125.132 E7.23195
G1 X89.371 Y125.672 E7.25821
G1 X88.743 Y126.15 E7.28446
G1 X88.07 Y126.563 E7.31073
G1 X87.378 Y126.897 E7.33628
G1 X87.194 Y126.975 E7.34293
G1 X86.453 Y127.246 E7.36917
G1 X85.687 Y127.441 E7.39546
G1 X84.906 Y127.557 E7.42172
G1 X84.149 Y127.594 E7.44693
G1 X70.499 Y127.593 E7.90093
G1 X69.711 Y127.553 E7.92718
G1 X68.93 Y127.433 E7.95346
G1 X68.166 Y127.236 E7.9797
G1 X67.084 Y126.805 E8.01844
G1 X66.85 Y126.691 E8.02709
G1 X66.158 Y126.31 E8.05337
G1 X65.509 Y125.86 E8.07963
G1 X64.908 Y125.348 E8.10589
G1 X64.363 Y124.777 E8.13215
G1 X63.877 Y124.154 E8.15843
G1 X63.458 Y123.485 E8.18468
G1 X63.108 Y122.777 E8.21095
G1 X62.858 Y122.121 E8.2343
G1 X62.799 Y121.942 E8.24057
G1 X62.59 Y121.18 E8.26685
G1 X62.459 Y120.401 E8.29312
G1 X62.407 Y119.5 E8.32314
G1 X62.407 Y100.5 E8.95508
G1 X62.447 Y99.711 E8.98136
G1 X62.481 Y99.488 E8.98886
G1 X62.407 Y98.5 E9.02181
G1 X62.407 Y79.5 E9.65376
G1 X62.447 Y78.711 E9.68003
G1 X62.566 Y77.931 E9.70628
G1 X62.764 Y77.166 E9.73256
G1 X63.038 Y76.426 E9.7588
G1 X63.491 Y75.533 E9.79211
G1 X63.644 Y75.274 E9.80211
G1 X64.08 Y74.615 E9.8284
G1 X64.58 Y74.004 E9.85465
G1 X65.139 Y73.446 E9.88092
G0 F6000 X65.451 Y73.703
G1 F1200 X66.053 Y73.224 E9.90651
G1 X66.701 Y72.809 E9.93211
G1 X67.388 Y72.464 E9.95767
G1 X68.107 Y72.192 E9.98324
G1 X68.602 Y72.053 E10.00034
G1 X68.741 Y72.019 E10.0051
G1 X69.496 Y71.875 E10.03067
G1 X70.499 Y71.807 E10.0641
G1 X80.51 Y71.807 E10.39707
G1 X81.278 Y71.847 E10.42265
G1 X82.038 Y71.966 E10.44823
G1 X82.781 Y72.164 E10.47381
G1 X83 Y72.247 E10.4816
G1 X83.7 Y72.032 E10.50595
G1 X84.455 Y71.883 E10.53155
G1 X85.51 Y71.807 E10.56673
G1 X120.855 Y71.807 E11.74231
G1 X121.623 Y71.847 E11.76789
G1 X122.383 Y71.966 E11.79347
G1 X123.369 Y72.247 E11.82757
G1 X123.56 Y72.316 E11.83433
G1 X124.269 Y72.615 E11.85992
G1 X124.943 Y72.985 E11.88549
G1 X125.575 Y73.424 E11.91109
G1 X126.158 Y73.926 E11.93668
G1 X126.78 Y74.598 E11.96713
G1 X126.842 Y74.674 E11.97039
G1 X127.297 Y75.295 E11.996
G1 X127.517 Y75.652 E12.00995
G1 X128.49 Y77.338 E12.07469
G1 X128.507 Y77.272 E12.07696
G1 X128.773 Y76.551 E12.10252
G1 X128.955 Y76.159 E12.11689
G1 X129.047 Y75.975 E12.12374
G1 X129.427 Y75.305 E12.14936
G1 X129.873 Y74.679 E12.17492
G1 X130.382 Y74.103 E12.20049
G1 X130.949 Y73.582 E12.2261
G1 X131.566 Y73.124 E12.25165
G1 X132.228 Y72.731 E12.27726
G1 X132.778 Y72.471 E12.29749
G1 X132.962 Y72.393 E12.30414
G1 X133.685 Y72.13 E12.32973
G1 X134.431 Y71.943 E12.35531
G1 X135.192 Y71.835 E12.38087
G1 X135.851 Y71.806 E12.40281
G1 X149.501 Y71.807 E12.85682
G1 X150.269 Y71.847 E12.88239
G1 X151.028 Y71.967 E12.90795
G1 X151.772 Y72.164 E12.93355
G1 X152.741 Y72.554 E12.96829
G1 X152.975 Y72.668 E12.97695
G1 X153.648 Y73.041 E13.00254
G1 X154.279 Y73.481 E13.02813
G1 X154.86 Y73.984 E13.05369
G1 X155.387 Y74.545 E13.07929
G1 X155.852 Y75.158 E13.10488
G1 X156.251 Y75.815 E13.13044
G1 X156.58 Y76.511 E13.15605
G1 X156.762 Y77.004 E13.17353
G1 X156.821 Y77.183 E13.1798
G1 X157.024 Y77.926 E13.20541
G1 X157.148 Y78.685 E13.23099
G1 X157.193 Y79.5 E13.25814
G1 X157.193 Y98.5 E13.89008
G1 X157.153 Y99.268 E13.91566
G1 X157.12 Y99.476 E13.92267
G1 X157.193 Y100.5 E13.95681
G1 X157.193 Y119.5 E14.58875
G1 X157.153 Y120.268 E14.61433
G1 X157.034 Y121.028 E14.63992
G1 X156.836 Y121.771 E14.66549
G1 X156.562 Y122.49 E14.69109
G1 X156.164 Y123.264 E14.72003
G1 X156.011 Y123.523 E14.73004
G1 X155.586 Y124.164 E14.75562
G1 X155.097 Y124.757 E14.78118
G1 X154.549 Y125.297 E14.80677
G1 X153.947 Y125.776 E14.83236
G1 X153.299 Y126.191 E14.85795
G1 X152.612 Y126.536 E14.88352
G1 X151.893 Y126.808 E14.90909
G1 X151.398 Y126.947 E14.92619
G1 X151.259 Y126.981 E14.93095
G1 X150.504 Y127.125 E14.95651
G1 X149.501 Y127.193 E14.98995
G1 X139.49 Y127.193 E15.32292
G1 X138.722 Y127.153 E15.3485
G1 X137.962 Y127.034 E15.37408
G1 X137.219 Y126.836 E15.39966
G1 X137 Y126.753 E15.40745
G1 X136.3 Y126.968 E15.4318
G1 X135.545 Y127.117 E15.4574
G1 X134.49 Y127.193 E15.49258
G1 X99.145 Y127.193 E16.66816
G1 X98.377 Y127.153 E16.69374
G1 X97.617 Y127.034 E16.71932
G1 X96.631 Y126.753 E16.75342
G1 X96.44 Y126.684 E16.76018
G1 X95.731 Y126.385 E16.78577
G1 X95.057 Y126.015 E16.81134
G1 X94.425 Y125.576 E16.83694
G1 X93.842 Y125.074 E16.86252
G1 X93.204 Y124.382 E16.89383
G1 X93.14 Y124.303 E16.89721
G1 X92.688 Y123.681 E16.92278
G1 X92.481 Y123.345 E16.93591
G1 X91.509 Y121.661 E17.00058
G1 X91.49 Y121.736 E17.00315
G1 X91.223 Y122.457 E17.02873
G1 X91.045 Y122.841 E17.0428
G1 X90.953 Y123.025 E17.04965
G1 X90.573 Y123.695 E17.07526
G1 X90.127 Y124.321 E17.10083
G1 X89.618 Y124.897 E17.1264
G1 X89.051 Y125.418 E17.15201
G1 X88.434 Y125.876 E17.17756
G1 X87.772 Y126.269 E17.20317
G1 X87.222 Y126.529 E17.2234
G1 X87.038 Y126.607 E17.23005
G1 X86.315 Y126.87 E17.25564
G1 X85.569 Y127.057 E17.28122
G1 X84.808 Y127.165 E17.30678
G1 X84.149 Y127.194 E17.32872
G1 X70.499 Y127.193 E17.78272
G1 X69.731 Y127.153 E17.8083
G1 X68.972 Y127.033 E17.83386
G1 X68.228 Y126.836 E17.85946
G1 X67.259 Y126.446 E17.8942
G1 X67.025 Y126.332 E17.90286
G1 X66.352 Y125.959 E17.92845
G1 X65.721 Y125.519 E17.95404
G1 X65.14 Y125.016 E17.9796
G1 X64.613 Y124.455 E18.0052
G1 X64.148 Y123.842 E18.03079
G1 X63.749 Y123.185 E18.05635
G1 X63.42 Y122.489 E18.08196
G1 X63.238 Y121.996 E18.09944
G1 X63.179 Y121.817 E18.10571
G1 X62.976 Y121.074 E18.13132
G1 X62.852 Y120.315 E18.1569
G1 X62.807 Y119.5 E18.18405
G1 X62.807 Y100.5 E18.81599
G1 X62.847 Y99.732 E18.84157
G1 X62.88 Y99.524 E18.84858
G1 X62.807 Y98.5 E18.88272
G1 X62.807 Y79.5 E19.51466
G1 X62.847 Y78.732 E19.54024
G1 X62.966 Y77.972 E19.56583
G1 X63.164 Y77.229 E19.5914
G1 X63.438 Y76.51 E19.61699
G1 X63.836 Y75.736 E19.64594
G1 X63.989 Y75.477 E19.65595
G1 X64.414 Y74.836 E19.68153
G1 X64.903 Y74.243 E19.70709
G1 X65.451 Y73.703 E19.73268
G0 F6000 X65.763 Y73.962
G1 F1200 X66.353 Y73.502 E19.75756
G1 X66.988 Y73.107 E19.78244
G1 X67.662 Y72.782 E19.80732
G1 X68.697 Y72.441 E19.84357
G1 X68.836 Y72.407 E19.84833
G1 X69.571 Y72.269 E19.8732
G1 X70.499 Y72.207 E19.90413
G1 X80.51 Y72.207 E20.2371
G1 X81.257 Y72.247 E20.26198
G1 X81.995 Y72.366 E20.28685
G1 X82.717 Y72.564 E20.31175
G1 X83.005 Y72.677 E20.32204
G1 X83.122 Y72.627 E20.32627
G1 X83.838 Y72.41 E20.35115
G1 X84.573 Y72.27 E20.37604
G1 X85.51 Y72.207 E20.40727
G1 X120.855 Y72.207 E21.58285
G1 X121.602 Y72.247 E21.60773
G1 X122.34 Y72.366 E21.6326
G1 X123.233 Y72.623 E21.6635
G1 X123.424 Y72.692 E21.67026
G1 X124.113 Y72.984 E21.69515
G1 X124.767 Y73.347 E21.72003
G1 X125.379 Y73.778 E21.74492
G1 X125.941 Y74.272 E21.76981
G1 X126.47 Y74.851 E21.79589
G1 X126.532 Y74.927 E21.79916
G1 X126.973 Y75.531 E21.82403
G1 X127.17 Y75.852 E21.83656
G1 X128.66 Y78.434 E21.93571
G1 X128.726 Y78.016 E21.94978
G1 X128.92 Y77.293 E21.97468
G1 X129.313 Y76.338 E22.00903
G1 X129.405 Y76.154 E22.01587
G1 X129.775 Y75.503 E22.04078
G1 X130.212 Y74.896 E22.06565
G1 X130.711 Y74.339 E22.09052
G1 X131.267 Y73.839 E22.1154
G1 X131.873 Y73.4 E22.14028
G1 X132.523 Y73.029 E22.16518
G1 X132.934 Y72.839 E22.18024
G1 X133.118 Y72.761 E22.18688
G1 X133.821 Y72.506 E22.21176
G1 X134.548 Y72.328 E22.23665
G1 X135.289 Y72.228 E22.26152
G1 X135.851 Y72.206 E22.28023
G1 X149.501 Y72.207 E22.73423
G1 X150.248 Y72.247 E22.75911
G1 X150.986 Y72.367 E22.78398
G1 X151.707 Y72.564 E22.80884
G1 X152.566 Y72.914 E22.83969
G1 X152.8 Y73.028 E22.84834
G1 X153.454 Y73.391 E22.87322
G1 X154.065 Y73.822 E22.89809
G1 X154.627 Y74.316 E22.92298
G1 X155.134 Y74.866 E22.94786
G1 X155.578 Y75.468 E22.97274
G1 X155.956 Y76.114 E22.99763
G1 X156.382 Y77.13 E23.03427
G1 X156.441 Y77.309 E23.04054
G1 X156.637 Y78.031 E23.06543
G1 X156.755 Y78.769 E23.09028
G1 X156.793 Y79.5 E23.11463
G1 X156.793 Y98.5 E23.74657
G1 X156.753 Y99.247 E23.77145
G1 X156.732 Y99.575 E23.78238
G1 X156.793 Y100.5 E23.81322
G1 X156.793 Y119.5 E24.44516
G1 X156.753 Y120.247 E24.47004
G1 X156.634 Y120.985 E24.4949
G1 X156.436 Y121.707 E24.5198
G1 X156.163 Y122.403 E24.54467
G1 X155.82 Y123.06 E24.56932
G1 X155.667 Y123.319 E24.57933
G1 X155.253 Y123.942 E24.6042
G1 X154.774 Y124.517 E24.6291
G1 X154.237 Y125.038 E24.65398
G1 X153.647 Y125.498 E24.67886
G1 X153.012 Y125.893 E24.70374
G1 X152.338 Y126.218 E24.72862
G1 X151.303 Y126.559 E24.76487
G1 X151.164 Y126.593 E24.76963
G1 X150.429 Y126.731 E24.7945
G1 X149.501 Y126.793 E24.82544
G1 X139.49 Y126.793 E25.1584
G1 X138.743 Y126.753 E25.18328
G1 X138.005 Y126.634 E25.20815
G1 X137.283 Y126.436 E25.23305
G1 X136.995 Y126.323 E25.24334
G1 X136.878 Y126.373 E25.24757
G1 X136.162 Y126.59 E25.27245
G1 X135.427 Y126.73 E25.29734
G1 X134.49 Y126.793 E25.32857
G1 X99.145 Y126.793 E26.50415
G1 X98.398 Y126.753 E26.52903
G1 X97.66 Y126.634 E26.5539
G1 X96.767 Y126.377 E26.5848
G1 X96.576 Y126.308 E26.59156
G1 X95.887 Y126.016 E26.61645
G1 X95.233 Y125.653 E26.64133
G1 X94.621 Y125.222 E26.66622
G1 X94.059 Y124.728 E26.69111
G1 X93.515 Y124.13 E26.718
G1 X93.451 Y124.051 E26.72138
G1 X92.828 Y123.145 E26.75795
G1 X91.339 Y120.566 E26.857
G1 X91.272 Y120.992 E26.87134
G1 X91.077 Y121.715 E26.89625
G1 X90.687 Y122.662 E26.93031
G1 X90.595 Y122.846 E26.93715
G1 X90.225 Y123.497 E26.96206
G1 X89.788 Y124.104 E26.98694
G1 X89.289 Y124.661 E27.01181
G1 X88.733 Y125.161 E27.03668
G1 X88.127 Y125.6 E27.06157
G1 X87.477 Y125.971 E27.08646
G1 X87.066 Y126.161 E27.10152
G1 X86.882 Y126.239 E27.10817
G1 X86.179 Y126.494 E27.13304
G1 X85.452 Y126.672 E27.15793
G1 X84.711 Y126.772 E27.1828
G1 X84.149 Y126.794 E27.20151
G1 X70.499 Y126.793 E27.65551
G1 X69.752 Y126.753 E27.68039
G1 X69.014 Y126.633 E27.70526
G1 X68.293 Y126.436 E27.73012
G1 X67.434 Y126.086 E27.76097
G1 X67.2 Y125.972 E27.76963
G1 X66.546 Y125.609 E27.79451
G1 X65.935 Y125.178 E27.81937
G1 X65.373 Y124.684 E27.84426
G1 X64.866 Y124.134 E27.86914
G1 X64.422 Y123.532 E27.89402
G1 X64.044 Y122.886 E27.91891
G1 X63.618 Y121.87 E27.95556
G1 X63.559 Y121.691 E27.96183
G1 X63.363 Y120.969 E27.98671
G1 X63.245 Y120.231 E28.01157
G1 X63.207 Y119.5 E28.03591
G1 X63.207 Y100.5 E28.66786
G1 X63.247 Y99.753 E28.69274
G1 X63.268 Y99.425 E28.70367
G1 X63.207 Y98.5 E28.7345
G1 X63.207 Y79.5 E29.36644
G1 X63.247 Y78.753 E29.39132
G1 X63.366 Y78.015 E29.41619
G1 X63.564 Y77.293 E29.44109
G1 X63.837 Y76.597 E29.46595
G1 X64.18 Y75.94 E29.4906
G1 X64.333 Y75.681 E29.50061
G1 X64.747 Y75.058 E29.52549
G1 X65.226 Y74.483 E29.55038
G1 X65.763 Y73.962 E29.57526
G0 F6000 X66.073 Y74.222
G1 F1200 X66.651 Y73.782 E29.59943
G1 X67.273 Y73.407 E29.62358
G1 X67.933 Y73.103 E29.64775
G1 X68.792 Y72.83 E29.67773
G1 X68.931 Y72.796 E29.68249
G1 X69.645 Y72.663 E29.70665
G1 X70.499 Y72.607 E29.73511
G1 X80.51 Y72.607 E30.06808
G1 X81.235 Y72.647 E30.09223
G1 X81.952 Y72.766 E30.1164
G1 X82.651 Y72.964 E30.14056
G1 X83.01 Y73.11 E30.15346
G1 X83.278 Y72.996 E30.16314
G1 X83.974 Y72.788 E30.1873
G1 X84.689 Y72.658 E30.21147
G1 X85.51 Y72.607 E30.23883
G1 X120.855 Y72.607 E31.41441
G1 X121.58 Y72.647 E31.43856
G1 X122.297 Y72.766 E31.46274
G1 X123.097 Y73 E31.49046
G1 X123.288 Y73.069 E31.49721
G1 X123.957 Y73.353 E31.52139
G1 X124.59 Y73.708 E31.54552
G1 X125.181 Y74.132 E31.56972
G1 X125.721 Y74.617 E31.59386
G1 X126.16 Y75.104 E31.61567
G1 X126.222 Y75.18 E31.61893
G1 X126.824 Y76.052 E31.65417
G1 X128.993 Y79.809 E31.79846
G1 X128.974 Y79.458 E31.81015
G1 X129.015 Y78.733 E31.8343
G1 X129.136 Y78.016 E31.85849
G1 X129.334 Y77.318 E31.88262
G1 X129.671 Y76.516 E31.91155
G1 X129.763 Y76.332 E31.91839
G1 X130.123 Y75.702 E31.94253
G1 X130.55 Y75.114 E31.9667
G1 X131.039 Y74.577 E31.99085
G1 X131.585 Y74.097 E32.01503
G1 X132.179 Y73.68 E32.03917
