;FLAVOR:Marlin
;TIME:8525
;Filament used: 5.55781m
;Layer height: 0.2
;MINX:86.48
;MINY:27.481
;MINZ:0.2
;MAXX:168.297
;MAXY:195.119
;MAXZ:3.2
;Generated with Creality Slicer 4.8.2-205
M140 S50
M105
M190 S50
M104 S200
M105
M109 S200
M82 ;absolute extrusion mode

G28 ;Home

G92 E0 ;Reset Extruder
G1 Z2.0 F3000 ;Move Z Axis up
G1 X10.1 Y20 Z0.28 F5000.0 ;Move to start position
G1 X10.1 Y200.0 Z0.28 F1500.0 E15 ;Draw the first line
G1 X10.4 Y200.0 Z0.28 F5000.0 ;Move to side a little
G1 X10.4 Y20 Z0.28 F1500.0 E30 ;Draw the second line
G92 E0 ;Reset Extruder
G1 Z2.0 F3000 ;Move Z Axis up

G92 E0
G92 E0
G1 F2100 E-5
;LAYER_COUNT:16
;LAYER:0
M107
G0 F6000 X87.182 Y34.694 Z0.2
;TYPE:SKIRT
G1 F2100 E0
G1 F1200 X87.546 Y33.83 E0.03118
G1 X87.982 Y33 E0.06237
G1 X88.488 Y32.21 E0.09357
G1 X89.059 Y31.466 E0.12476
G1 X89.692 Y30.773 E0.15598
G1 X90.381 Y30.137 E0.18717
G1 X91.121 Y29.562 E0.21834
G1 X91.909 Y29.052 E0.24956
G1 X92.736 Y28.611 E0.28073
G1 X93.598 Y28.242 E0.31191
G1 X94.489 Y27.948 E0.34312
G1 X95.401 Y27.73 E0.37431
G1 X96.329 Y27.592 E0.40551
G1 X97.114 Y27.536 E0.43169
G1 X97.435 Y27.525 E0.44237
G1 X97.812 Y27.519 E0.45491
G1 X106.748 Y27.52 E0.75212
G1 X109.284 Y27.556 E0.83648
G1 X112.886 Y27.52 E0.95629
G1 X114.054 Y27.486 E0.99515
G1 X114.375 Y27.481 E1.00583
G1 X123.176 Y27.481 E1.29855
G1 X124.032 Y27.492 E1.32703
G1 X124.944 Y27.543 E1.35741
G1 X125.822 Y27.63 E1.38675
G1 X127.066 Y27.771 E1.42839
G1 X129.55 Y27.983 E1.51131
G1 X132.067 Y28.125 E1.59516
G1 X134.562 Y28.197 E1.67818
G1 X137.087 Y28.197 E1.76216
G1 X139.637 Y28.126 E1.84701
G1 X142.098 Y27.986 E1.92899
G1 X144.686 Y27.767 E2.01538
G1 X146.238 Y27.6 E2.0673
G1 X147.176 Y27.533 E2.09857
G1 X147.489 Y27.524 E2.10899
G1 X147.805 Y27.519 E2.1195
G1 X156.731 Y27.52 E2.41638
G1 X157.43 Y27.529 E2.43963
G1 X158.366 Y27.581 E2.47081
G1 X159.295 Y27.713 E2.50202
G1 X160.209 Y27.923 E2.53321
G1 X161.101 Y28.21 E2.56438
G1 X161.966 Y28.572 E2.59556
G1 X162.797 Y29.007 E2.62676
G1 X163.588 Y29.511 E2.65796
G1 X164.334 Y30.081 E2.68918
G1 X165.028 Y30.711 E2.72036
G1 X165.665 Y31.399 E2.75154
G1 X166.242 Y32.139 E2.78275
G1 X166.754 Y32.925 E2.81395
G1 X167.197 Y33.751 E2.84513
G1 X167.568 Y34.613 E2.87634
G1 X167.864 Y35.503 E2.90754
G1 X168.083 Y36.415 E2.93873
G1 X168.224 Y37.342 E2.96992
G1 X168.284 Y38.22 E2.99919
G1 X168.293 Y38.541 E3.00987
G1 X168.297 Y38.849 E3.02011
G1 X168.295 Y180.945 E7.74625
G1 X168.285 Y181.662 E7.7701
G1 X168.232 Y182.599 E7.80131
G1 X168.099 Y183.527 E7.83249
G1 X167.888 Y184.441 E7.86369
G1 X167.6 Y185.333 E7.89487
G1 X167.236 Y186.198 E7.92608
G1 X166.801 Y187.029 E7.95728
G1 X166.296 Y187.819 E7.98846
G1 X165.726 Y188.564 E8.01966
G1 X165.094 Y189.257 E8.05086
G1 X164.406 Y189.894 E8.08204
G1 X163.666 Y190.47 E8.11323
G1 X162.879 Y190.981 E8.14444
G1 X162.052 Y191.423 E8.17563
G1 X161.19 Y191.793 E8.20683
G1 X160.3 Y192.088 E8.23802
G1 X159.388 Y192.306 E8.2692
G1 X158.543 Y192.437 E8.29764
G1 X158.188 Y192.477 E8.30953
G1 X155.9 Y192.708 E8.38601
G1 X153.384 Y193.034 E8.47039
G1 X150.91 Y193.425 E8.5537
G1 X148.421 Y193.892 E8.63793
G1 X145.989 Y194.419 E8.7207
G1 X145.207 Y194.609 E8.74746
G1 X144.246 Y194.83 E8.78026
G1 X143.324 Y195.001 E8.81145
G1 X142.09 Y195.106 E8.85264
G1 X141.77 Y195.115 E8.86329
G1 X141.461 Y195.119 E8.87356
G1 X132.518 Y195.118 E9.17101
G1 X131.817 Y195.108 E9.19433
G1 X130.881 Y195.055 E9.22551
G1 X129.671 Y194.865 E9.26625
G1 X128.434 Y194.599 E9.30833
G1 X127.952 Y194.488 E9.32478
G1 X125.513 Y193.999 E9.40752
G1 X122.997 Y193.569 E9.49241
G1 X120.519 Y193.216 E9.57566
G1 X118.025 Y192.933 E9.65915
G1 X115.48 Y192.717 E9.7441
G1 X113.018 Y192.577 E9.82612
G1 X110.469 Y192.506 E9.91093
G1 X107.917 Y192.506 E9.99581
G1 X107.381 Y192.517 E10.01364
G1 X107.058 Y192.519 E10.02438
G1 X98.029 Y192.518 E10.32469
G1 X97.331 Y192.508 E10.34791
G1 X96.395 Y192.454 E10.37909
G1 X95.467 Y192.322 E10.41027
G1 X94.553 Y192.11 E10.44147
G1 X93.661 Y191.821 E10.47266
G1 X92.796 Y191.458 E10.50386
G1 X91.966 Y191.022 E10.53504
G1 X91.175 Y190.517 E10.56626
G1 X90.431 Y189.946 E10.59745
G1 X89.738 Y189.314 E10.62865
G1 X89.101 Y188.626 E10.65983
G1 X88.526 Y187.885 E10.69103
G1 X88.015 Y187.099 E10.72221
G1 X87.573 Y186.271 E10.75343
G1 X87.204 Y185.409 E10.78461
G1 X86.909 Y184.519 E10.8158
G1 X86.691 Y183.607 E10.84698
G1 X86.551 Y182.679 E10.8782
G1 X86.493 Y181.787 E10.90793
G1 X86.484 Y181.431 E10.91977
G1 X86.48 Y181.153 E10.92902
G1 X86.482 Y39.027 E15.65615
G1 X86.492 Y38.364 E15.67821
G1 X86.546 Y37.428 E15.70939
G1 X86.68 Y36.5 E15.74057
G1 X86.892 Y35.586 E15.77178
G1 X87.182 Y34.694 E15.80298
G0 F6000 X87.58 Y34.77
G1 F1200 X87.944 Y33.924 E15.83361
G1 X88.38 Y33.113 E15.86424
G1 X88.884 Y32.343 E15.89484
G1 X89.453 Y31.62 E15.92544
G1 X90.083 Y30.948 E15.95608
G1 X90.769 Y30.334 E15.9867
G1 X91.506 Y29.782 E16.01733
G1 X92.287 Y29.295 E16.04794
G1 X93.108 Y28.878 E16.07857
G1 X93.962 Y28.535 E16.10918
G1 X94.843 Y28.266 E16.13982
G1 X95.744 Y28.075 E16.17045
G1 X96.657 Y27.963 E16.20104
G1 X97.128 Y27.936 E16.21673
G1 X97.449 Y27.925 E16.22742
G1 X97.812 Y27.919 E16.23949
G1 X106.743 Y27.92 E16.53654
G1 X108.901 Y27.95 E16.60832
G1 X109.281 Y27.957 E16.62096
G1 X112.901 Y27.92 E16.74137
G1 X114.065 Y27.886 E16.7801
G1 X114.375 Y27.881 E16.79041
G1 X123.176 Y27.881 E17.08313
G1 X124.026 Y27.892 E17.11141
G1 X124.905 Y27.941 E17.14069
G1 X125.611 Y28.01 E17.16428
G1 X126.985 Y28.165 E17.21027
G1 X129.531 Y28.382 E17.29526
G1 X132.034 Y28.524 E17.37864
G1 X134.586 Y28.597 E17.46356
G1 X137.098 Y28.597 E17.54711
G1 X139.635 Y28.526 E17.63152
G1 X142.156 Y28.383 E17.71551
G1 X144.718 Y28.166 E17.80102
G1 X146.284 Y27.997 E17.85341
G1 X147.187 Y27.932 E17.88352
G1 X147.5 Y27.923 E17.89394
G1 X147.805 Y27.919 E17.90408
G1 X156.725 Y27.92 E18.20076
G1 X157.424 Y27.929 E18.22401
G1 X158.344 Y27.981 E18.25466
G1 X159.255 Y28.112 E18.28527
G1 X160.151 Y28.322 E18.31588
G1 X161.026 Y28.609 E18.34651
G1 X161.873 Y28.971 E18.37715
G1 X162.685 Y29.405 E18.40777
G1 X163.456 Y29.907 E18.43837
G1 X164.181 Y30.475 E18.469
G1 X164.854 Y31.104 E18.49964
G1 X165.469 Y31.788 E18.53023
G1 X166.023 Y32.523 E18.56085
G1 X166.511 Y33.304 E18.59148
G1 X166.93 Y34.124 E18.6221
G1 X167.276 Y34.977 E18.65272
G1 X167.546 Y35.857 E18.68334
G1 X167.739 Y36.757 E18.71395
G1 X167.853 Y37.671 E18.74459
G1 X167.884 Y38.231 E18.76324
G1 X167.893 Y38.552 E18.77392
G1 X167.897 Y38.849 E18.7838
G1 X167.895 Y180.94 E23.50977
G1 X167.885 Y181.657 E23.53362
G1 X167.832 Y182.576 E23.56423
G1 X167.7 Y183.487 E23.59485
G1 X167.489 Y184.383 E23.62547
G1 X167.201 Y185.258 E23.6561
G1 X166.838 Y186.104 E23.68672
G1 X166.404 Y186.915 E23.71732
G1 X165.9 Y187.686 E23.74795
G1 X165.332 Y188.41 E23.77856
G1 X164.702 Y189.082 E23.8092
G1 X164.017 Y189.697 E23.83981
G1 X163.281 Y190.251 E23.87045
G1 X162.5 Y190.738 E23.90107
G1 X161.68 Y191.156 E23.93168
G1 X160.826 Y191.5 E23.9623
G1 X159.946 Y191.77 E23.99292
G1 X159.045 Y191.962 E24.02356
G1 X158.497 Y192.04 E24.04197
G1 X158.148 Y192.079 E24.05365
G1 X155.84 Y192.311 E24.1308
G1 X153.346 Y192.635 E24.21445
G1 X150.84 Y193.032 E24.29884
G1 X148.334 Y193.501 E24.38363
G1 X145.924 Y194.024 E24.46565
G1 X145.118 Y194.219 E24.49324
G1 X144.157 Y194.44 E24.52603
G1 X143.251 Y194.608 E24.55668
G1 X142.079 Y194.706 E24.5958
G1 X141.759 Y194.715 E24.60645
G1 X141.461 Y194.719 E24.61636
G1 X132.524 Y194.718 E24.9136
G1 X131.823 Y194.708 E24.93692
G1 X130.904 Y194.655 E24.96754
G1 X129.754 Y194.474 E25.00626
G1 X128.524 Y194.209 E25.04811
G1 X128.049 Y194.1 E25.06432
G1 X125.56 Y193.601 E25.14875
G1 X123.084 Y193.177 E25.2323
G1 X120.549 Y192.816 E25.31746
G1 X118.068 Y192.534 E25.40051
G1 X115.536 Y192.32 E25.48503
G1 X113.018 Y192.177 E25.56891
G1 X110.48 Y192.106 E25.65336
G1 X107.908 Y192.106 E25.7389
G1 X107.379 Y192.117 E25.7565
G1 X107.056 Y192.119 E25.76725
G1 X98.035 Y192.118 E26.06729
G1 X97.337 Y192.108 E26.0905
G1 X96.418 Y192.055 E26.12112
G1 X95.507 Y191.922 E26.15174
G1 X94.611 Y191.711 E26.18236
G1 X93.737 Y191.423 E26.21296
G1 X92.89 Y191.06 E26.24361
G1 X92.079 Y190.625 E26.27422
G1 X91.309 Y190.121 E26.30483
G1 X90.585 Y189.552 E26.33546
G1 X89.913 Y188.922 E26.3661
G1 X89.298 Y188.237 E26.39671
G1 X88.745 Y187.501 E26.42733
G1 X88.258 Y186.72 E26.45795
G1 X87.841 Y185.899 E26.48857
G1 X87.496 Y185.045 E26.51921
G1 X87.227 Y184.165 E26.54981
G1 X87.035 Y183.264 E26.58045
G1 X86.922 Y182.351 E26.61105
G1 X86.892 Y181.777 E26.63017
G1 X86.883 Y181.421 E26.64201
G1 X86.88 Y181.153 E26.65093
G1 X86.882 Y39.033 E31.37786
G1 X86.892 Y38.37 E31.39991
G1 X86.946 Y37.451 E31.43053
G1 X87.079 Y36.54 E31.46115
G1 X87.291 Y35.644 E31.49178
G1 X87.58 Y34.77 E31.52239
G0 F6000 X87.979 Y34.848
G1 F1200 X88.342 Y34.021 E31.55243
G1 X88.777 Y33.229 E31.58249
G1 X89.28 Y32.479 E31.61252
G1 X89.847 Y31.776 E31.64256
G1 X90.474 Y31.127 E31.67258
G1 X91.157 Y30.535 E31.70264
G1 X91.889 Y30.006 E31.73268
G1 X92.665 Y29.544 E31.76271
G1 X93.478 Y29.152 E31.79273
G1 X94.324 Y28.834 E31.82279
G1 X95.194 Y28.592 E31.85283
G1 X96.082 Y28.428 E31.88286
G1 X97.142 Y28.336 E31.91825
G1 X97.463 Y28.325 E31.92893
G1 X97.812 Y28.319 E31.94054
G1 X106.737 Y28.32 E32.23739
G1 X108.894 Y28.35 E32.30914
G1 X109.278 Y28.357 E32.32191
G1 X112.865 Y28.32 E32.44122
G1 X114.077 Y28.285 E32.48155
G1 X114.375 Y28.281 E32.49146
G1 X123.176 Y28.281 E32.78419
G1 X124.02 Y28.292 E32.81226
G1 X124.866 Y28.339 E32.84044
G1 X125.732 Y28.425 E32.86939
G1 X126.977 Y28.566 E32.91106
G1 X129.475 Y28.779 E32.99445
G1 X132.035 Y28.924 E33.07973
G1 X134.574 Y28.997 E33.16421
G1 X137.109 Y28.997 E33.24853
G1 X139.635 Y28.926 E33.33257
G1 X142.177 Y28.782 E33.41726
G1 X144.791 Y28.561 E33.50451
G1 X146.329 Y28.395 E33.55596
G1 X147.199 Y28.332 E33.58497
G1 X147.512 Y28.323 E33.59539
G1 X147.805 Y28.319 E33.60513
G1 X156.72 Y28.32 E33.90165
G1 X157.419 Y28.329 E33.9249
G1 X158.321 Y28.38 E33.95495
G1 X159.214 Y28.512 E33.98497
G1 X160.093 Y28.721 E34.01502
G1 X160.949 Y29.008 E34.04505
G1 X161.777 Y29.369 E34.07509
G1 X162.57 Y29.802 E34.10514
G1 X163.321 Y30.303 E34.13517
G1 X164.025 Y30.869 E34.16521
G1 X164.676 Y31.495 E34.19525
G1 X165.269 Y32.176 E34.22529
G1 X165.799 Y32.907 E34.25532
G1 X166.263 Y33.682 E34.28536
G1 X166.657 Y34.495 E34.31541
G1 X166.977 Y35.339 E34.34543
G1 X167.221 Y36.209 E34.37548
G1 X167.387 Y37.096 E34.4055
G1 X167.484 Y38.242 E34.44375
G1 X167.493 Y38.563 E34.45443
G1 X167.497 Y38.849 E34.46394
G1 X167.495 Y180.934 E39.18971
G1 X167.485 Y181.651 E39.21356
G1 X167.432 Y182.553 E39.24361
G1 X167.3 Y183.446 E39.27364
G1 X167.09 Y184.324 E39.30366
G1 X166.802 Y185.181 E39.33373
G1 X166.44 Y186.008 E39.36376
G1 X166.006 Y186.8 E39.3938
G1 X165.504 Y187.551 E39.42384
G1 X164.938 Y188.254 E39.45386
G1 X164.311 Y188.904 E39.4839
G1 X163.629 Y189.497 E39.51396
G1 X162.898 Y190.026 E39.54397
G1 X162.123 Y190.489 E39.574
G1 X161.309 Y190.882 E39.60406
G1 X160.464 Y191.201 E39.6341
G1 X159.595 Y191.444 E39.66411
G1 X158.451 Y191.642 E39.70273
G1 X158.108 Y191.681 E39.71421
G1 X155.786 Y191.915 E39.79183
G1 X153.299 Y192.238 E39.87524
G1 X150.775 Y192.637 E39.96023
G1 X148.247 Y193.111 E40.04578
G1 X145.822 Y193.636 E40.12831
G1 X145.028 Y193.83 E40.15549
G1 X144.067 Y194.051 E40.18829
G1 X143.179 Y194.214 E40.21832
G1 X142.068 Y194.306 E40.2554
G1 X141.748 Y194.315 E40.26604
G1 X141.461 Y194.319 E40.27559
G1 X132.53 Y194.318 E40.57264
G1 X131.829 Y194.308 E40.59595
G1 X130.927 Y194.255 E40.62601
G1 X129.838 Y194.083 E40.66267
G1 X128.764 Y193.853 E40.69921
G1 X128.138 Y193.71 E40.72056
G1 X125.64 Y193.209 E40.8053
G1 X123.13 Y192.78 E40.89
G1 X120.619 Y192.422 E40.97436
G1 X118.076 Y192.133 E41.05948
G1 X115.594 Y191.923 E41.14233
G1 X113.016 Y191.777 E41.22821
G1 X110.491 Y191.706 E41.31222
G1 X107.899 Y191.706 E41.39843
G1 X107.376 Y191.717 E41.41583
G1 X107.053 Y191.719 E41.42658
G1 X98.041 Y191.718 E41.72632
G1 X97.343 Y191.708 E41.74954
G1 X96.441 Y191.655 E41.77959
G1 X95.548 Y191.523 E41.80961
G1 X94.67 Y191.312 E41.83965
G1 X93.814 Y191.024 E41.86968
G1 X92.987 Y190.662 E41.89971
G1 X92.195 Y190.227 E41.92976
G1 X91.444 Y189.725 E41.95981
G1 X90.741 Y189.158 E41.98985
G1 X90.091 Y188.531 E42.01989
G1 X89.499 Y187.849 E42.04992
G1 X88.969 Y187.118 E42.07995
G1 X88.507 Y186.342 E42.10999
G1 X88.114 Y185.529 E42.14003
G1 X87.796 Y184.684 E42.17006
G1 X87.553 Y183.814 E42.2001
G1 X87.388 Y182.926 E42.23014
G1 X87.292 Y181.767 E42.26882
G1 X87.283 Y181.411 E42.28066
G1 X87.28 Y181.153 E42.28925
G1 X87.282 Y39.039 E47.01598
G1 X87.292 Y38.376 E47.03803
G1 X87.346 Y37.475 E47.06805
G1 X87.479 Y36.581 E47.09811
G1 X87.69 Y35.703 E47.12815
G1 X87.979 Y34.848 E47.15817
G1 F2100 E42.15817
;MESH:slot_cover_143mm_original.stl(4)
G0 F6000 X96.815 Y38.933
G0 X97.895 Y38.933
G0 X99.062 Y179.937
G0 X105.904 Y180.119
;TYPE:WALL-INNER
G1 F2100 E47.15817
G1 F1200 X99.079 Y180.119 E47.38517
G1 X98.88 Y180.119 E47.39179
G1 X98.88 Y179.92 E47.39607
G1 X98.881 Y39.919 E52.05252
G1 X105.706 Y39.919 E52.27952
G1 X105.905 Y39.919 E52.28614
G1 X105.905 Y40.118 E52.29042
G1 X105.904 Y180.119 E56.94687
G0 F6000 X106.304 Y180.519
G1 F1200 X98.679 Y180.519 E57.20048
G1 X98.48 Y180.519 E57.2071
G1 X98.48 Y180.32 E57.21138
G1 X98.481 Y39.519 E61.89444
G1 X106.106 Y39.519 E62.14805
G1 X106.305 Y39.519 E62.15467
G1 X106.305 Y39.718 E62.15895
G1 X106.304 Y180.519 E66.84201
G0 F6000 X106.704 Y180.919
G1 F1200 X98.279 Y180.919 E67.12223
G1 X98.08 Y180.919 E67.12885
G1 X98.08 Y180.72 E67.13313
G1 X98.081 Y39.119 E71.8428
G1 X106.506 Y39.119 E72.12302
G1 X106.705 Y39.119 E72.12963
G1 X106.705 Y39.318 E72.13392
G1 X106.704 Y180.919 E76.84359
G0 F6000 X107.104 Y181.319
;TYPE:WALL-OUTER
G1 F1200 X97.68 Y181.319 E77.15703
G1 X97.681 Y38.719 E81.89992
G1 X107.105 Y38.719 E82.21337
G1 X107.104 Y181.319 E86.95626
G0 F6000 X106.834 Y181.049
G0 X105.514 Y180.009
G0 X105.514 Y179.729
;TYPE:SKIN
G1 F1200 X99.27 Y179.729 E87.16394
G1 X99.271 Y40.309 E91.80107
G1 X105.515 Y40.309 E92.00874
G1 X105.514 Y179.729 E96.64587
G0 F6000 X105.514 Y180.009
G0 X99.806 Y180.009
G0 X99.806 Y179.567
G1 F1200 X99.43 Y179.192 E96.66353
G0 F6000 X99.43 Y178.626
G1 F1200 X100.371 Y179.567 E96.7078
G0 F6000 X100.937 Y179.567
G1 F1200 X99.43 Y178.06 E96.77868
G0 F6000 X99.43 Y177.495
G1 F1200 X101.503 Y179.567 E96.87616
G0 F6000 X102.068 Y179.567
G1 F1200 X99.43 Y176.929 E97.00025
G0 F6000 X99.43 Y176.363
G1 F1200 X102.634 Y179.567 E97.15095
G0 F6000 X103.2 Y179.567
G1 F1200 X99.43 Y175.798 E97.32826
G0 F6000 X99.43 Y175.232
G1 F1200 X103.765 Y179.567 E97.53216
G0 F6000 X104.331 Y179.567
G1 F1200 X99.43 Y174.666 E97.76269
G0 F6000 X99.43 Y174.101
G1 F1200 X104.897 Y179.567 E98.01982
G0 F6000 X105.354 Y179.459
G1 F1200 X99.43 Y173.535 E98.29847
G0 F6000 X99.43 Y172.969
G1 F1200 X105.354 Y178.893 E98.57711
G0 F6000 X105.354 Y178.328
G1 F1200 X99.43 Y172.403 E98.85578
G0 F6000 X99.43 Y171.838
G1 F1200 X105.354 Y177.762 E99.13443
G0 F6000 X105.354 Y177.196
G1 F1200 X99.43 Y171.272 E99.41308
G0 F6000 X99.43 Y170.706
G1 F1200 X105.354 Y176.631 E99.69175
G0 F6000 X105.354 Y176.065
G1 F1200 X99.43 Y170.141 E99.97039
G0 F6000 X99.43 Y169.575
G1 F1200 X105.354 Y175.499 E100.24904
G0 F6000 X105.354 Y174.933
G1 F1200 X99.43 Y169.009 E100.52769
G0 F6000 X99.43 Y168.444
G1 F1200 X105.354 Y174.368 E100.80634
G0 F6000 X105.354 Y173.802
G1 F1200 X99.43 Y167.878 E101.08498
G0 F6000 X99.43 Y167.312
G1 F1200 X105.354 Y173.236 E101.36363
G0 F6000 X105.354 Y172.671
G1 F1200 X99.43 Y166.747 E101.64228
G0 F6000 X99.43 Y166.181
